;FLAVOR:Marlin
;TIME:14323
;Filament used: 12.3291m
;Layer height: 0.2
;MINX:21.565
;MINY:53.528
;MINZ:0.2
;MAXX:213.435
;MAXY:181.472
;MAXZ:4
;Generated with Cura_SteamEngine 4.9.1
M140 S50
M105
M190 S50
M104 S200
M105
M109 S200
M82 ;absolute extrusion mode
; Ender 3 Custom Start G-code
G92 E0 ; Reset Extruder
G28 ; Home all axes
G1 Z2.0 F3000 ; Move Z Axis up little to prevent scratching of Heat Bed
G1 X0.1 Y20 Z0.3 F5000.0 ; Move to start position
G1 X0.1 Y200.0 Z0.3 F1500.0 E15 ; Draw the first line
G1 X0.4 Y200.0 Z0.3 F5000.0 ; Move to side a little
G1 X0.4 Y20 Z0.3 F1500.0 E30 ; Draw the second line
G92 E0 ; Reset Extruder
G1 Z2.0 F3000 ; Move Z Axis up little to prevent scratching of Heat Bed
G1 X5 Y20 Z0.3 F5000.0 ; Move over to prevent blob squish
G92 E0
G92 E0
G1 F2700 E-5
;LAYER_COUNT:20
;LAYER:0
M107
G0 F6000 X49.132 Y72.319 Z0.2
;TYPE:SKIRT
G1 F2700 E0
G1 F1200 X50.036 Y71.722 E0.03603
G1 X51.44 Y70.824 E0.09146
G1 X52.598 Y70.104 E0.13682
G1 X52.922 Y69.909 E0.14939
G1 X53.382 Y69.637 E0.16717
G1 X54.49 Y68.992 E0.20981
G1 X55.673 Y68.325 E0.25498
G1 X56.591 Y67.821 E0.28981
G1 X57.918 Y67.116 E0.33979
G1 X58.773 Y66.675 E0.37179
G1 X60.084 Y66.019 E0.42055
G1 X61.101 Y65.526 E0.45814
G1 X62.235 Y64.992 E0.49983
G1 X63.291 Y64.511 E0.53842
G1 X64.434 Y64.005 E0.58
G1 X65.665 Y63.477 E0.62455
G1 X66.803 Y63.004 E0.66554
G1 X67.849 Y62.583 E0.70304
G1 X68.929 Y62.16 E0.74162
G1 X70.05 Y61.736 E0.78148
G1 X71.261 Y61.292 E0.82438
G1 X72.308 Y60.921 E0.86132
G1 X73.554 Y60.492 E0.90515
G1 X74.666 Y60.122 E0.94413
G1 X75.738 Y59.778 E0.98158
G1 X77.053 Y59.369 E1.02738
G1 X78.109 Y59.053 E1.06404
G1 X79.409 Y58.678 E1.10904
G1 X80.409 Y58.4 E1.14356
G1 X81.677 Y58.058 E1.18725
G1 X82.826 Y57.762 E1.22671
G1 X84.077 Y57.452 E1.26958
G1 X85.087 Y57.21 E1.30412
G1 X86.447 Y56.898 E1.35053
G1 X87.435 Y56.681 E1.38417
G1 X88.97 Y56.359 E1.43634
G1 X89.926 Y56.168 E1.46876
G1 X91.298 Y55.907 E1.51521
G1 X92.334 Y55.719 E1.55024
G1 X93.641 Y55.494 E1.59435
G1 X94.658 Y55.327 E1.62862
G1 X96.027 Y55.115 E1.6747
G1 X96.999 Y54.973 E1.70737
G1 X98.545 Y54.761 E1.75927
G1 X99.203 Y54.676 E1.78134
G1 X100.78 Y54.485 E1.83417
G1 X101.737 Y54.378 E1.8662
G1 X103.114 Y54.235 E1.91225
G1 X103.979 Y54.153 E1.94115
G1 X105.503 Y54.019 E1.99203
G1 X106.322 Y53.954 E2.01936
G1 X107.754 Y53.852 E2.06711
G1 X108.684 Y53.793 E2.0981
G1 X110.164 Y53.71 E2.1474
G1 X110.928 Y53.674 E2.17284
G1 X112.496 Y53.613 E2.22503
G1 X113.417 Y53.585 E2.25568
G1 X114.925 Y53.55 E2.30585
G1 X115.689 Y53.539 E2.33126
G1 X117.289 Y53.528 E2.38448
G1 X118.03 Y53.529 E2.40913
G1 X119.474 Y53.541 E2.45716
G1 X120.401 Y53.557 E2.48799
G1 X121.771 Y53.59 E2.53357
G1 X122.69 Y53.62 E2.56415
G1 X124.097 Y53.677 E2.61099
G1 X124.925 Y53.716 E2.63856
G1 X126.451 Y53.801 E2.68939
G1 X127.313 Y53.856 E2.71812
G1 X128.74 Y53.959 E2.76571
G1 X129.614 Y54.029 E2.79487
G1 X131.088 Y54.158 E2.84408
G1 X131.807 Y54.227 E2.86811
G1 X133.405 Y54.393 E2.92154
G1 X134.263 Y54.491 E2.95027
G1 X135.855 Y54.684 E3.0036
G1 X136.825 Y54.811 E3.03614
G1 X138.241 Y55.008 E3.08369
G1 X139.176 Y55.147 E3.11513
G1 X140.582 Y55.367 E3.16246
G1 X141.643 Y55.542 E3.19823
G1 X142.954 Y55.772 E3.2425
G1 X144.007 Y55.965 E3.27811
G1 X145.511 Y56.256 E3.32906
G1 X146.292 Y56.414 E3.35556
G1 X147.804 Y56.734 E3.40696
G1 X148.802 Y56.954 E3.44095
G1 X150.153 Y57.266 E3.48707
G1 X151.248 Y57.53 E3.52453
G1 X152.575 Y57.864 E3.57005
G1 X153.638 Y58.142 E3.60659
G1 X154.911 Y58.487 E3.65046
G1 X155.857 Y58.753 E3.68314
G1 X157.218 Y59.15 E3.7303
G1 X158.391 Y59.506 E3.77107
G1 X159.627 Y59.894 E3.81415
G1 X160.677 Y60.235 E3.85087
G1 X162.378 Y60.808 E3.91057
G1 X163.055 Y61.047 E3.93445
G1 X164.309 Y61.498 E3.97878
G1 X165.409 Y61.908 E4.01782
G1 X166.667 Y62.392 E4.06265
G1 X167.66 Y62.786 E4.09818
G1 X168.858 Y63.277 E4.14125
G1 X170.061 Y63.785 E4.18468
G1 X171.161 Y64.266 E4.22461
G1 X172.269 Y64.765 E4.26503
G1 X173.858 Y65.503 E4.3233
G1 X174.426 Y65.778 E4.34429
G1 X175.476 Y66.296 E4.38323
G1 X176.706 Y66.921 E4.42912
G1 X177.604 Y67.39 E4.46281
G1 X178.872 Y68.073 E4.51072
G1 X179.704 Y68.535 E4.54237
G1 X180.99 Y69.27 E4.59164
G1 X181.881 Y69.796 E4.62605
G1 X183.095 Y70.533 E4.67329
G1 X183.845 Y71.002 E4.70271
G1 X185.179 Y71.864 E4.75553
G1 X186.125 Y72.492 E4.7933
G1 X186.659 Y72.853 E4.81474
G1 X187.081 Y73.149 E4.83188
G1 X187.989 Y73.794 E4.86893
G1 X189.31 Y74.76 E4.92336
G1 X189.956 Y75.249 E4.9503
G1 X191.382 Y76.363 E5.01049
G1 X191.967 Y76.837 E5.03553
G1 X193.327 Y77.974 E5.09449
G1 X193.681 Y78.279 E5.11003
G1 X195.153 Y79.594 E5.17568
G1 X195.592 Y79.998 E5.19553
G1 X195.743 Y80.141 E5.20244
G1 X197.033 Y81.382 E5.26198
G1 X197.204 Y81.55 E5.26995
G1 X197.526 Y81.875 E5.28517
G1 X198.877 Y83.276 E5.3499
G1 X199.111 Y83.525 E5.36127
G1 X199.286 Y83.717 E5.36991
G1 X200.776 Y85.392 E5.44447
G1 X201.134 Y85.812 E5.46283
G1 X201.745 Y86.548 E5.49464
G1 X201.988 Y86.849 E5.50751
G1 X202.814 Y87.906 E5.55213
G1 X203.468 Y88.766 E5.58806
G1 X203.628 Y88.982 E5.597
G1 X203.853 Y89.296 E5.60985
G1 X204.56 Y90.298 E5.65064
G1 X205.043 Y91.003 E5.67906
G1 X205.2 Y91.239 E5.68849
G1 X205.468 Y91.654 E5.70492
G1 X206.082 Y92.622 E5.74305
G1 X206.521 Y93.339 E5.77101
G1 X206.65 Y93.554 E5.77935
G1 X206.916 Y94.013 E5.79699
G1 X207.443 Y94.948 E5.83269
G1 X207.812 Y95.622 E5.85825
G1 X207.948 Y95.879 E5.86792
G1 X208.248 Y96.464 E5.88978
G1 X208.443 Y96.854 E5.90429
G1 X208.545 Y97.063 E5.91202
G1 X209.269 Y98.591 E5.96826
G1 X209.43 Y98.949 E5.98132
G1 X209.815 Y99.843 E6.01369
G1 X210.072 Y100.461 E6.03595
G1 X210.193 Y100.765 E6.04683
G1 X210.518 Y101.62 E6.07726
G1 X210.835 Y102.493 E6.10815
G1 X211.128 Y103.333 E6.13774
G1 X211.26 Y103.737 E6.15187
G1 X211.371 Y104.098 E6.16443
G1 X211.694 Y105.188 E6.20225
G1 X211.861 Y105.78 E6.22271
G1 X211.945 Y106.095 E6.23355
G1 X212.167 Y106.982 E6.26396
G1 X212.37 Y107.855 E6.29377
G1 X212.499 Y108.444 E6.31383
G1 X212.573 Y108.809 E6.32621
G1 X212.77 Y109.881 E6.36246
G1 X212.898 Y110.65 E6.38839
G1 X212.992 Y111.26 E6.40892
G1 X213.042 Y111.633 E6.42144
G1 X213.197 Y112.964 E6.46601
G1 X213.272 Y113.73 E6.49161
G1 X213.337 Y114.498 E6.51724
G1 X213.36 Y114.83 E6.52831
G1 X213.376 Y115.125 E6.53814
G1 X213.386 Y115.367 E6.54619
G1 X213.425 Y116.607 E6.58745
G1 X213.434 Y117.099 E6.60382
G1 X213.435 Y117.46 E6.61583
G1 X213.415 Y118.732 E6.65814
G1 X213.393 Y119.41 E6.6807
G1 X213.369 Y119.921 E6.69772
G1 X213.347 Y120.263 E6.70912
G1 X213.247 Y121.53 E6.75139
G1 X213.178 Y122.239 E6.77508
G1 X213.117 Y122.785 E6.79335
G1 X213.074 Y123.121 E6.80462
G1 X212.926 Y124.156 E6.83939
G1 X212.801 Y124.945 E6.86596
G1 X212.693 Y125.567 E6.88696
G1 X212.627 Y125.91 E6.89858
G1 X212.346 Y127.246 E6.94399
G1 X212.18 Y127.965 E6.96853
G1 X212.058 Y128.468 E6.98574
G1 X211.966 Y128.82 E6.99785
G1 X211.634 Y130.01 E7.03894
G1 X211.375 Y130.877 E7.06903
G1 X211.121 Y131.689 E7.09733
G1 X210.989 Y132.084 E7.11118
G1 X210.827 Y132.541 E7.12731
G1 X210.471 Y133.51 E7.16164
G1 X210.216 Y134.182 E7.18555
G1 X210.088 Y134.505 E7.19711
G1 X209.779 Y135.244 E7.22375
G1 X209.409 Y136.096 E7.25464
G1 X209.095 Y136.795 E7.28013
G1 X208.979 Y137.046 E7.28932
G1 X208.682 Y137.663 E7.3121
G1 X208.397 Y138.235 E7.33336
G1 X207.618 Y139.733 E7.38951
G1 X207.432 Y140.075 E7.40246
G1 X206.989 Y140.853 E7.43224
G1 X206.244 Y142.115 E7.48098
G1 X206.048 Y142.434 E7.49343
G1 X205.502 Y143.291 E7.52723
G1 X204.887 Y144.227 E7.56448
G1 X204.736 Y144.451 E7.57347
G1 X204.478 Y144.823 E7.58852
G1 X203.85 Y145.707 E7.62459
G1 X203.289 Y146.475 E7.65622
G1 X202.935 Y146.941 E7.67569
G1 X202.243 Y147.829 E7.71313
G1 X201.574 Y148.663 E7.74869
G1 X201.365 Y148.915 E7.75958
G1 X200.834 Y149.538 E7.78681
G1 X200.677 Y149.718 E7.79475
G1 X199.254 Y151.316 E7.86592
G1 X199.108 Y151.477 E7.87315
G1 X198.671 Y151.947 E7.89449
G1 X197.911 Y152.744 E7.93112
G1 X197.689 Y152.968 E7.94161
G1 X196.817 Y153.835 E7.98251
G1 X196.122 Y154.509 E8.01471
G1 X195.921 Y154.699 E8.02391
G1 X195.189 Y155.374 E8.05703
G1 X193.785 Y156.628 E8.11964
G1 X193.634 Y156.761 E8.12633
G1 X192.928 Y157.367 E8.15728
G1 X192.349 Y157.856 E8.18248
G1 X191.906 Y158.217 E8.20149
G1 X191.098 Y158.864 E8.23592
G1 X189.684 Y159.959 E8.2954
G1 X189.034 Y160.445 E8.3224
G1 X187.827 Y161.322 E8.37202
G1 X186.712 Y162.107 E8.41737
G1 X186.375 Y162.339 E8.43098
G1 X185.776 Y162.742 E8.45499
G1 X184.846 Y163.355 E8.49204
G1 X183.688 Y164.097 E8.53778
G1 X182.275 Y164.973 E8.59308
G1 X181.619 Y165.363 E8.61846
G1 X180.507 Y166.01 E8.66125
G1 X179.337 Y166.67 E8.70593
G1 X178.406 Y167.181 E8.74126
G1 X177.083 Y167.884 E8.79108
G1 X176.225 Y168.326 E8.82319
G1 X174.92 Y168.979 E8.87172
G1 X173.899 Y169.474 E8.90946
G1 X172.769 Y170.006 E8.951
G1 X171.71 Y170.489 E8.98971
G1 X170.564 Y170.997 E9.03141
G1 X169.335 Y171.523 E9.07587
G1 X168.197 Y171.996 E9.11686
G1 X167.146 Y172.419 E9.15454
G1 X166.072 Y172.839 E9.1929
G1 X164.957 Y173.261 E9.23255
G1 X163.739 Y173.708 E9.2757
G1 X162.692 Y174.079 E9.31265
G1 X161.45 Y174.507 E9.35634
G1 X160.335 Y174.878 E9.39542
G1 X159.261 Y175.223 E9.43294
G1 X157.947 Y175.631 E9.47871
G1 X156.891 Y175.947 E9.51537
G1 X155.591 Y176.322 E9.56037
G1 X154.593 Y176.6 E9.59483
G1 X153.324 Y176.942 E9.63854
G1 X152.284 Y177.211 E9.67427
G1 X150.923 Y177.548 E9.7209
G1 X149.913 Y177.79 E9.75544
G1 X148.553 Y178.102 E9.80185
G1 X147.559 Y178.32 E9.8357
G1 X146.031 Y178.64 E9.88762
G1 X145.082 Y178.829 E9.91981
G1 X143.702 Y179.093 E9.96654
G1 X142.666 Y179.281 E10.00156
G1 X141.359 Y179.506 E10.04567
G1 X140.343 Y179.673 E10.07992
G1 X138.974 Y179.885 E10.12599
G1 X138.001 Y180.027 E10.1587
G1 X136.455 Y180.239 E10.2106
G1 X135.797 Y180.324 E10.23266
G1 X134.22 Y180.515 E10.2855
G1 X133.264 Y180.621 E10.31749
G1 X131.887 Y180.765 E10.36354
G1 X131.022 Y180.847 E10.39244
G1 X129.497 Y180.982 E10.44336
G1 X128.677 Y181.046 E10.47072
G1 X127.245 Y181.148 E10.51846
G1 X126.315 Y181.207 E10.54946
G1 X124.936 Y181.284 E10.5954
G1 X123.939 Y181.33 E10.62859
G1 X122.582 Y181.384 E10.67376
G1 X121.736 Y181.41 E10.70191
G1 X120.139 Y181.448 E10.75504
G1 X119.286 Y181.461 E10.78342
G1 X117.71 Y181.472 E10.83584
G1 X116.97 Y181.471 E10.86045
G1 X115.526 Y181.459 E10.90848
G1 X114.599 Y181.443 E10.93932
G1 X113.229 Y181.41 E10.9849
G1 X112.312 Y181.38 E11.01541
G1 X110.903 Y181.323 E11.06231
G1 X110.075 Y181.284 E11.08988
G1 X108.549 Y181.199 E11.14072
G1 X107.687 Y181.144 E11.16945
G1 X106.26 Y181.041 E11.21703
G1 X105.386 Y180.971 E11.24619
G1 X103.915 Y180.842 E11.29531
G1 X103.193 Y180.773 E11.31943
G1 X101.595 Y180.607 E11.37287
G1 X100.737 Y180.509 E11.40159
G1 X99.145 Y180.316 E11.45493
G1 X98.174 Y180.189 E11.4875
G1 X96.762 Y179.992 E11.53492
G1 X95.824 Y179.853 E11.56645
G1 X94.418 Y179.633 E11.61379
G1 X93.357 Y179.458 E11.64955
G1 X92.046 Y179.228 E11.69382
G1 X90.992 Y179.035 E11.72946
G1 X89.493 Y178.745 E11.78024
G1 X88.708 Y178.586 E11.80688
G1 X87.196 Y178.266 E11.85829
G1 X86.198 Y178.046 E11.89228
G1 X84.847 Y177.734 E11.93839
G1 X83.754 Y177.47 E11.97579
G1 X82.422 Y177.135 E12.02147
G1 X81.359 Y176.857 E12.05802
G1 X80.093 Y176.514 E12.10164
G1 X79.143 Y176.247 E12.13447
G1 X77.782 Y175.85 E12.18162
G1 X76.611 Y175.495 E12.22232
G1 X75.345 Y175.097 E12.26646
G1 X74.323 Y174.765 E12.3022
G1 X72.622 Y174.192 E12.3619
G1 X71.945 Y173.953 E12.38577
G1 X70.691 Y173.502 E12.4301
G1 X69.591 Y173.092 E12.46914
G1 X68.333 Y172.608 E12.51397
G1 X67.341 Y172.214 E12.54948
G1 X66.13 Y171.718 E12.593
G1 X64.934 Y171.213 E12.63618
G1 X63.847 Y170.737 E12.67565
G1 X62.729 Y170.235 E12.71641
G1 X61.14 Y169.497 E12.77468
G1 X60.568 Y169.219 E12.79584
G1 X59.524 Y168.704 E12.83455
G1 X58.294 Y168.079 E12.88044
G1 X57.396 Y167.61 E12.91414
G1 X56.128 Y166.927 E12.96204
G1 X55.293 Y166.464 E12.9938
G1 X54.141 Y165.806 E13.03792
G1 X53.117 Y165.203 E13.07745
G1 X51.891 Y164.459 E13.12515
G1 X51.155 Y163.998 E13.15403
G1 X49.821 Y163.136 E13.20686
G1 X48.858 Y162.496 E13.24531
G1 X48.358 Y162.157 E13.26541
G1 X47.919 Y161.851 E13.2832
G1 X47.009 Y161.205 E13.32032
G1 X45.826 Y160.341 E13.36905
G1 X45.188 Y159.861 E13.3956
G1 X45.04 Y159.748 E13.40179
G1 X43.618 Y158.637 E13.46181
G1 X43.179 Y158.283 E13.48057
G1 X41.805 Y157.138 E13.54006
G1 X41.307 Y156.71 E13.5619
G1 X39.836 Y155.396 E13.6275
G1 X39.406 Y155 E13.64694
G1 X39.254 Y154.856 E13.65391
G1 X37.963 Y153.613 E13.71351
G1 X37.614 Y153.267 E13.72986
G1 X37.471 Y153.122 E13.73663
G1 X36.01 Y151.604 E13.80671
G1 X35.696 Y151.264 E13.8221
G1 X34.361 Y149.765 E13.88886
G1 X33.966 Y149.305 E13.90903
G1 X33.26 Y148.458 E13.9457
G1 X33.006 Y148.143 E13.95916
G1 X32.082 Y146.959 E14.00912
G1 X31.529 Y146.23 E14.03955
G1 X31.366 Y146.009 E14.04868
G1 X31.147 Y145.704 E14.06117
G1 X30.44 Y144.702 E14.10196
G1 X29.957 Y143.997 E14.13038
G1 X29.805 Y143.768 E14.13952
G1 X29.526 Y143.337 E14.1566
G1 X28.921 Y142.383 E14.19417
G1 X28.482 Y141.667 E14.22211
G1 X28.343 Y141.434 E14.23113
G1 X28.087 Y140.991 E14.24815
G1 X27.56 Y140.057 E14.28382
G1 X27.19 Y139.382 E14.30942
G1 X27.051 Y139.12 E14.31928
G1 X26.746 Y138.525 E14.34152
G1 X26.552 Y138.136 E14.35598
G1 X26.453 Y137.932 E14.36352
G1 X25.729 Y136.402 E14.41982
G1 X25.574 Y136.06 E14.43231
G1 X25.176 Y135.136 E14.46577
G1 X24.926 Y134.534 E14.48745
G1 X24.806 Y134.233 E14.49823
G1 X24.514 Y133.467 E14.52549
G1 X24.144 Y132.449 E14.56152
G1 X23.868 Y131.655 E14.58948
G1 X23.743 Y131.273 E14.60285
G1 X23.629 Y130.902 E14.61576
G1 X23.35 Y129.965 E14.64827
G1 X23.138 Y129.215 E14.6742
G1 X23.056 Y128.907 E14.6848
G1 X22.834 Y128.021 E14.71518
G1 X22.648 Y127.226 E14.74233
G1 X22.498 Y126.542 E14.76562
G1 X22.426 Y126.184 E14.77777
G1 X22.196 Y124.92 E14.8205
G1 X22.081 Y124.216 E14.84422
G1 X22.007 Y123.727 E14.86067
G1 X21.958 Y123.367 E14.87276
G1 X21.824 Y122.229 E14.91087
G1 X21.741 Y121.409 E14.93828
G1 X21.662 Y120.483 E14.96919
G1 X21.636 Y120.098 E14.98203
G1 X21.613 Y119.585 E14.99911
G1 X21.575 Y118.382 E15.03914
G1 X21.566 Y117.91 E15.05484
G1 X21.565 Y117.54 E15.06715
G1 X21.581 Y116.441 E15.1037
G1 X21.603 Y115.717 E15.12779
G1 X21.631 Y115.082 E15.14894
G1 X21.653 Y114.737 E15.16043
G1 X21.753 Y113.474 E15.20257
G1 X21.803 Y112.945 E15.22025
G1 X21.884 Y112.21 E15.24484
G1 X21.925 Y111.883 E15.2558
G1 X22.104 Y110.639 E15.2976
G1 X22.225 Y109.895 E15.32267
G1 X22.305 Y109.439 E15.33807
G1 X22.373 Y109.086 E15.35003
G1 X22.61 Y107.954 E15.3885
G1 X22.826 Y107.007 E15.4208
G1 X22.945 Y106.519 E15.43751
G1 X23.033 Y106.18 E15.44916
G1 X23.32 Y105.147 E15.48482
G1 X23.581 Y104.267 E15.51535
G1 X23.879 Y103.311 E15.54865
G1 X24.011 Y102.916 E15.5625
G1 X24.174 Y102.457 E15.5787
G1 X24.547 Y101.441 E15.6147
G1 X24.792 Y100.798 E15.63759
G1 X24.915 Y100.489 E15.64865
G1 X25.24 Y99.711 E15.67669
G1 X25.594 Y98.897 E15.70622
G1 X25.906 Y98.202 E15.73155
G1 X26.027 Y97.942 E15.74109
G1 X26.318 Y97.337 E15.76342
G1 X26.603 Y96.765 E15.78468
G1 X27.382 Y95.267 E15.84083
G1 X27.574 Y94.916 E15.85414
G1 X28.03 Y94.116 E15.88477
G1 X28.756 Y92.886 E15.93227
G1 X28.952 Y92.566 E15.94475
G1 X29.498 Y91.709 E15.97855
G1 X30.113 Y90.773 E16.0158
G1 X30.264 Y90.549 E16.02479
G1 X30.523 Y90.176 E16.03989
G1 X31.159 Y89.281 E16.07641
G1 X31.712 Y88.524 E16.10759
G1 X31.862 Y88.324 E16.1159
G1 X32.121 Y87.986 E16.13007
G1 X32.77 Y87.155 E16.16514
G1 X33.429 Y86.334 E16.20015
G1 X33.635 Y86.085 E16.2109
G1 X34.166 Y85.462 E16.23813
G1 X34.323 Y85.282 E16.24607
G1 X35.746 Y83.684 E16.31724
G1 X35.888 Y83.527 E16.32428
G1 X36.34 Y83.04 E16.34638
G1 X36.949 Y82.4 E16.37576
G1 X37.24 Y82.103 E16.38959
G1 X38.181 Y81.167 E16.43374
G1 X38.886 Y80.483 E16.46641
G1 X39.094 Y80.287 E16.47591
G1 X39.945 Y79.505 E16.51435
G1 X41.365 Y78.24 E16.57761
G1 X42.117 Y77.594 E16.61058
G1 X42.651 Y77.144 E16.6338
G1 X43.094 Y76.783 E16.65281
G1 X43.902 Y76.136 E16.68724
G1 X45.316 Y75.041 E16.74672
G1 X45.966 Y74.555 E16.77372
G1 X47.31 Y73.58 E16.82894
G1 X48.271 Y72.904 E16.86802
G1 X49.132 Y72.319 E16.90264
G0 F6000 X49.467 Y72.576
G1 F1200 X50.256 Y72.056 E16.93407
G1 X51.651 Y71.163 E16.98916
