( Made using CamBam - http://www.cambam.co.uk )
( mesh-circles 6/10/2021 8:36:18 PM )
( Post processor: Default )
( T0 : 3.18 )
G21 G90 G94
G0 Z3.0
( T0 : 3.18 )
( Profile1 )
G17
M3 S1000
G0 X17.674 Y39.6441
G0 Z1.0
G1 F300.0 Z-0.4
G3 F120.0 Y-1.5441 I1.376 J-20.5941
G0 Z3.0
G0 X23.178 Y-1.173
G0 Z1.0
G1 F300.0 Z-0.4
G3 F120.0 Y39.273 I-4.128 J20.223
G0 Z3.0
G0 X17.674 Y39.6441
G0 Z0.6
G1 F300.0 Z-0.8
G3 F120.0 Y-1.5441 I1.376 J-20.5941
G0 Z3.0
G0 X23.178 Y-1.173
G0 Z0.6
G1 F300.0 Z-0.8
G3 F120.0 Y39.273 I-4.128 J20.223
G0 Z3.0
M5
M30
