(Project please_feed_the_animals)
(Created by Estlcam version 11 build 11.235)
(Machining time about 00:03:24 hours)

(Required tools:)
(Penbit)
G21
G90
G94
M03 S24000
G00 X0.0000 Y0.0000 Z0.0000
G00 Z5.0000


(No. 1: Engraving 1)
G00 X1.8838 Y3.6763
G00 Z0.5000
G01 Z0.0000 F180 S24000
G01 Z-1.0000
G01 X1.8950 Y3.6664
G01 X1.9761 Y3.5332
G01 X1.9821 Y3.4388
G01 X1.9917 Y3.3448
G01 X2.0049 Y3.2511
G01 X2.0217 Y3.1580
G01 X2.0747 Y3.0791
G01 X2.1302 Y3.0020
G01 X2.1881 Y2.9266
G01 X2.2485 Y2.8532
G01 X2.2115 Y2.8506
G01 X2.1745 Y2.8503
G01 X2.1375 Y2.8523
G01 X2.1007 Y2.8566
G01 X2.0642 Y2.8631
G01 X2.0282 Y2.8719
G01 X1.9929 Y2.8829
G01 X1.9582 Y2.8961
G01 X1.9245 Y2.9114
G01 X1.8918 Y2.9288
G01 X1.8602 Y2.9481
G01 X1.8298 Y2.9694
G01 X1.8009 Y2.9925
G01 X1.7734 Y3.0173
G01 X1.7475 Y3.0438
G01 X1.7233 Y3.0719
G01 X1.7009 Y3.1014
G01 X1.6803 Y3.1322
G01 X1.6617 Y3.1642
G01 X1.6452 Y3.1973
G01 X1.6287 Y3.1753
G01 X1.6113 Y3.1540
G01 X1.5931 Y3.1334
G01 X1.5740 Y3.1135
G01 X1.5541 Y3.0945
G01 X1.5335 Y3.0763
G01 X1.5121 Y3.0590
G01 X1.4900 Y3.0426
G01 X1.4672 Y3.0272
G01 X1.4438 Y3.0127
G01 X1.4199 Y2.9992
G01 X1.3953 Y2.9867
G01 X2.2834 Y1.9671
G01 X2.2936 Y1.9555
G01 X2.2352 Y1.9044
G01 X2.1726 Y1.8577
G01 X2.0073 Y2.0612
G01 X1.8369 Y2.2604
G01 X1.6615 Y2.4552
G01 X1.4813 Y2.6455
G01 X1.4858 Y2.6295
G01 X1.7774 Y1.5133
G01 X1.6335 Y1.5043
G01 X1.4874
G01 Y0.7611
G01 X1.4817 Y0.0178
G01 X1.3546 Y0.0097
G01 X1.2324 Y0.0016
G01 X1.2315 Y0.7530
G01 Y1.5043
G01 X1.1085
G01 Y0.0178
G01 X0.9741 Y0.0097
G01 X0.8534 Y0.0016
G01 X0.8526 Y0.7530
G01 Y1.5043
G01 X0.6939
G01 X0.5352 Y1.5076
G01 X0.8297 Y2.6549
G01 X0.8346 Y2.6767
G01 X0.4735 Y2.2653
G01 X0.1082 Y1.8582
G01 X0.0000 Y1.9589
G01 X0.8969 Y2.9847
G01 X0.9047 Y2.9931
G01 X0.8706 Y3.0124
G01 X0.8376 Y3.0334
G01 X0.8058 Y3.0563
G01 X0.7753 Y3.0809
G01 X0.7462 Y3.1071
G01 X0.7186 Y3.1349
G01 X0.6926 Y3.1642
G01 X0.6683 Y3.1949
G01 X0.6558 Y3.1661
G01 X0.6418 Y3.1381
G01 X0.6261 Y3.1109
G01 X0.6090 Y3.0846
G01 X0.5904 Y3.0593
G01 X0.5705 Y3.0352
G01 X0.5492 Y3.0121
G01 X0.5266 Y2.9903
G01 X0.5029 Y2.9698
G01 X0.4780 Y2.9507
G01 X0.4521 Y2.9330
G01 X0.4253 Y2.9167
G01 X0.3976 Y2.9020
G01 X0.3691 Y2.8889
G01 X0.3399 Y2.8774
G01 X0.3101 Y2.8676
G01 X0.2798 Y2.8594
G01 X0.2491 Y2.8530
G01 X0.2181 Y2.8483
G01 X0.1869 Y2.8454
G01 X0.1555 Y2.8442
G01 X0.1242 Y2.8447
G01 X0.0929 Y2.8471
G01 X0.0618 Y2.8511
G01 X0.0889 Y2.8718
G01 X0.1150 Y2.8940
G01 X0.1397 Y2.9175
G01 X0.1632 Y2.9423
G01 X0.1852 Y2.9684
G01 X0.2058 Y2.9957
G01 X0.2249 Y3.0240
G01 X0.2424 Y3.0533
G01 X0.2583 Y3.0836
G01 X0.2725 Y3.1146
G01 X0.2850 Y3.1464
G01 X0.2957 Y3.1788
G01 Y3.2376
G01 X0.2991 Y3.2962
G01 X0.3059 Y3.3546
G01 X0.3161 Y3.4124
G01 X0.3296 Y3.4696
G01 X0.3465 Y3.5259
G01 X0.3667 Y3.5811
G01 X0.3900 Y3.6350
G01 X0.3957 Y3.6436
G01 X0.4019 Y3.6518
G01 X0.4087 Y3.6595
G01 X0.4160 Y3.6668
G01 X0.4237 Y3.6736
G01 X0.4319 Y3.6799
G01 X0.4404 Y3.6856
G01 X0.4494 Y3.6908
G01 X0.4586 Y3.6953
G01 X0.4681 Y3.6993
G01 X0.4779 Y3.7025
G01 X0.4878 Y3.7052
G01 X0.4980 Y3.7071
G01 X0.5082 Y3.7084
G01 X0.5185 Y3.7090
G01 X0.5288
G01 X0.5390 Y3.7082
G01 X0.5492 Y3.7068
G01 X0.5593 Y3.7047
G01 X0.5692 Y3.7019
G01 X0.5791 Y3.7369
G01 X0.5911 Y3.7712
G01 X0.6050 Y3.8047
G01 X0.6210 Y3.8373
G01 X0.6390 Y3.8689
G01 X0.6588 Y3.8993
G01 X0.6804 Y3.9285
G01 X0.7037 Y3.9564
G01 X0.7286 Y3.9828
G01 X0.7551 Y4.0076
G01 X0.7831 Y4.0308
G01 X0.8124 Y4.0523
G01 X0.8429 Y4.0719
G01 X0.8746 Y4.0897
G01 X0.9073 Y4.1056
G01 X0.9408 Y4.1194
G01 X0.9752 Y4.1312
G01 X1.0102 Y4.1409
G01 X1.0457 Y4.1485
G01 X1.0816 Y4.1539
G01 X1.1178 Y4.1572
G01 X1.1541 Y4.1582
G01 X1.1904 Y4.1571
G01 X1.2266 Y4.1538
G01 X1.2625 Y4.1483
G01 X1.2980 Y4.1407
G01 X1.3330 Y4.1309
G01 X1.3673 Y4.1190
G01 X1.4009 Y4.1051
G01 X1.4335 Y4.0892
G01 X1.4651 Y4.0714
G01 X1.4956 Y4.0517
G01 X1.5249 Y4.0301
G01 X1.5528 Y4.0069
G01 X1.5793 Y3.9820
G01 X1.6042 Y3.9556
G01 X1.6275 Y3.9277
G01 X1.6490 Y3.8985
G01 X1.6687 Y3.8680
G01 X1.6866 Y3.8364
G01 X1.7026 Y3.8037
G01 X1.7165 Y3.7702
G01 X1.7284 Y3.7359
G01 X1.7382 Y3.7009
G01 X1.7473 Y3.7046
G01 X1.7566 Y3.7076
G01 X1.7661 Y3.7100
G01 X1.7757 Y3.7116
G01 X1.7855 Y3.7125
G01 X1.7953 Y3.7127
G01 X1.8050 Y3.7121
G01 X1.8148 Y3.7108
G01 X1.8243 Y3.7089
G01 X1.8338 Y3.7062
G01 X1.8429 Y3.7028
G01 X1.8519 Y3.6987
G01 X1.8605 Y3.6941
G01 X1.8687 Y3.6887
G01 X1.8765 Y3.6828
G01 X1.8838 Y3.6763
G01 Z-2.0000
G01 X1.8765 Y3.6829
G01 X1.8687 Y3.6888
G01 X1.8605 Y3.6942
G01 X1.8519 Y3.6989
G01 X1.8430 Y3.7030
G01 X1.8338 Y3.7064
G01 X1.8244 Y3.7091
G01 X1.8148 Y3.7111
G01 X1.8051 Y3.7124
G01 X1.7953 Y3.7129
G01 X1.7855 Y3.7127
G01 X1.7757 Y3.7118
G01 X1.7661 Y3.7101
G01 X1.7566 Y3.7077
G01 X1.7472 Y3.7047
G01 X1.7382 Y3.7009
G01 X1.7284 Y3.7359
G01 X1.7165 Y3.7702
G01 X1.7026 Y3.8037
G01 X1.6866 Y3.8364
G01 X1.6687 Y3.8680
G01 X1.6490 Y3.8985
G01 X1.6275 Y3.9277
G01 X1.6042 Y3.9556
G01 X1.5793 Y3.9820
G01 X1.5528 Y4.0069
G01 X1.5249 Y4.0301
G01 X1.4956 Y4.0517
G01 X1.4651 Y4.0714
G01 X1.4335 Y4.0892
G01 X1.4009 Y4.1051
G01 X1.3673 Y4.1190
G01 X1.3330 Y4.1309
G01 X1.2980 Y4.1407
G01 X1.2625 Y4.1483
G01 X1.2266 Y4.1538
G01 X1.1904 Y4.1571
G01 X1.1541 Y4.1582
G01 X1.1178 Y4.1572
G01 X1.0816 Y4.1539
G01 X1.0457 Y4.1485
G01 X1.0102 Y4.1409
G01 X0.9752 Y4.1312
G01 X0.9408 Y4.1194
G01 X0.9073 Y4.1056
G01 X0.8746 Y4.0897
G01 X0.8429 Y4.0719
G01 X0.8124 Y4.0523
G01 X0.7831 Y4.0308
G01 X0.7551 Y4.0076
G01 X0.7286 Y3.9828
G01 X0.7037 Y3.9564
G01 X0.6804 Y3.9285
G01 X0.6588 Y3.8993
G01 X0.6390 Y3.8689
G01 X0.6210 Y3.8373
G01 X0.6050 Y3.8047
G01 X0.5911 Y3.7712
G01 X0.5791 Y3.7369
G01 X0.5692 Y3.7019
G01 X0.5536 Y3.7031
G01 X0.5380 Y3.7033
G01 X0.5224 Y3.7024
G01 X0.5069 Y3.7004
G01 X0.4916 Y3.6974
G01 X0.4765 Y3.6934
G01 X0.4617 Y3.6883
G01 X0.4472 Y3.6823
G01 X0.4333 Y3.6753
G01 X0.4198 Y3.6673
G01 X0.4069 Y3.6585
G01 X0.3946 Y3.6488
G01 X0.3830 Y3.6383
G01 X0.3722 Y3.6270
G01 X0.3621 Y3.6151
G01 X0.3529 Y3.6025
G01 X0.3446 Y3.5892
G01 X0.3371 Y3.5755
G01 X0.3306 Y3.5613
G01 X0.3251 Y3.5466
G01 X0.3206 Y3.5317
G01 X0.3172 Y3.5164
G01 X0.3147 Y3.5010
G01 X0.3133 Y3.4854
G01 X0.3130 Y3.4698
G01 X0.3137 Y3.4542
G01 X0.3155 Y3.4386
G01 X0.3184 Y3.4233
G01 X0.3214 Y3.3905
G01 X0.3227 Y3.3576
G01 X0.3222 Y3.3246
G01 X0.3199 Y3.2918
G01 X0.3158 Y3.2591
G01 X0.3100 Y3.2267
G01 X0.3024 Y3.1946
G01 X0.2931 Y3.1630
G01 X0.2821 Y3.1320
G01 X0.2694 Y3.1016
G01 X0.2552 Y3.0719
G01 X0.2393 Y3.0431
G01 X0.2219 Y3.0151
G01 X0.2030 Y2.9881
G01 X0.1827 Y2.9622
G01 X0.1610 Y2.9375
G01 X0.1380 Y2.9139
G01 X0.1137 Y2.8916
G01 X0.0883 Y2.8707
G01 X0.0618 Y2.8511
G01 X0.0928 Y2.8477
G01 X0.1240 Y2.8459
G01 X0.1552 Y2.8458
G01 X0.1864 Y2.8475
G01 X0.2174 Y2.8508
G01 X0.2482 Y2.8558
G01 X0.2787 Y2.8625
G01 X0.3088 Y2.8709
G01 X0.3384 Y2.8808
G01 X0.3674 Y2.8924
G01 X0.3958 Y2.9055
G01 X0.4233 Y2.9202
G01 X0.4501 Y2.9363
G01 X0.4759 Y2.9539
G01 X0.5007 Y2.9728
G01 X0.5245 Y2.9931
G01 X0.5471 Y3.0146
G01 X0.5685 Y3.0373
G01 X0.5886 Y3.0612
G01 X0.6074 Y3.0861
G01 X0.6248 Y3.1120
G01 X0.6408 Y3.1389
G01 X0.6553 Y3.1665
G01 X0.6683 Y3.1949
G01 X0.6926 Y3.1642
G01 X0.7186 Y3.1349
G01 X0.7462 Y3.1071
G01 X0.7753 Y3.0809
G01 X0.8058 Y3.0563
G01 X0.8376 Y3.0334
G01 X0.8706 Y3.0124
G01 X0.9047 Y2.9931
G01 X0.8969 Y2.9847
G01 X0.0000 Y1.9589
G01 X0.1082 Y1.8582
G01 X0.4735 Y2.2653
G01 X0.8346 Y2.6767
G01 X0.8297 Y2.6549
G01 X0.5352 Y1.5076
G01 X0.6939 Y1.5043
G01 X0.8526
G01 Y0.7530
G01 X0.8534 Y0.0016
G01 X0.9741 Y0.0097
G01 X1.1085 Y0.0178
G01 Y1.5043
G01 X1.2315
G01 Y0.7530
G01 X1.2324 Y0.0016
G01 X1.3546 Y0.0097
G01 X1.4817 Y0.0178
G01 X1.4874 Y0.7611
G01 Y1.5043
G01 X1.6335
G01 X1.7774 Y1.5133
G01 X1.4858 Y2.6295
G01 X1.4813 Y2.6455
G01 X1.6546 Y2.4490
G01 X1.8275 Y2.2522
G01 X2.0002 Y2.0551
G01 X2.1726 Y1.8577
G01 X2.2352 Y1.9044
G01 X2.2936 Y1.9555
G01 X2.2834 Y1.9671
G01 X1.3953 Y2.9867
G01 X1.4314 Y3.0066
G01 X1.4663 Y3.0285
G01 X1.4999 Y3.0523
G01 X1.5321 Y3.0780
G01 X1.5628 Y3.1054
G01 X1.5920 Y3.1345
G01 X1.6194 Y3.1652
G01 X1.6452 Y3.1973
G01 X1.6585 Y3.1694
G01 X1.6733 Y3.1422
G01 X1.6895 Y3.1158
G01 X1.7071 Y3.0904
G01 X1.7260 Y3.0658
G01 X1.7462 Y3.0423
G01 X1.7676 Y3.0199
G01 X1.7901 Y2.9987
G01 X1.8137 Y2.9787
G01 X1.8384 Y2.9599
G01 X1.8640 Y2.9425
G01 X1.8905 Y2.9265
G01 X1.9178 Y2.9118
G01 X1.9458 Y2.8987
G01 X1.9745 Y2.8870
G01 X2.0037 Y2.8769
G01 X2.0335 Y2.8683
G01 X2.0636 Y2.8613
G01 X2.0941 Y2.8559
G01 X2.1248 Y2.8521
G01 X2.1557 Y2.8499
G01 X2.1867 Y2.8494
G01 X2.2176 Y2.8505
G01 X2.2485 Y2.8532
G01 X2.1802 Y2.9285
G01 X2.1185 Y3.0093
G01 X2.0638 Y3.0950
G01 X2.0164 Y3.1850
G01 X1.9957 Y3.4133
G01 X1.9761 Y3.5332
G01 X1.8950 Y3.6664
G01 X1.8838 Y3.6763
G00 Z5.0000


(No. 2: Engraving 2)
G00 X2.9638 Y3.2315 Z5.0000
G00 Z0.5000
G01 Z0.0000 F180
G01 Z-1.0000
G01 X2.9899 Y3.2427
G01 X3.0166 Y3.2525
G01 X3.0438 Y3.2608
G01 X3.0714 Y3.2675
G01 X3.0993 Y3.2727
G01 X3.1275 Y3.2764
G01 X3.1558 Y3.2785
G01 X3.1842 Y3.2790
G01 X3.2126 Y3.2779
G01 X3.2409 Y3.2753
G01 X3.2690 Y3.2711
G01 X3.2969 Y3.2653
G01 X3.3243 Y3.2580
G01 X3.3513 Y3.2492
G01 X3.3778 Y3.2389
G01 X3.4037 Y3.2272
G01 X3.4203 Y3.2170
G01 X3.4361 Y3.2058
G01 X3.4510 Y3.1934
G01 X3.4651 Y3.1800
G01 X3.4782 Y3.1656
G01 X3.4902 Y3.1504
G01 X3.5012 Y3.1343
G01 X3.5109 Y3.1176
G01 X3.5195 Y3.1001
G01 X3.5268 Y3.0821
G01 X3.5328 Y3.0637
G01 X3.5375 Y3.0448
G01 X3.5408 Y3.0257
G01 X3.5428 Y3.0064
G01 X3.5435 Y2.9869
G01 X3.5427 Y2.9675
G01 X3.5406 Y2.9482
G01 X3.5371 Y2.9291
G01 X3.5323 Y2.9103
G01 X3.5261 Y2.8919
G01 X3.5187 Y2.8739
G01 X3.5100 Y2.8566
G01 X3.5002 Y2.8398
G01 X3.4891 Y2.8239
G01 X3.4770 Y2.8087
G01 X3.4638 Y2.7944
G01 X3.4497 Y2.7811
G01 X3.4346 Y2.7689
G01 X3.4187 Y2.7577
G01 X3.4021 Y2.7477
G01 X3.3848 Y2.7388
G01 X3.3669 Y2.7313
G01 X3.3485 Y2.7250
G01 X3.3298 Y2.7200
G01 X3.3107 Y2.7163
G01 X3.2914 Y2.7140
G01 X3.1347 Y2.7120
G01 Y2.5126
G01 X3.1049 Y2.4414
G01 X3.0357 Y2.4136
G01 X2.9638 Y2.4421
G01 X2.9340 Y2.5126
G01 Y3.1623
G01 X2.9638 Y3.2315
G01 Z-2.0000
G01 X2.9340 Y3.1623
G01 Y2.5126
G01 X2.9638 Y2.4421
G01 X3.0357 Y2.4136
G01 X3.1049 Y2.4414
G01 X3.1347 Y2.5126
G01 Y2.7120
G01 X3.1559 Y2.7061
G01 X3.1775 Y2.7015
G01 X3.1993 Y2.6984
G01 X3.2212 Y2.6968
G01 X3.2432 Y2.6965
G01 X3.2652 Y2.6978
G01 X3.2871 Y2.7004
G01 X3.3087 Y2.7046
G01 X3.3300 Y2.7101
G01 X3.3509 Y2.7170
G01 X3.3713 Y2.7253
G01 X3.3911 Y2.7349
G01 X3.4102 Y2.7457
G01 X3.4286 Y2.7578
G01 X3.4462 Y2.7711
G01 X3.4628 Y2.7856
G01 X3.4769 Y2.8004
G01 X3.4899 Y2.8163
G01 X3.5017 Y2.8330
G01 X3.5123 Y2.8506
G01 X3.5215 Y2.8690
G01 X3.5293 Y2.8879
G01 X3.5357 Y2.9074
G01 X3.5406 Y2.9273
G01 X3.5441 Y2.9475
G01 X3.5460 Y2.9679
G01 X3.5465 Y2.9884
G01 X3.5454 Y3.0089
G01 X3.5428 Y3.0293
G01 X3.5387 Y3.0493
G01 X3.5332 Y3.0691
G01 X3.5262 Y3.0884
G01 X3.5178 Y3.1071
G01 X3.5080 Y3.1251
G01 X3.4969 Y3.1424
G01 X3.4846 Y3.1587
G01 X3.4711 Y3.1742
G01 X3.4565 Y3.1886
G01 X3.4409 Y3.2019
G01 X3.4243 Y3.2139
G01 X3.4069 Y3.2248
G01 X3.3887 Y3.2343
G01 X3.3699 Y3.2424
G01 X3.3505 Y3.2492
G01 X3.3307 Y3.2544
G01 X3.3106 Y3.2582
G01 X3.2902 Y3.2605
G01 X3.2697 Y3.2613
G01 X2.9638 Y3.2315
G00 Z5.0000


(No. 3: Engraving 3)
G00 X3.6230 Y3.2383 Z5.0000
G00 Z0.5000
G01 Z0.0000 F180
G01 Z-1.0000
G01 X3.7675 Y3.2396
G01 X3.7980 Y3.1677
G01 X3.7865 Y2.5791
G01 X4.0781 Y2.5920
G01 X4.1337 Y2.5689
G01 X4.1567 Y2.5126
G01 X4.1344 Y2.4428
G01 X4.0781 Y2.4197
G01 X3.6881
G01 X3.6210 Y2.4468
G01 X3.5939 Y2.5140
G01 Y3.1677
G01 X3.6230 Y3.2383
G01 Z-2.0000
G01 X3.5939 Y3.1677
G01 Y2.5140
G01 X3.6210 Y2.4468
G01 X3.6881 Y2.4197
G01 X4.0781
G01 X4.1344 Y2.4428
G01 X4.1567 Y2.5126
G01 X4.1337 Y2.5689
G01 X4.0781 Y2.5920
G01 X3.7865 Y2.5791
G01 X3.7980 Y3.1677
G01 X3.7675 Y3.2396
G01 X3.6230 Y3.2383
G00 Z5.0000


(No. 4: Engraving 4)
G00 X4.2883 Y3.2349 Z5.0000
G00 Z0.5000
G01 Z0.0000 F180
G01 Z-1.0000
G01 X4.7203 Y3.2708
G01 X4.7807 Y3.2437
G01 X4.7842 Y3.2391
G01 X4.7874 Y3.2343
G01 X4.7903 Y3.2293
G01 X4.7929 Y3.2242
G01 X4.7951 Y3.2188
G01 X4.7970 Y3.2134
G01 X4.7985 Y3.2078
G01 X4.7996 Y3.2021
G01 X4.8004 Y3.1964
G01 X4.8007 Y3.1906
G01 Y3.1849
G01 X4.8004 Y3.1791
G01 X4.7996 Y3.1734
G01 X4.7985 Y3.1677
G01 X4.7970 Y3.1621
G01 X4.7951 Y3.1567
G01 X4.7929 Y3.1513
G01 X4.7903 Y3.1462
G01 X4.7875 Y3.1412
G01 X4.7842 Y3.1364
G01 X4.7807 Y3.1318
G01 X4.7769 Y3.1275
G01 X4.7728 Y3.1234
G01 X4.7684 Y3.1196
G01 X4.7189 Y3.1026
G01 X4.4578 Y3.1148
G01 Y2.9222
G01 X4.7040 Y2.9283
G01 X4.7576 Y2.9073
G01 X4.7807 Y2.8531
G01 X4.7576 Y2.7954
G01 X4.7040 Y2.7737
G01 X4.4578 Y2.7798
G01 Y2.5655
G01 X4.7386 Y2.5710
G01 X4.7922 Y2.5499
G01 X4.8159 Y2.4943
G01 X4.7935 Y2.4367
G01 X4.7386 Y2.4150
G01 X4.3751
G01 X4.2897 Y2.4509
G01 X4.2537 Y2.5364
G01 Y3.1494
G01 X4.2883 Y3.2349
G01 Z-2.0000
G01 X4.2537 Y3.1494
G01 Y2.5364
G01 X4.2897 Y2.4509
G01 X4.3751 Y2.4150
G01 X4.7386
G01 X4.7935 Y2.4367
G01 X4.8159 Y2.4943
G01 X4.7922 Y2.5499
G01 X4.7386 Y2.5710
G01 X4.4578 Y2.5655
G01 Y2.7798
G01 X4.7040 Y2.7737
G01 X4.7576 Y2.7954
G01 X4.7807 Y2.8531
G01 X4.7576 Y2.9073
G01 X4.7040 Y2.9283
G01 X4.4578 Y2.9222
G01 Y3.1148
G01 X4.7189 Y3.1026
G01 X4.7684 Y3.1196
G01 X4.7730 Y3.1233
G01 X4.7773 Y3.1272
G01 X4.7813 Y3.1315
G01 X4.7850 Y3.1360
G01 X4.7884 Y3.1408
G01 X4.7914 Y3.1458
G01 X4.7941 Y3.1509
G01 X4.7964 Y3.1563
G01 X4.7984 Y3.1618
G01 X4.7999 Y3.1674
G01 X4.8011 Y3.1732
G01 X4.8019 Y3.1790
G01 X4.8022 Y3.1848
G01 Y3.1906
G01 X4.8018 Y3.1965
G01 X4.8009 Y3.2022
G01 X4.7997 Y3.2079
G01 X4.7981 Y3.2136
G01 X4.7961 Y3.2190
G01 X4.7937 Y3.2244
G01 X4.7909 Y3.2295
G01 X4.7878 Y3.2345
G01 X4.7844 Y3.2392
G01 X4.7807 Y3.2437
G01 X4.7203 Y3.2708
G01 X4.2883 Y3.2349
G00 Z5.0000


(No. 5: Engraving 5)
G00 X5.2683 Y3.2600 Z5.0000
G00 Z0.5000
G01 Z0.0000 F180
G01 Z-1.0000
G01 X5.3747 Y3.2295
G01 X5.4364 Y3.1501
G01 X5.6528 Y2.5506
G01 X5.6548 Y2.5433
G01 X5.6562 Y2.5359
G01 X5.6571 Y2.5283
G01 X5.6575 Y2.5208
G01 X5.6574 Y2.5132
G01 X5.6567 Y2.5057
G01 X5.6555 Y2.4982
G01 X5.6537 Y2.4908
G01 X5.6514 Y2.4836
G01 X5.6487 Y2.4765
G01 X5.6454 Y2.4697
G01 X5.6416 Y2.4631
G01 X5.6374 Y2.4568
G01 X5.6328 Y2.4509
G01 X5.6277 Y2.4452
G01 X5.6222 Y2.4400
G01 X5.6164 Y2.4351
G01 X5.6103 Y2.4307
G01 X5.6038 Y2.4267
G01 X5.5971 Y2.4232
G01 X5.5902 Y2.4202
G01 X5.5830 Y2.4177
G01 X5.5757 Y2.4156
G01 X5.5683 Y2.4142
G01 X5.5608 Y2.4132
G01 X5.5532 Y2.4128
G01 X5.5456 Y2.4129
G01 X5.5381 Y2.4136
G01 X5.5306 Y2.4148
G01 X5.5233 Y2.4165
G01 X5.5160 Y2.4188
G01 X5.5090 Y2.4215
G01 X5.5021 Y2.4248
G01 X5.4955 Y2.4285
G01 X5.4892 Y2.4327
G01 X5.4832 Y2.4374
G01 X5.4500 Y2.4869
G01 X5.4147 Y2.6550
G01 X5.1577
G01 X5.1252 Y2.4889
G01 X5.0906 Y2.4367
G01 X5.0845 Y2.4318
G01 X5.0780 Y2.4274
G01 X5.0713 Y2.4235
G01 X5.0643 Y2.4201
G01 X5.0570 Y2.4172
G01 X5.0496 Y2.4147
G01 X5.0421 Y2.4129
G01 X5.0344 Y2.4115
G01 X5.0266 Y2.4107
G01 X5.0188 Y2.4105
G01 X5.0110 Y2.4108
G01 X5.0033 Y2.4117
G01 X4.9956 Y2.4131
G01 X4.9881 Y2.4150
G01 X4.9807 Y2.4175
G01 X4.9735 Y2.4205
G01 X4.9665 Y2.4240
G01 X4.9598 Y2.4280
G01 X4.9534 Y2.4324
G01 X4.9473 Y2.4373
G01 X4.9416 Y2.4426
G01 X4.9363 Y2.4483
G01 X4.9314 Y2.4544
G01 X4.9269 Y2.4608
G01 X4.9229 Y2.4675
G01 X4.9194 Y2.4745
G01 X4.9164 Y2.4817
G01 X4.9139 Y2.4890
G01 X4.9120 Y2.4966
G01 X4.9106 Y2.5043
G01 X4.9097 Y2.5120
G01 X4.9094 Y2.5198
G01 X4.9096 Y2.5276
G01 X4.9104 Y2.5354
G01 X4.9117 Y2.5430
G01 X4.9136 Y2.5506
G01 X5.1191 Y3.1474
G01 X5.1801 Y3.2295
G01 X5.2683 Y3.2600
G01 Z-2.0000
G01 X5.1801 Y3.2295
G01 X5.1191 Y3.1474
G01 X4.9136 Y2.5506
G01 X4.9117 Y2.5430
G01 X4.9104 Y2.5354
G01 X4.9096 Y2.5276
G01 X4.9094 Y2.5198
G01 X4.9097 Y2.5120
G01 X4.9106 Y2.5043
G01 X4.9120 Y2.4966
G01 X4.9139 Y2.4890
G01 X4.9164 Y2.4817
G01 X4.9194 Y2.4745
G01 X4.9229 Y2.4675
G01 X4.9269 Y2.4608
G01 X4.9314 Y2.4544
G01 X4.9363 Y2.4483
G01 X4.9416 Y2.4426
G01 X4.9473 Y2.4373
G01 X4.9534 Y2.4324
G01 X4.9598 Y2.4280
G01 X4.9665 Y2.4240
G01 X4.9735 Y2.4205
G01 X4.9807 Y2.4175
G01 X4.9881 Y2.4150
G01 X4.9956 Y2.4131
G01 X5.0033 Y2.4117
G01 X5.0110 Y2.4108
G01 X5.0188 Y2.4105
G01 X5.0266 Y2.4107
G01 X5.0344 Y2.4115
G01 X5.0421 Y2.4129
G01 X5.0496 Y2.4147
G01 X5.0570 Y2.4172
G01 X5.0643 Y2.4201
G01 X5.0713 Y2.4235
G01 X5.0780 Y2.4274
G01 X5.0845 Y2.4318
G01 X5.0906 Y2.4367
G01 X5.1252 Y2.4889
G01 X5.1577 Y2.6550
G01 X5.4147
G01 X5.4500 Y2.4869
G01 X5.4832 Y2.4374
G01 X5.4892 Y2.4327
G01 X5.4955 Y2.4285
G01 X5.5021 Y2.4248
G01 X5.5090 Y2.4215
G01 X5.5160 Y2.4188
G01 X5.5233 Y2.4165
G01 X5.5306 Y2.4148
G01 X5.5381 Y2.4136
G01 X5.5456 Y2.4129
G01 X5.5532 Y2.4128
G01 X5.5608 Y2.4132
G01 X5.5683 Y2.4142
G01 X5.5757 Y2.4156
G01 X5.5830 Y2.4177
G01 X5.5902 Y2.4202
G01 X5.5971 Y2.4232
G01 X5.6038 Y2.4267
G01 X5.6103 Y2.4307
G01 X5.6164 Y2.4351
G01 X5.6222 Y2.4400
G01 X5.6277 Y2.4452
G01 X5.6328 Y2.4509
G01 X5.6374 Y2.4568
G01 X5.6416 Y2.4631
G01 X5.6454 Y2.4697
G01 X5.6487 Y2.4765
G01 X5.6514 Y2.4836
G01 X5.6537 Y2.4908
G01 X5.6555 Y2.4982
G01 X5.6567 Y2.5057
G01 X5.6574 Y2.5132
G01 X5.6575 Y2.5208
G01 X5.6571 Y2.5283
G01 X5.6562 Y2.5359
G01 X5.6548 Y2.5433
G01 X5.6528 Y2.5506
G01 X5.4364 Y3.1501
G01 X5.3747 Y3.2295
G01 X5.2683 Y3.2600
G00 Z5.0000


(No. 6: Engraving 6)
G00 X5.1699 Y2.7798 Z5.0000
G00 Z0.5000
G01 Z0.0000 F180
G01 Z-1.0000
G01 X5.3903
G01 X5.2805 Y3.0843
G01 X5.1699 Y2.7798
G01 Z-2.0000
G01 X5.2805 Y3.0843
G01 X5.3903 Y2.7798
G01 X5.1699
G00 Z5.0000


(No. 7: Engraving 7)
G00 X6.0197 Y2.7615 Z5.0000
G00 Z0.5000
G01 Z0.0000 F180
G01 Z-1.0000
G01 X6.0016 Y2.7636
G01 X5.9838 Y2.7670
G01 X5.9662 Y2.7717
G01 X5.9491 Y2.7776
G01 X5.9324 Y2.7847
G01 X5.9162 Y2.7929
G01 X5.9006 Y2.8023
G01 X5.8858 Y2.8128
G01 X5.8717 Y2.8243
G01 X5.8585 Y2.8367
G01 X5.8463 Y2.8501
G01 X5.8349 Y2.8643
G01 X5.8247 Y2.8793
G01 X5.8155 Y2.8949
G01 X5.8075 Y2.9112
G01 X5.8006 Y2.9280
G01 X5.7949 Y2.9453
G01 X5.7905 Y2.9629
G01 X5.7873 Y2.9808
G01 X5.7855 Y2.9988
G01 X5.7849 Y3.0170
G01 X5.7856 Y3.0351
G01 X5.7875 Y3.0532
G01 X5.7908 Y3.0710
G01 X5.7953 Y3.0886
G01 X5.8011 Y3.1058
G01 X5.8080 Y3.1226
G01 X5.8161 Y3.1388
G01 X5.8315 Y3.1572
G01 X5.8480 Y3.1745
G01 X5.8656 Y3.1908
G01 X5.8843 Y3.2058
G01 X5.9039 Y3.2196
G01 X5.9243 Y3.2320
G01 X5.9455 Y3.2431
G01 X5.9674 Y3.2528
G01 X5.9899 Y3.2611
G01 X6.0129 Y3.2678
G01 X6.0363 Y3.2731
G01 X6.0599 Y3.2768
G01 X6.0838 Y3.2789
G01 X6.1077 Y3.2795
G01 X6.1316 Y3.2785
G01 X6.1555 Y3.2760
G01 X6.1791 Y3.2719
G01 X6.2023 Y3.2662
G01 X6.2252 Y3.2591
G01 X6.2475 Y3.2505
G01 X6.2970 Y3.2125
G01 X6.3065 Y3.1501
G01 X6.2679 Y3.1013
G01 X6.2075 Y3.0931
G01 X6.1923 Y3.0993
G01 X6.1766 Y3.1043
G01 X6.1606 Y3.1081
G01 X6.1444 Y3.1107
G01 X6.1280 Y3.1120
G01 X6.1115 Y3.1121
G01 X6.0951 Y3.1110
G01 X6.0789 Y3.1086
G01 X6.0628 Y3.1050
G01 X6.0471 Y3.1002
G01 X6.0318 Y3.0942
G01 X6.0170 Y3.0870
G01 X5.9871 Y3.0287
G01 X6.0210 Y2.9724
G01 X6.0528 Y2.9655
G01 X6.0841 Y2.9565
G01 X6.1147 Y2.9454
G01 X6.1445 Y2.9323
G01 X6.1734 Y2.9172
G01 X6.2012 Y2.9002
G01 X6.2278 Y2.8815
G01 X6.2531 Y2.8610
G01 X6.2770 Y2.8389
G01 X6.2994 Y2.8152
G01 X6.3201 Y2.7901
G01 X6.3391 Y2.7637
G01 X6.3459 Y2.7434
G01 X6.3511 Y2.7227
G01 X6.3547 Y2.7016
G01 X6.3566 Y2.6804
G01 X6.3569 Y2.6590
G01 X6.3555 Y2.6377
G01 X6.3525 Y2.6166
G01 X6.3479 Y2.5957
G01 X6.3417 Y2.5753
G01 X6.3339 Y2.5554
G01 X6.3246 Y2.5362
G01 X6.3138 Y2.5177
G01 X6.3017 Y2.5002
G01 X6.2882 Y2.4836
G01 X6.2735 Y2.4681
G01 X6.2576 Y2.4538
G01 X6.2407 Y2.4408
G01 X6.2228 Y2.4291
G01 X6.2041 Y2.4189
G01 X6.1846 Y2.4101
G01 X6.1646 Y2.4028
G01 X6.1440 Y2.3971
G01 X6.1230 Y2.3931
G01 X6.1018 Y2.3906
G01 X6.0804 Y2.3898
G01 X6.0591 Y2.3907
G01 X6.0379 Y2.3932
G01 X6.0170 Y2.3973
G01 X5.8501 Y2.4272
G01 X5.8020 Y2.4645
G01 X5.7918 Y2.5262
G01 X5.8325 Y2.5804
G01 X5.8983 Y2.5866
G01 X6.0346 Y2.5608
G01 X6.1234 Y2.5845
G01 X6.1580 Y2.6462
G01 X6.1275 Y2.7093
G01 X6.0197 Y2.7615
G01 Z-2.0000
G01 X6.1275 Y2.7093
G01 X6.1580 Y2.6462
G01 X6.1234 Y2.5845
G01 X6.0346 Y2.5608
G01 X5.8983 Y2.5866
G01 X5.8325 Y2.5804
G01 X5.7918 Y2.5262
G01 X5.8020 Y2.4645
G01 X5.8501 Y2.4272
G01 X5.8754 Y2.4148
G01 X5.9016 Y2.4043
G01 X5.9285 Y2.3959
G01 X5.9560 Y2.3896
G01 X5.9838 Y2.3854
G01 X6.0120 Y2.3834
G01 X6.0401
G01 X6.0682 Y2.3857
G01 X6.0961 Y2.3901
G01 X6.1235 Y2.3965
G01 X6.1503 Y2.4051
G01 X6.1765 Y2.4157
G01 X6.2017 Y2.4283
G01 X6.2259 Y2.4427
G01 X6.2489 Y2.4590
G01 X6.2706 Y2.4769
G01 X6.2909 Y2.4965
G01 X6.3096 Y2.5176
G01 X6.3267 Y2.5400
G01 X6.3420 Y2.5637
G01 X6.3484 Y2.5814
G01 X6.3535 Y2.5995
G01 X6.3573 Y2.6179
G01 X6.3597 Y2.6366
G01 X6.3607 Y2.6554
G01 X6.3604 Y2.6742
G01 X6.3587 Y2.6930
G01 X6.3556 Y2.7115
G01 X6.3512 Y2.7298
G01 X6.3455 Y2.7478
G01 X6.3384 Y2.7652
G01 X6.3301 Y2.7821
G01 X6.3206 Y2.7984
G01 X6.3100 Y2.8139
G01 X6.2982 Y2.8286
G01 X6.2854 Y2.8424
G01 X6.2716 Y2.8552
G01 X6.2569 Y2.8670
G01 X6.2414 Y2.8777
G01 X6.2252 Y2.8872
G01 X6.2083 Y2.8955
G01 X6.1908 Y2.9026
G01 X6.1729 Y2.9083
G01 X6.1546 Y2.9128
G01 X6.0210 Y2.9724
G01 X5.9871 Y3.0287
G01 X6.0170 Y3.0870
G01 X6.0320 Y3.0932
G01 X6.0475 Y3.0984
G01 X6.0632 Y3.1026
G01 X6.0792 Y3.1058
G01 X6.0954 Y3.1079
G01 X6.1116 Y3.1089
G01 X6.1279
G01 X6.1442 Y3.1079
G01 X6.1603 Y3.1057
G01 X6.1763 Y3.1026
G01 X6.1921 Y3.0984
G01 X6.2075 Y3.0931
G01 X6.2679 Y3.1013
G01 X6.3065 Y3.1501
G01 X6.2970 Y3.2125
G01 X6.2475 Y3.2505
G01 X6.2235 Y3.2610
G01 X6.1987 Y3.2696
G01 X6.1734 Y3.2762
G01 X6.1476 Y3.2809
G01 X6.1215 Y3.2836
G01 X6.0953 Y3.2843
G01 X6.0691 Y3.2829
G01 X6.0431 Y3.2795
G01 X6.0174 Y3.2742
G01 X5.9922 Y3.2668
G01 X5.9677 Y3.2576
G01 X5.9439 Y3.2464
G01 X5.9211 Y3.2335
G01 X5.8994 Y3.2189
G01 X5.8788 Y3.2026
G01 X5.8596 Y3.1847
G01 X5.8418 Y3.1655
G01 X5.8255 Y3.1449
G01 X5.8109 Y3.1231
G01 X5.7980 Y3.1003
G01 X5.7931 Y3.0817
G01 X5.7896 Y3.0628
G01 X5.7874 Y3.0437
G01 X5.7867 Y3.0245
G01 X5.7873 Y3.0053
G01 X5.7893 Y2.9862
G01 X5.7928 Y2.9673
G01 X5.7976 Y2.9487
G01 X5.8037 Y2.9305
G01 X5.8111 Y2.9128
G01 X5.8198 Y2.8956
G01 X5.8298 Y2.8792
G01 X5.8409 Y2.8635
G01 X5.8531 Y2.8487
G01 X5.8663 Y2.8347
G01 X5.8806 Y2.8218
G01 X5.8957 Y2.8100
G01 X5.9117 Y2.7993
G01 X5.9284 Y2.7898
G01 X5.9457 Y2.7815
G01 X5.9636 Y2.7745
G01 X5.9820 Y2.7688
G01 X6.0007 Y2.7645
G01 X6.0197 Y2.7615
G00 Z5.0000


(No. 8: Engraving 8)
G00 X6.4985 Y2.4509 Z5.0000
G00 Z0.5000
G01 Z0.0000 F180
G01 Z-1.0000
G01 X6.4625 Y3.1494
G01 X6.4971 Y3.2349
G01 X6.5839 Y3.2708
G01 X6.9291
G01 X6.9894 Y3.2437
G01 X6.9930 Y3.2391
G01 X6.9962 Y3.2343
G01 X6.9991 Y3.2293
G01 X7.0017 Y3.2242
G01 X7.0039 Y3.2188
G01 X7.0058 Y3.2134
G01 X7.0073 Y3.2078
G01 X7.0084 Y3.2021
G01 X7.0092 Y3.1964
G01 X7.0095 Y3.1906
G01 Y3.1849
G01 X7.0092 Y3.1791
G01 X7.0084 Y3.1734
G01 X7.0073 Y3.1677
G01 X7.0058 Y3.1621
G01 X7.0039 Y3.1567
G01 X7.0017 Y3.1513
G01 X6.9991 Y3.1462
G01 X6.9962 Y3.1412
G01 X6.9930 Y3.1364
G01 X6.9895 Y3.1318
G01 X6.9857 Y3.1275
G01 X6.9816 Y3.1234
G01 X6.9772 Y3.1196
G01 X6.9277 Y3.1026
G01 X6.6666 Y3.1148
G01 Y2.9222
G01 X6.9128 Y2.9283
G01 X6.9664 Y2.9073
G01 X6.9894 Y2.8531
G01 X6.9664 Y2.7954
G01 X6.9128 Y2.7737
G01 X6.6666 Y2.7798
G01 Y2.5655
G01 X6.9474 Y2.5710
G01 X7.0010 Y2.5499
G01 X7.0247 Y2.4943
G01 X7.0023 Y2.4367
G01 X6.9474 Y2.4150
G01 X6.5839
G01 X6.4985 Y2.4509
G01 Z-2.0000
G01 X6.5839 Y2.4150
G01 X6.9474
G01 X7.0023 Y2.4367
G01 X7.0247 Y2.4943
G01 X7.0010 Y2.5499
G01 X6.9474 Y2.5710
G01 X6.6666 Y2.5655
G01 Y2.7798
G01 X6.9128 Y2.7737
G01 X6.9664 Y2.7954
G01 X6.9894 Y2.8531
G01 X6.9664 Y2.9073
G01 X6.9128 Y2.9283
G01 X6.6666 Y2.9222
G01 Y3.1148
G01 X6.9277 Y3.1026
G01 X6.9772 Y3.1196
G01 X6.9818 Y3.1233
G01 X6.9861 Y3.1272
G01 X6.9901 Y3.1315
G01 X6.9938 Y3.1360
G01 X6.9972 Y3.1408
G01 X7.0002 Y3.1458
G01 X7.0029 Y3.1509
G01 X7.0052 Y3.1563
G01 X7.0072 Y3.1618
G01 X7.0087 Y3.1674
G01 X7.0099 Y3.1732
G01 X7.0107 Y3.1790
G01 X7.0110 Y3.1848
G01 Y3.1906
G01 X7.0106 Y3.1965
G01 X7.0097 Y3.2022
G01 X7.0085 Y3.2079
G01 X7.0069 Y3.2136
G01 X7.0049 Y3.2190
G01 X7.0025 Y3.2244
G01 X6.9997 Y3.2295
G01 X6.9966 Y3.2345
G01 X6.9932 Y3.2392
G01 X6.9894 Y3.2437
G01 X6.9291 Y3.2708
G01 X6.5839
G01 X6.4971 Y3.2349
G01 X6.4625 Y3.1494
G01 X6.4985 Y2.4509
G00 Z5.0000


(No. 9: Engraving 9)
G00 X7.5049 Y2.4394 Z5.0000
G00 Z0.5000
G01 Z0.0000 F180
G01 Z-1.0000
G01 X7.4750 Y3.1413
G01 X7.5123 Y3.2301
G01 X7.6012 Y3.2674
G01 X7.9402
G01 X7.9999 Y3.2389
G01 X8.0148 Y3.1915
G01 Y3.1623
G01 X7.9897 Y3.1216
G01 X7.9402 Y3.1033
G01 X7.6778 Y3.1155
G01 Y2.9189
G01 X7.9429 Y2.9311
G01 X7.9958 Y2.9087
G01 X8.0196 Y2.8544
G01 X7.9952 Y2.7981
G01 X7.9429 Y2.7764
G01 X7.6778 Y2.7886
G01 Y2.5113
G01 X7.6486 Y2.4394
G01 X7.5767 Y2.4095
G01 X7.5049 Y2.4394
G01 Z-2.0000
G01 X7.5767 Y2.4095
G01 X7.6486 Y2.4394
G01 X7.6778 Y2.5113
G01 Y2.7886
G01 X7.9429 Y2.7764
G01 X7.9952 Y2.7981
G01 X8.0196 Y2.8544
G01 X7.9958 Y2.9087
G01 X7.9429 Y2.9311
G01 X7.6778 Y2.9189
G01 Y3.1155
G01 X7.9402 Y3.1033
G01 X7.9897 Y3.1216
G01 X8.0148 Y3.1623
G01 Y3.1915
G01 X7.9999 Y3.2389
G01 X7.9402 Y3.2674
G01 X7.6012
G01 X7.5123 Y3.2301
G01 X7.4750 Y3.1413
G01 X7.5049 Y2.4394
G00 Z5.0000


(No. 10: Engraving 10)
G00 X8.1566 Y2.4509 Z5.0000
G00 Z0.5000
G01 Z0.0000 F180
G01 Z-1.0000
G01 X8.1206 Y3.1494
G01 X8.1552 Y3.2349
G01 X8.2420 Y3.2708
G01 X8.5872
G01 X8.6476 Y3.2437
G01 X8.6511 Y3.2391
G01 X8.6543 Y3.2343
G01 X8.6572 Y3.2293
G01 X8.6598 Y3.2242
G01 X8.6620 Y3.2188
G01 X8.6639 Y3.2134
G01 X8.6654 Y3.2078
G01 X8.6665 Y3.2021
G01 X8.6673 Y3.1964
G01 X8.6677 Y3.1906
G01 Y3.1849
G01 X8.6673 Y3.1791
G01 X8.6665 Y3.1734
G01 X8.6654 Y3.1677
G01 X8.6639 Y3.1621
G01 X8.6620 Y3.1567
G01 X8.6598 Y3.1513
G01 X8.6573 Y3.1462
G01 X8.6544 Y3.1412
G01 X8.6512 Y3.1364
G01 X8.6476 Y3.1318
G01 X8.6438 Y3.1275
G01 X8.6397 Y3.1234
G01 X8.6354 Y3.1196
G01 X8.5859 Y3.1026
G01 X8.3248 Y3.1148
G01 Y2.9222
G01 X8.5709 Y2.9283
G01 X8.6245 Y2.9073
G01 X8.6476 Y2.8531
G01 X8.6245 Y2.7954
G01 X8.5709 Y2.7737
G01 X8.3248 Y2.7798
G01 Y2.5655
G01 X8.6055 Y2.5710
G01 X8.6591 Y2.5499
G01 X8.6828 Y2.4943
G01 X8.6605 Y2.4367
G01 X8.6055 Y2.4150
G01 X8.2420
G01 X8.1566 Y2.4509
G01 Z-2.0000
G01 X8.2420 Y2.4150
G01 X8.6055
G01 X8.6605 Y2.4367
G01 X8.6828 Y2.4943
G01 X8.6591 Y2.5499
G01 X8.6055 Y2.5710
G01 X8.3248 Y2.5655
G01 Y2.7798
G01 X8.5709 Y2.7737
G01 X8.6245 Y2.7954
G01 X8.6476 Y2.8531
G01 X8.6245 Y2.9073
G01 X8.5709 Y2.9283
G01 X8.3248 Y2.9222
G01 Y3.1148
G01 X8.5859 Y3.1026
G01 X8.6354 Y3.1196
G01 X8.6399 Y3.1233
G01 X8.6442 Y3.1272
G01 X8.6482 Y3.1315
G01 X8.6519 Y3.1360
G01 X8.6553 Y3.1408
G01 X8.6583 Y3.1458
G01 X8.6610 Y3.1509
G01 X8.6633 Y3.1563
G01 X8.6653 Y3.1618
G01 X8.6668 Y3.1674
G01 X8.6680 Y3.1732
G01 X8.6688 Y3.1790
G01 X8.6692 Y3.1848
G01 X8.6691 Y3.1906
G01 X8.6687 Y3.1965
G01 X8.6678 Y3.2022
G01 X8.6666 Y3.2079
G01 X8.6650 Y3.2136
G01 X8.6630 Y3.2190
G01 X8.6606 Y3.2244
G01 X8.6578 Y3.2295
G01 X8.6547 Y3.2345
G01 X8.6513 Y3.2392
G01 X8.6476 Y3.2437
G01 X8.5872 Y3.2708
G01 X8.2420
G01 X8.1552 Y3.2349
G01 X8.1206 Y3.1494
G01 X8.1566 Y2.4509
G00 Z5.0000


(No. 11: Engraving 11)
G00 X8.8191 Y2.4509 Z5.0000
G00 Z0.5000
G01 Z0.0000 F180
G01 Z-1.0000
G01 X8.7832 Y3.1494
G01 X8.8178 Y3.2349
G01 X8.9046 Y3.2708
G01 X9.2498
G01 X9.3101 Y3.2437
G01 X9.3137 Y3.2391
G01 X9.3169 Y3.2343
G01 X9.3198 Y3.2293
G01 X9.3224 Y3.2242
G01 X9.3246 Y3.2188
G01 X9.3264 Y3.2134
G01 X9.3280 Y3.2078
G01 X9.3291 Y3.2021
G01 X9.3298 Y3.1964
G01 X9.3302 Y3.1906
G01 Y3.1849
G01 X9.3299 Y3.1791
G01 X9.3291 Y3.1734
G01 X9.3280 Y3.1677
G01 X9.3265 Y3.1621
G01 X9.3246 Y3.1567
G01 X9.3224 Y3.1513
G01 X9.3198 Y3.1462
G01 X9.3169 Y3.1412
G01 X9.3137 Y3.1364
G01 X9.3102 Y3.1318
G01 X9.3064 Y3.1275
G01 X9.3023 Y3.1234
G01 X9.2979 Y3.1196
G01 X9.2484 Y3.1026
G01 X8.9873 Y3.1148
G01 Y2.9222
G01 X9.2335 Y2.9283
G01 X9.2871 Y2.9073
G01 X9.3101 Y2.8531
G01 X9.2871 Y2.7954
G01 X9.2335 Y2.7737
G01 X8.9873 Y2.7798
G01 Y2.5655
G01 X9.2681 Y2.5710
G01 X9.3217 Y2.5499
G01 X9.3454 Y2.4943
G01 X9.3230 Y2.4367
G01 X9.2681 Y2.4150
G01 X8.9046
G01 X8.8191 Y2.4509
G01 Z-2.0000
G01 X8.9046 Y2.4150
G01 X9.2681
G01 X9.3230 Y2.4367
G01 X9.3454 Y2.4943
G01 X9.3217 Y2.5499
G01 X9.2681 Y2.5710
G01 X8.9873 Y2.5655
G01 Y2.7798
G01 X9.2335 Y2.7737
G01 X9.2871 Y2.7954
G01 X9.3101 Y2.8531
G01 X9.2871 Y2.9073
G01 X9.2335 Y2.9283
G01 X8.9873 Y2.9222
G01 Y3.1148
G01 X9.2484 Y3.1026
G01 X9.2979 Y3.1196
G01 X9.3025 Y3.1233
G01 X9.3068 Y3.1272
G01 X9.3108 Y3.1315
G01 X9.3145 Y3.1360
G01 X9.3178 Y3.1408
G01 X9.3209 Y3.1458
G01 X9.3236 Y3.1509
G01 X9.3259 Y3.1563
G01 X9.3279 Y3.1618
G01 X9.3294 Y3.1674
G01 X9.3306 Y3.1732
G01 X9.3314 Y3.1790
G01 X9.3317 Y3.1848
G01 Y3.1906
G01 X9.3313 Y3.1965
G01 X9.3304 Y3.2022
G01 X9.3292 Y3.2079
G01 X9.3276 Y3.2136
G01 X9.3255 Y3.2190
G01 X9.3232 Y3.2244
G01 X9.3204 Y3.2295
G01 X9.3173 Y3.2345
G01 X9.3139 Y3.2392
G01 X9.3101 Y3.2437
G01 X9.2498 Y3.2708
G01 X8.9046
G01 X8.8178 Y3.2349
G01 X8.7832 Y3.1494
G01 X8.8191 Y2.4509
G00 Z5.0000


(No. 12: Engraving 12)
G00 X9.5075 Y2.4251 Z5.0000
G00 Z0.5000
G01 Z0.0000 F180
G01 Z-1.0000
G01 X9.4458 Y3.1962
G01 X9.4634 Y3.2410
G01 X9.5061 Y3.2607
G01 X9.5388 Y3.2687
G01 X9.5717 Y3.2750
G01 X9.6050 Y3.2797
G01 X9.6385 Y3.2826
G01 X9.6721 Y3.2839
G01 X9.7056 Y3.2834
G01 X9.7392 Y3.2811
G01 X9.7725 Y3.2772
G01 X9.8057 Y3.2715
G01 X9.8384 Y3.2642
G01 X9.8708 Y3.2552
G01 X9.9027 Y3.2445
G01 X9.9339 Y3.2322
G01 X9.9645 Y3.2183
G01 X9.9944 Y3.2029
G01 X10.0234 Y3.1860
G01 X10.0515 Y3.1676
G01 X10.0786 Y3.1478
G01 X10.1047 Y3.1266
G01 X10.1297 Y3.1041
G01 X10.1469 Y3.0823
G01 X10.1627 Y3.0594
G01 X10.1770 Y3.0355
G01 X10.1896 Y3.0107
G01 X10.2005 Y2.9852
G01 X10.2097 Y2.9589
G01 X10.2172 Y2.9321
G01 X10.2228 Y2.9049
G01 X10.2267 Y2.8774
G01 X10.2287 Y2.8496
G01 X10.2288 Y2.8218
G01 X10.2271 Y2.7941
G01 X10.2236 Y2.7665
G01 X10.2182 Y2.7392
G01 X10.2111 Y2.7123
G01 X10.2022 Y2.6860
G01 X10.1915 Y2.6603
G01 X10.1792 Y2.6354
G01 X10.1652 Y2.6114
G01 X10.1496 Y2.5883
G01 X10.1326 Y2.5663
G01 X10.1142 Y2.5455
G01 X10.0944 Y2.5260
G01 X10.0733 Y2.5078
G01 X10.0511 Y2.4911
G01 X10.0278 Y2.4759
G01 X10.0036 Y2.4622
G01 X9.9785 Y2.4502
G01 X9.9527 Y2.4399
G01 X9.9262 Y2.4314
G01 X9.8993 Y2.4246
G01 X9.8719 Y2.4196
G01 X9.8443 Y2.4164
G01 X9.8165 Y2.4151
G01 X9.7887 Y2.4156
G01 X9.7610 Y2.4180
G01 X9.7204 Y2.4170
G01 X9.5075 Y2.4251
G01 Z-2.0000
G01 X9.5454 Y2.4164
G01 X9.5837 Y2.4097
G01 X9.6223 Y2.4051
G01 X9.6611 Y2.4027
G01 X9.7000 Y2.4024
G01 X9.7388 Y2.4042
G01 X9.7775 Y2.4082
G01 X9.8159 Y2.4142
G01 X9.8539 Y2.4224
G01 X9.8914 Y2.4327
G01 X9.9283 Y2.4450
G01 X9.9644 Y2.4593
G01 X9.9997 Y2.4756
G01 X10.0341 Y2.4938
G01 X10.0674 Y2.5138
G01 X10.0995 Y2.5357
G01 X10.1191 Y2.5565
G01 X10.1373 Y2.5786
G01 X10.1540 Y2.6018
G01 X10.1691 Y2.6261
G01 X10.1825 Y2.6513
G01 X10.1942 Y2.6774
G01 X10.2042 Y2.7042
G01 X10.2123 Y2.7316
G01 X10.2186 Y2.7595
G01 X10.2230 Y2.7878
G01 X10.2255 Y2.8163
G01 X10.2260 Y2.8449
G01 X10.2247 Y2.8734
G01 X10.2215 Y2.9018
G01 X10.2164 Y2.9300
G01 X10.2094 Y2.9577
G01 X10.2006 Y2.9849
G01 X10.1900 Y3.0114
G01 X10.1776 Y3.0372
G01 X10.1636 Y3.0621
G01 X10.1479 Y3.0860
G01 X10.1306 Y3.1088
G01 X10.1119 Y3.1304
G01 X10.0917 Y3.1507
G01 X10.0703 Y3.1696
G01 X10.0476 Y3.1871
G01 X10.0238 Y3.2029
G01 X9.9991 Y3.2172
G01 X9.9734 Y3.2298
G01 X9.9469 Y3.2406
G01 X9.9198 Y3.2496
G01 X9.8921 Y3.2568
G01 X9.8640 Y3.2622
G01 X9.8356 Y3.2656
G01 X9.8071 Y3.2671
G01 X9.7785 Y3.2668
G01 X9.7104 Y3.2705
G01 X9.6421 Y3.2707
G01 X9.5740 Y3.2675
G01 X9.5061 Y3.2607
G01 X9.4634 Y3.2410
G01 X9.4458 Y3.1962
G01 X9.5075 Y2.4251
G00 Z5.0000


(No. 13: Engraving 13)
G00 X9.6967 Y3.1732 Z5.0000
G00 Z0.5000
G01 Z0.0000 F180
G01 Z-1.0000
G01 X9.6302 Y2.5764
G01 X9.6492 Y2.5289
G01 X9.6960 Y2.5092
G01 X9.7195 Y2.5091
G01 X9.7429 Y2.5109
G01 X9.7661 Y2.5144
G01 X9.7890 Y2.5198
G01 X9.8114 Y2.5268
G01 X9.8331 Y2.5357
G01 X9.8541 Y2.5461
G01 X9.8743 Y2.5582
G01 X9.8934 Y2.5718
G01 X9.9115 Y2.5868
G01 X9.9283 Y2.6032
G01 X9.9438 Y2.6209
G01 X9.9578 Y2.6397
G01 X9.9704 Y2.6595
G01 X9.9814 Y2.6802
G01 X9.9907 Y2.7018
G01 X9.9984 Y2.7240
G01 X10.0043 Y2.7467
G01 X10.0084 Y2.7698
G01 X10.0108 Y2.7932
G01 X10.0113 Y2.8166
G01 X10.0099 Y2.8401
G01 X10.0068 Y2.8633
G01 X10.0019 Y2.8863
G01 X10.0012 Y2.9058
G01 X9.9993 Y2.9253
G01 X9.9960 Y2.9446
G01 X9.9914 Y2.9636
G01 X9.9855 Y2.9823
G01 X9.9784 Y3.0005
G01 X9.9700 Y3.0182
G01 X9.9605 Y3.0352
G01 X9.9498 Y3.0516
G01 X9.9381 Y3.0672
G01 X9.9252 Y3.0820
G01 X9.9115 Y3.0959
G01 X9.8968 Y3.1088
G01 X9.8812 Y3.1207
G01 X9.8649 Y3.1314
G01 X9.8479 Y3.1411
G01 X9.8303 Y3.1496
G01 X9.8121 Y3.1568
G01 X9.7935 Y3.1628
G01 X9.7745 Y3.1675
G01 X9.7552 Y3.1709
G01 X9.7358 Y3.1730
G01 X9.7162 Y3.1737
G01 X9.6967 Y3.1732
G01 Z-2.0000
G01 X9.7193 Y3.1729
G01 X9.7417 Y3.1710
G01 X9.7640 Y3.1675
G01 X9.7860 Y3.1623
G01 X9.8076 Y3.1556
G01 X9.8286 Y3.1474
G01 X9.8489 Y3.1377
G01 X9.8685 Y3.1265
G01 X9.8873 Y3.1139
G01 X9.9051 Y3.1000
G01 X9.9218 Y3.0849
G01 X9.9374 Y3.0685
G01 X9.9517 Y3.0511
G01 X9.9648 Y3.0327
G01 X9.9765 Y3.0134
G01 X9.9868 Y2.9934
G01 X9.9956 Y2.9726
G01 X10.0029 Y2.9512
G01 X10.0086 Y2.9294
G01 X10.0127 Y2.9072
G01 X10.0152 Y2.8848
G01 X10.0161 Y2.8622
G01 X10.0153 Y2.8397
G01 X10.0129 Y2.8172
G01 X10.0089 Y2.7950
G01 X10.0033 Y2.7731
G01 X9.9962 Y2.7517
G01 X9.9875 Y2.7309
G01 X9.9826 Y2.7116
G01 X9.9764 Y2.6926
G01 X9.9688 Y2.6742
G01 X9.9600 Y2.6563
G01 X9.9499 Y2.6391
G01 X9.9386 Y2.6227
G01 X9.9262 Y2.6071
G01 X9.9127 Y2.5924
G01 X9.8982 Y2.5787
G01 X9.8828 Y2.5661
G01 X9.8665 Y2.5546
G01 X9.8495 Y2.5443
G01 X9.8317 Y2.5352
G01 X9.8134 Y2.5274
G01 X9.7945 Y2.5209
G01 X9.7752 Y2.5158
G01 X9.7557 Y2.5120
G01 X9.7359 Y2.5097
G01 X9.7159 Y2.5088
G01 X9.6960 Y2.5092
G01 X9.6492 Y2.5289
G01 X9.6302 Y2.5764
G01 X9.6967 Y3.1732
G00 Z5.0000


(No. 14: Engraving 14)
G00 X10.9289 Y2.4360 Z5.0000
G00 Z0.5000
G01 Z0.0000 F180
G01 Z-1.0000
G01 X10.8991 Y3.1264
G01 X10.7431 Y3.1142
G01 X10.7004 Y3.1298
G01 X10.6767 Y3.1657
G01 X10.6882 Y3.2376
G01 X10.7431 Y3.2647
G01 X11.2633
G01 X11.3196 Y3.2362
G01 X11.3297 Y3.1684
G01 X11.3040 Y3.1277
G01 X11.2633 Y3.1142
G01 X11.1073 Y3.1264
G01 Y2.5106
G01 X11.0774 Y2.4360
G01 X11.0028 Y2.4062
G01 X10.9289 Y2.4360
G01 Z-2.0000
G01 X11.0028 Y2.4062
G01 X11.0774 Y2.4360
G01 X11.1073 Y2.5106
G01 Y3.1264
G01 X11.2633 Y3.1142
G01 X11.3040 Y3.1277
G01 X11.3297 Y3.1684
G01 X11.3196 Y3.2362
G01 X11.2633 Y3.2647
G01 X10.7431
G01 X10.6882 Y3.2376
G01 X10.6767 Y3.1657
G01 X10.7004 Y3.1298
G01 X10.7431 Y3.1142
G01 X10.8991 Y3.1264
G01 X10.9289 Y2.4360
G00 Z5.0000


(No. 15: Engraving 15)
G00 X11.6315 Y2.7914 Z5.0000
G00 Z0.5000
G01 Z0.0000 F180
G01 Z-1.0000
G01 Y2.5126
G01 X11.6017 Y2.4407
G01 X11.5298 Y2.4116
G01 X11.4565 Y2.4407
G01 X11.4274 Y2.5126
G01 Y3.1698
G01 X11.4565 Y3.2417
G01 X11.5278 Y3.2715
G01 X11.6017 Y3.2417
G01 X11.6315 Y3.1698
G01 Y2.9582
G01 X11.9163
G01 Y3.1698
G01 X11.9455 Y3.2417
G01 X12.0167 Y3.2715
G01 X12.0893 Y3.2417
G01 X12.1191 Y3.1698
G01 Y2.5126
G01 X12.0893 Y2.4407
G01 X12.0181 Y2.4116
G01 X11.9448 Y2.4407
G01 X11.9163 Y2.5126
G01 Y2.7914
G01 X11.6315
G01 Z-2.0000
G01 X11.9163
G01 Y2.5126
G01 X11.9448 Y2.4407
G01 X12.0181 Y2.4116
G01 X12.0893 Y2.4407
G01 X12.1191 Y2.5126
G01 Y3.1698
G01 X12.0893 Y3.2417
G01 X12.0167 Y3.2715
G01 X11.9455 Y3.2417
G01 X11.9163 Y3.1698
G01 Y2.9582
G01 X11.6315
G01 Y3.1698
G01 X11.6017 Y3.2417
G01 X11.5278 Y3.2715
G01 X11.4565 Y3.2417
G01 X11.4274 Y3.1698
G01 Y2.5126
G01 X11.4565 Y2.4407
G01 X11.5298 Y2.4116
G01 X11.6017 Y2.4407
G01 X11.6315 Y2.5126
G01 Y2.7914
G00 Z5.0000


(No. 16: Engraving 16)
G00 X12.4250 Y2.7798 Z5.0000
G00 Z0.5000
G01 Z0.0000 F180
G01 Z-1.0000
G01 Y2.5655
G01 X12.7057 Y2.5710
G01 X12.7593 Y2.5499
G01 X12.7830 Y2.4943
G01 X12.7607 Y2.4367
G01 X12.7057 Y2.4150
G01 X12.3422
G01 X12.2568 Y2.4509
G01 X12.2208 Y2.5364
G01 Y3.1494
G01 X12.2554 Y3.2349
G01 X12.3422 Y3.2708
G01 X12.6874
G01 X12.7478 Y3.2437
G01 X12.7513 Y3.2391
G01 X12.7545 Y3.2343
G01 X12.7574 Y3.2293
G01 X12.7600 Y3.2242
G01 X12.7622 Y3.2188
G01 X12.7641 Y3.2134
G01 X12.7656 Y3.2078
G01 X12.7667 Y3.2021
G01 X12.7675 Y3.1964
G01 X12.7679 Y3.1906
G01 Y3.1849
G01 X12.7675 Y3.1791
G01 X12.7667 Y3.1734
G01 X12.7656 Y3.1677
G01 X12.7641 Y3.1621
G01 X12.7623 Y3.1567
G01 X12.7600 Y3.1513
G01 X12.7575 Y3.1462
G01 X12.7546 Y3.1412
G01 X12.7514 Y3.1364
G01 X12.7478 Y3.1318
G01 X12.7440 Y3.1275
G01 X12.7399 Y3.1234
G01 X12.7356 Y3.1196
G01 X12.6861 Y3.1026
G01 X12.4250 Y3.1148
G01 Y2.9222
G01 X12.6711 Y2.9283
G01 X12.7247 Y2.9073
G01 X12.7478 Y2.8531
G01 X12.7247 Y2.7954
G01 X12.6711 Y2.7737
G01 X12.4250 Y2.7798
G01 Z-2.0000
G01 X12.6711 Y2.7737
G01 X12.7247 Y2.7954
G01 X12.7478 Y2.8531
G01 X12.7247 Y2.9073
G01 X12.6711 Y2.9283
G01 X12.4250 Y2.9222
G01 Y3.1148
G01 X12.6861 Y3.1026
G01 X12.7356 Y3.1196
G01 X12.7401 Y3.1233
G01 X12.7444 Y3.1272
G01 X12.7484 Y3.1315
G01 X12.7521 Y3.1360
G01 X12.7555 Y3.1408
G01 X12.7585 Y3.1458
G01 X12.7612 Y3.1509
G01 X12.7635 Y3.1563
G01 X12.7655 Y3.1618
G01 X12.7671 Y3.1674
G01 X12.7682 Y3.1732
G01 X12.7690 Y3.1790
G01 X12.7694 Y3.1848
G01 X12.7693 Y3.1906
G01 X12.7689 Y3.1965
G01 X12.7681 Y3.2022
G01 X12.7668 Y3.2079
G01 X12.7652 Y3.2136
G01 X12.7632 Y3.2190
G01 X12.7608 Y3.2244
G01 X12.7581 Y3.2295
G01 X12.7550 Y3.2345
G01 X12.7515 Y3.2392
G01 X12.7478 Y3.2437
G01 X12.6874 Y3.2708
G01 X12.3422
G01 X12.2554 Y3.2349
G01 X12.2208 Y3.1494
G01 Y2.5364
G01 X12.2568 Y2.4509
G01 X12.3422 Y2.4150
G01 X12.7057
G01 X12.7607 Y2.4367
G01 X12.7830 Y2.4943
G01 X12.7593 Y2.5499
G01 X12.7057 Y2.5710
G01 X12.4250 Y2.5655
G01 Y2.7798
G00 Z5.0000


(No. 17: Engraving 17)
G00 X13.5149 Y3.0029 Z5.0000
G00 Z0.5000
G01 Z0.0000 F180
G01 Z-1.0000
G01 X13.4926 Y2.9811
G01 X13.4691 Y2.9607
G01 X13.4444 Y2.9418
G01 X13.4185 Y2.9244
G01 X13.3917 Y2.9086
G01 X13.3640 Y2.8944
G01 X13.3354 Y2.8820
G01 X13.3061 Y2.8714
G01 X13.2763 Y2.8625
G01 X13.2460 Y2.8555
G01 X13.2153 Y2.8503
G01 X13.1843 Y2.8470
G01 X13.1532 Y2.8456
G01 X13.1220 Y2.8461
G01 X13.0910 Y2.8485
G01 X13.0602 Y2.8528
G01 X13.1270 Y2.9218
G01 X13.1876 Y2.9963
G01 X13.2416 Y3.0758
G01 X13.2886 Y3.1596
G01 X13.2898 Y3.2156
G01 X13.2933 Y3.2715
G01 X13.2992 Y3.3272
G01 X13.3074 Y3.3826
G01 X13.3179 Y3.4377
G01 X13.3308 Y3.4922
G01 X13.3459 Y3.5461
G01 X13.3633 Y3.5994
G01 X13.3681 Y3.6107
G01 X13.3737 Y3.6217
G01 X13.3801 Y3.6322
G01 X13.3873 Y3.6422
G01 X13.3952 Y3.6516
G01 X13.4038 Y3.6605
G01 X13.4130 Y3.6686
G01 X13.4228 Y3.6761
G01 X13.4331 Y3.6828
G01 X13.4439 Y3.6888
G01 X13.4551 Y3.6939
G01 X13.4666 Y3.6982
G01 X13.4784 Y3.7016
G01 X13.4905 Y3.7041
G01 X13.5027 Y3.7058
G01 X13.5150 Y3.7065
G01 X13.5273 Y3.7063
G01 X13.5396 Y3.7052
G01 X13.5517 Y3.7032
G01 X13.5637 Y3.7004
G01 X13.5041 Y3.7119
G01 X13.4863 Y3.7059
G01 X13.4690 Y3.6986
G01 X13.4523 Y3.6901
G01 X13.4362 Y3.6805
G01 X13.4208 Y3.6698
G01 X13.4061 Y3.6581
G01 X13.3923 Y3.6454
G01 X13.3794 Y3.6318
G01 X13.3675 Y3.6173
G01 X13.3567 Y3.6020
G01 X13.3469 Y3.5860
G01 X13.3382 Y3.5693
G01 X13.3307 Y3.5521
G01 X13.3244 Y3.5345
G01 X13.3194 Y3.5164
G01 X13.3156 Y3.4980
G01 X13.3131 Y3.4794
G01 X13.3118 Y3.4607
G01 X13.3119 Y3.4419
G01 X13.3133 Y3.4232
G01 X13.3164 Y3.3904
G01 X13.3176 Y3.3575
G01 X13.3171 Y3.3246
G01 X13.3148 Y3.2918
G01 X13.3107 Y3.2591
G01 X13.3049 Y3.2267
G01 X13.2973 Y3.1946
G01 X13.2880 Y3.1630
G01 X13.2770 Y3.1320
G01 X13.2644 Y3.1016
G01 X13.2501 Y3.0719
G01 X13.2342 Y3.0430
G01 X13.2168 Y3.0151
G01 X13.1979 Y2.9881
G01 X13.1776 Y2.9622
G01 X13.1559 Y2.9374
G01 X13.1329 Y2.9139
G01 X13.1086 Y2.8916
G01 X13.0832 Y2.8707
G01 X13.0567 Y2.8511
G01 X13.0877 Y2.8477
G01 X13.1189 Y2.8459
G01 X13.1501 Y2.8458
G01 X13.1813 Y2.8475
G01 X13.2124 Y2.8508
G01 X13.2432 Y2.8558
G01 X13.2737 Y2.8625
G01 X13.3038 Y2.8708
G01 X13.3334 Y2.8808
G01 X13.3624 Y2.8924
G01 X13.3907 Y2.9055
G01 X13.4183 Y2.9202
G01 X13.4450 Y2.9363
G01 X13.4708 Y2.9538
G01 X13.4956 Y2.9728
G01 X13.5194 Y2.9931
G01 X13.5420 Y3.0146
G01 X13.5634 Y3.0373
G01 X13.5836 Y3.0612
G01 X13.6024 Y3.0861
G01 X13.6198 Y3.1120
G01 X13.6358 Y3.1388
G01 X13.6503 Y3.1665
G01 X13.6632 Y3.1949
G01 X13.6876 Y3.1642
G01 X13.7136 Y3.1349
G01 X13.7412 Y3.1071
G01 X13.7702 Y3.0809
G01 X13.8007 Y3.0563
G01 X13.8325 Y3.0334
G01 X13.8655 Y3.0123
G01 X13.8996 Y2.9931
G01 X13.8919 Y2.9847
G01 X12.9949 Y1.9589
G01 X13.1031 Y1.8582
G01 X13.4685 Y2.2652
G01 X13.8295 Y2.6767
G01 X13.8246 Y2.6549
G01 X13.5302 Y1.5076
G01 X13.6889 Y1.5043
G01 X13.8476
G01 Y0.7530
G01 X13.8484 Y0.0016
G01 X13.9690 Y0.0097
G01 X14.0961 Y0.0178
G01 X14.1034 Y0.7611
G01 Y1.5043
G01 X14.2265
G01 Y0.7530
G01 X14.2273 Y0.0016
G01 X14.3496 Y0.0097
G01 X14.4767 Y0.0178
G01 X14.4823 Y0.7611
G01 Y1.5043
G01 X14.7745
G01 X14.6284 Y1.5027
G01 X14.4839
G01 X14.4910 Y1.1322
G01 X14.4927 Y0.7615
G01 X14.4891 Y0.3909
G01 X14.4801 Y0.0204
G01 X14.4797 Y0.3918
G01 X14.4796 Y0.7632
G01 X14.4800 Y1.1346
G01 X14.4807 Y1.5060
G01 X14.7725
G01 X14.6995 Y1.7911
G01 X14.6255 Y2.0760
G01 X14.5506 Y2.3607
G01 X14.4747 Y2.6450
G01 X14.6495 Y2.4496
G01 X14.8234 Y2.2535
G01 X14.9965 Y2.0565
G01 X15.1687 Y1.8588
G01 X15.2301 Y1.9044
G01 X15.2886 Y1.9555
G01 X15.2783 Y1.9671
G01 X14.3903 Y2.9866
G01 X14.4263 Y3.0066
G01 X14.4612 Y3.0285
G01 X14.4948 Y3.0523
G01 X14.5270 Y3.0780
G01 X14.5577 Y3.1054
G01 X14.5869 Y3.1345
G01 X14.6144 Y3.1652
G01 X14.6401 Y3.1973
G01 X14.6535 Y3.1694
G01 X14.6683 Y3.1422
G01 X14.6845 Y3.1158
G01 X14.7021 Y3.0903
G01 X14.7210 Y3.0658
G01 X14.7411 Y3.0423
G01 X14.7625 Y3.0199
G01 X14.7851 Y2.9987
G01 X14.8087 Y2.9787
G01 X14.8333 Y2.9599
G01 X14.8589 Y2.9425
G01 X14.8854 Y2.9265
G01 X14.9127 Y2.9118
G01 X14.9407 Y2.8987
G01 X14.9694 Y2.8870
G01 X14.9987 Y2.8768
G01 X15.0284 Y2.8683
G01 X15.0586 Y2.8613
G01 X15.0891 Y2.8558
G01 X15.1198 Y2.8521
G01 X15.1507 Y2.8499
G01 X15.1816 Y2.8493
G01 X15.2126 Y2.8504
G01 X15.2434 Y2.8532
G01 X15.1752 Y2.9285
G01 X15.1135 Y3.0093
G01 X15.0588 Y3.0950
G01 X15.0114 Y3.1850
G01 X14.9906 Y3.4133
G01 X14.9710 Y3.5332
G01 X14.9702 Y3.5473
G01 X14.9683 Y3.5613
G01 X14.9653 Y3.5750
G01 X14.9613 Y3.5886
G01 X14.9562 Y3.6017
G01 X14.9501 Y3.6144
G01 X14.9430 Y3.6266
G01 X14.9350 Y3.6382
G01 X14.9261 Y3.6492
G01 X14.9163 Y3.6594
G01 X14.9058 Y3.6688
G01 X14.8946 Y3.6774
G01 X14.8828 Y3.6851
G01 X14.8704 Y3.6918
G01 X14.8575 Y3.6975
G01 X14.8442 Y3.7022
G01 X14.8306 Y3.7059
G01 X14.8167 Y3.7085
G01 X14.8027 Y3.7099
G01 X14.7886 Y3.7103
G01 X14.7745 Y3.7096
G01 X14.7605 Y3.7078
G01 X14.7467 Y3.7049
G01 X14.7331 Y3.7009
G01 X14.7233 Y3.7359
G01 X14.7114 Y3.7702
G01 X14.6975 Y3.8037
G01 X14.6816 Y3.8363
G01 X14.6637 Y3.8680
G01 X14.6439 Y3.8984
G01 X14.6224 Y3.9277
G01 X14.5991 Y3.9556
G01 X14.5742 Y3.9820
G01 X14.5478 Y4.0069
G01 X14.5198 Y4.0301
G01 X14.4906 Y4.0516
G01 X14.4601 Y4.0714
G01 X14.4285 Y4.0892
G01 X14.3958 Y4.1051
G01 X14.3622 Y4.1190
G01 X14.3279 Y4.1309
G01 X14.2929 Y4.1406
G01 X14.2574 Y4.1483
G01 X14.2215 Y4.1538
G01 X14.1854 Y4.1571
G01 X14.1491 Y4.1582
G01 X14.1127 Y4.1571
G01 X14.0766 Y4.1539
G01 X14.0407 Y4.1485
G01 X14.0051 Y4.1409
G01 X13.9701 Y4.1312
G01 X13.9358 Y4.1194
G01 X13.9022 Y4.1055
G01 X13.8695 Y4.0897
G01 X13.8379 Y4.0719
G01 X13.8073 Y4.0522
G01 X13.7780 Y4.0308
G01 X13.7501 Y4.0076
G01 X13.7236 Y3.9827
G01 X13.6986 Y3.9564
G01 X13.6753 Y3.9285
G01 X13.6537 Y3.8993
G01 X13.6339 Y3.8689
G01 X13.6160 Y3.8373
G01 X13.6000 Y3.8047
G01 X13.5860 Y3.7712
G01 X13.5740 Y3.7369
G01 X13.5642 Y3.7019
G01 X13.5040 Y3.7136
G01 X13.4861 Y3.7075
G01 X13.4687 Y3.7002
G01 X13.4518 Y3.6917
G01 X13.4356 Y3.6821
G01 X13.4201 Y3.6714
G01 X13.4053 Y3.6596
G01 X13.3914 Y3.6468
G01 X13.3784 Y3.6331
G01 X13.3664 Y3.6186
G01 X13.3555 Y3.6032
G01 X13.3456 Y3.5871
G01 X13.3369 Y3.5704
G01 X13.3293 Y3.5531
G01 X13.3230 Y3.5353
G01 X13.3179 Y3.5172
G01 X13.3140 Y3.4987
G01 X13.3115 Y3.4800
G01 X13.3103 Y3.4611
G01 Y3.4423
G01 X13.3117 Y3.4234
G01 X13.2924 Y3.2271
G01 X13.2855 Y3.1604
G01 X13.2300 Y3.0808
G01 X13.1727 Y3.0024
G01 X13.1138 Y2.9253
G01 X13.0533 Y2.8495
G01 X13.0902 Y2.8470
G01 X13.1271 Y2.8469
G01 X13.1640 Y2.8489
G01 X13.2007 Y2.8532
G01 X13.2371 Y2.8597
G01 X13.2730 Y2.8684
G01 X13.3083 Y2.8792
G01 X13.3429 Y2.8921
G01 X13.3767 Y2.9071
G01 X13.4095 Y2.9241
G01 X13.4412 Y2.9431
G01 X13.4717 Y2.9639
G01 X13.5008 Y2.9866
G01 X13.5286 Y3.0109
G01 X13.5549 Y3.0369
G01 X13.5795 Y3.0645
G01 X13.6024 Y3.0934
G01 X13.6235 Y3.1238
G01 X13.6428 Y3.1553
G01 X13.6601 Y3.1879
G01 X13.6451 Y3.1625
G01 X13.6291 Y3.1377
G01 X13.6122 Y3.1135
G01 X13.5944 Y3.0900
G01 X13.5757 Y3.0671
G01 X13.5562 Y3.0450
G01 X13.5359 Y3.0235
G01 X13.5149 Y3.0029
G01 Z-2.0000
G01 X13.5355 Y3.0240
G01 X13.5554 Y3.0457
G01 X13.5747 Y3.0680
G01 X13.5933 Y3.0909
G01 X13.6111 Y3.1143
G01 X13.6282 Y3.1384
G01 X13.6445 Y3.1629
G01 X13.6601 Y3.1879
G01 X13.6463 Y3.1603
G01 X13.6311 Y3.1334
G01 X13.6144 Y3.1073
G01 X13.5965 Y3.0821
G01 X13.5772 Y3.0579
G01 X13.5568 Y3.0347
G01 X13.5351 Y3.0127
G01 X13.5123 Y2.9917
G01 X13.4885 Y2.9720
G01 X13.4637 Y2.9536
G01 X13.4380 Y2.9365
G01 X13.4113 Y2.9207
G01 X13.3840 Y2.9064
G01 X13.3559 Y2.8935
G01 X13.3271 Y2.8820
G01 X13.2979 Y2.8721
G01 X13.2681 Y2.8637
G01 X13.2379 Y2.8569
G01 X13.2075 Y2.8517
G01 X13.1768 Y2.8480
G01 X13.1459 Y2.8460
G01 X13.1150 Y2.8455
G01 X13.0841 Y2.8467
G01 X13.0533 Y2.8495
G01 X13.1211 Y2.9195
G01 X13.1827 Y2.9950
G01 X13.2377 Y3.0755
G01 X13.2855 Y3.1604
G01 X13.2867 Y3.2166
G01 X13.2902 Y3.2726
G01 X13.2961 Y3.3284
G01 X13.3044 Y3.3840
G01 X13.3149 Y3.4391
G01 X13.3278 Y3.4937
G01 X13.3431 Y3.5478
G01 X13.3605 Y3.6011
G01 X13.3677 Y3.6151
G01 X13.3760 Y3.6285
G01 X13.3854 Y3.6412
G01 X13.3956 Y3.6532
G01 X13.4068 Y3.6643
G01 X13.4188 Y3.6745
G01 X13.4316 Y3.6837
G01 X13.4451 Y3.6919
G01 X13.4591 Y3.6990
G01 X13.4737 Y3.7050
G01 X13.4887 Y3.7099
G01 X13.5040 Y3.7136
G01 X13.5642 Y3.7019
G01 X13.5740 Y3.7369
G01 X13.5860 Y3.7712
G01 X13.6000 Y3.8047
G01 X13.6160 Y3.8373
G01 X13.6339 Y3.8689
G01 X13.6537 Y3.8993
G01 X13.6753 Y3.9285
G01 X13.6986 Y3.9564
G01 X13.7236 Y3.9827
G01 X13.7501 Y4.0076
G01 X13.7780 Y4.0308
G01 X13.8073 Y4.0522
G01 X13.8379 Y4.0719
G01 X13.8695 Y4.0897
G01 X13.9022 Y4.1055
G01 X13.9358 Y4.1194
G01 X13.9701 Y4.1312
G01 X14.0051 Y4.1409
G01 X14.0407 Y4.1485
G01 X14.0766 Y4.1539
G01 X14.1127 Y4.1571
G01 X14.1491 Y4.1582
G01 X14.1854 Y4.1571
G01 X14.2215 Y4.1538
G01 X14.2574 Y4.1483
G01 X14.2929 Y4.1406
G01 X14.3279 Y4.1309
G01 X14.3622 Y4.1190
G01 X14.3958 Y4.1051
G01 X14.4285 Y4.0892
G01 X14.4601 Y4.0714
G01 X14.4906 Y4.0516
G01 X14.5198 Y4.0301
G01 X14.5478 Y4.0069
G01 X14.5742 Y3.9820
G01 X14.5991 Y3.9556
G01 X14.6224 Y3.9277
G01 X14.6439 Y3.8984
G01 X14.6637 Y3.8680
G01 X14.6816 Y3.8363
G01 X14.6975 Y3.8037
G01 X14.7114 Y3.7702
G01 X14.7233 Y3.7359
G01 X14.7331 Y3.7009
G01 X14.7467 Y3.7049
G01 X14.7605 Y3.7078
G01 X14.7745 Y3.7096
G01 X14.7886 Y3.7103
G01 X14.8027 Y3.7099
G01 X14.8167 Y3.7085
G01 X14.8306 Y3.7059
G01 X14.8442 Y3.7022
G01 X14.8575 Y3.6975
G01 X14.8704 Y3.6918
G01 X14.8828 Y3.6851
G01 X14.8946 Y3.6774
G01 X14.9058 Y3.6688
G01 X14.9163 Y3.6594
G01 X14.9261 Y3.6492
G01 X14.9350 Y3.6382
G01 X14.9430 Y3.6266
G01 X14.9501 Y3.6144
G01 X14.9562 Y3.6017
G01 X14.9613 Y3.5886
G01 X14.9653 Y3.5750
G01 X14.9683 Y3.5613
G01 X14.9702 Y3.5473
G01 X14.9710 Y3.5332
G01 X14.9771 Y3.4388
G01 X14.9867 Y3.3447
G01 X14.9999 Y3.2511
G01 X15.0166 Y3.1580
G01 X15.0696 Y3.0791
G01 X15.1251 Y3.0020
G01 X15.1831 Y2.9266
G01 X15.2434 Y2.8532
G01 X15.2065 Y2.8506
G01 X15.1694 Y2.8503
G01 X15.1324 Y2.8523
G01 X15.0956 Y2.8566
G01 X15.0592 Y2.8631
G01 X15.0232 Y2.8719
G01 X14.9878 Y2.8829
G01 X14.9532 Y2.8961
G01 X14.9194 Y2.9114
G01 X14.8867 Y2.9287
G01 X14.8551 Y2.9481
G01 X14.8248 Y2.9693
G01 X14.7958 Y2.9924
G01 X14.7683 Y3.0173
G01 X14.7424 Y3.0438
G01 X14.7183 Y3.0718
G01 X14.6958 Y3.1013
G01 X14.6753 Y3.1322
G01 X14.6567 Y3.1642
G01 X14.6401 Y3.1973
G01 X14.6236 Y3.1753
G01 X14.6063 Y3.1539
G01 X14.5880 Y3.1333
G01 X14.5690 Y3.1135
G01 X14.5491 Y3.0945
G01 X14.5284 Y3.0763
G01 X14.5070 Y3.0590
G01 X14.4849 Y3.0426
G01 X14.4621 Y3.0272
G01 X14.4388 Y3.0127
G01 X14.4148 Y2.9991
G01 X14.3903 Y2.9866
G01 X15.2783 Y1.9671
G01 X15.2886 Y1.9555
G01 X15.2301 Y1.9044
G01 X15.1687 Y1.8588
G01 X14.9990 Y2.0587
G01 X14.8267 Y2.2564
G01 X14.6519 Y2.4518
G01 X14.4747 Y2.6450
G01 X14.5495 Y2.3604
G01 X14.6240 Y2.0756
G01 X14.6983 Y1.7908
G01 X14.7725 Y1.5060
G01 X14.4807
G01 X14.4800 Y1.1346
G01 X14.4796 Y0.7632
G01 X14.4797 Y0.3918
G01 X14.4800 Y0.0204
G01 X14.4891 Y0.3909
G01 X14.4927 Y0.7615
G01 X14.4910 Y1.1322
G01 X14.4839 Y1.5027
G01 X14.6284
G01 X14.7745 Y1.5043
G01 X14.4823
G01 Y0.7611
G01 X14.4767 Y0.0178
G01 X14.3496 Y0.0097
G01 X14.2273 Y0.0016
G01 X14.2265 Y0.7530
G01 Y1.5043
G01 X14.1034
G01 Y0.7611
G01 X14.0961 Y0.0178
G01 X13.9690 Y0.0097
G01 X13.8484 Y0.0016
G01 X13.8476 Y0.7530
G01 Y1.5043
G01 X13.6889
G01 X13.5302 Y1.5076
G01 X13.8246 Y2.6549
G01 X13.8295 Y2.6767
G01 X13.4685 Y2.2652
G01 X13.1031 Y1.8582
G01 X12.9949 Y1.9589
G01 X13.8919 Y2.9847
G01 X13.8996 Y2.9931
G01 X13.8655 Y3.0123
G01 X13.8325 Y3.0334
G01 X13.8007 Y3.0563
G01 X13.7702 Y3.0809
G01 X13.7412 Y3.1071
G01 X13.7136 Y3.1349
G01 X13.6876 Y3.1642
G01 X13.6632 Y3.1949
G01 X13.6508 Y3.1661
G01 X13.6367 Y3.1381
G01 X13.6211 Y3.1109
G01 X13.6039 Y3.0846
G01 X13.5854 Y3.0593
G01 X13.5654 Y3.0351
G01 X13.5441 Y3.0121
G01 X13.5216 Y2.9903
G01 X13.4978 Y2.9698
G01 X13.4730 Y2.9507
G01 X13.4471 Y2.9330
G01 X13.4202 Y2.9167
G01 X13.3925 Y2.9020
G01 X13.3640 Y2.8889
G01 X13.3348 Y2.8774
G01 X13.3050 Y2.8676
G01 X13.2747 Y2.8594
G01 X13.2440 Y2.8530
G01 X13.2130 Y2.8483
G01 X13.1818 Y2.8453
G01 X13.1505 Y2.8441
G01 X13.1191 Y2.8447
G01 X13.0878 Y2.8470
G01 X13.0567 Y2.8511
G01 X13.0839 Y2.8718
G01 X13.1099 Y2.8939
G01 X13.1347 Y2.9175
G01 X13.1581 Y2.9423
G01 X13.1802 Y2.9684
G01 X13.2007 Y2.9956
G01 X13.2198 Y3.0240
G01 X13.2373 Y3.0533
G01 X13.2532 Y3.0835
G01 X13.2674 Y3.1146
G01 X13.2799 Y3.1464
G01 X13.2907 Y3.1788
G01 X13.2906 Y3.2376
G01 X13.2940 Y3.2962
G01 X13.3008 Y3.3546
G01 X13.3110 Y3.4124
G01 X13.3246 Y3.4696
G01 X13.3415 Y3.5259
G01 X13.3616 Y3.5811
G01 X13.3850 Y3.6350
G01 X13.3920 Y3.6449
G01 X13.3997 Y3.6543
G01 X13.4081 Y3.6631
G01 X13.4170 Y3.6714
G01 X13.4265 Y3.6790
G01 X13.4365 Y3.6859
G01 X13.4469 Y3.6922
G01 X13.4577 Y3.6977
G01 X13.4689 Y3.7024
G01 X13.4804 Y3.7064
G01 X13.4922 Y3.7096
G01 X13.5041 Y3.7119
G01 X13.5637 Y3.7004
G01 X13.5482 Y3.7015
G01 X13.5326 Y3.7017
G01 X13.5171 Y3.7007
G01 X13.5017 Y3.6987
G01 X13.4865 Y3.6957
G01 X13.4715 Y3.6917
G01 X13.4568 Y3.6866
G01 X13.4425 Y3.6806
G01 X13.4286 Y3.6736
G01 X13.4153 Y3.6657
G01 X13.4025 Y3.6569
G01 X13.3903 Y3.6472
G01 X13.3788 Y3.6368
G01 X13.3681 Y3.6256
G01 X13.3581 Y3.6137
G01 X13.3489 Y3.6011
G01 X13.3407 Y3.5880
G01 X13.3333 Y3.5743
G01 X13.3269 Y3.5601
G01 X13.3214 Y3.5456
G01 X13.3170 Y3.5307
G01 X13.3136 Y3.5156
G01 X13.3112 Y3.5002
G01 X13.3098 Y3.4848
G01 X13.3095 Y3.4692
G01 X13.3103 Y3.4537
G01 X13.3121 Y3.4383
G01 X13.3149 Y3.4230
G01 X13.2956 Y3.2269
G01 X13.2886 Y3.1596
G01 X13.2340 Y3.0810
G01 X13.1777 Y3.0037
G01 X13.1197 Y2.9276
G01 X13.0602 Y2.8528
G01 X13.0910 Y2.8485
G01 X13.1220 Y2.8461
G01 X13.1532 Y2.8456
G01 X13.1843 Y2.8470
G01 X13.2153 Y2.8503
G01 X13.2460 Y2.8555
G01 X13.2763 Y2.8625
G01 X13.3061 Y2.8714
G01 X13.3354 Y2.8820
G01 X13.3640 Y2.8944
G01 X13.3917 Y2.9086
G01 X13.4185 Y2.9244
G01 X13.4444 Y2.9418
G01 X13.4691 Y2.9607
G01 X13.4926 Y2.9811
G01 X13.5149 Y3.0029
G00 Z5.0000


(No. 18: Engraving 18)
G00 X10.4640 Y0.8437 Z5.0000
G00 Z0.5000
G01 Z0.0000 F180
G01 Z-1.0000
G01 X10.4620 Y0.8233
G01 X10.4584 Y0.8032
G01 X10.4535 Y0.7833
G01 X10.4472 Y0.7639
G01 X10.4395 Y0.7449
G01 X10.4305 Y0.7266
G01 X10.4203 Y0.7089
G01 X10.4088 Y0.6920
G01 X10.3961 Y0.6759
G01 X10.3824 Y0.6608
G01 X10.3676 Y0.6466
G01 X10.3519 Y0.6336
G01 X10.3353 Y0.6217
G01 X10.3178 Y0.6110
G01 X10.2997 Y0.6015
G01 X10.2810 Y0.5934
G01 X10.2617 Y0.5866
G01 X10.2420 Y0.5811
G01 X10.2219 Y0.5771
G01 X10.2016 Y0.5745
G01 X10.1812 Y0.5734
G01 X10.1608 Y0.5736
G01 X10.1404 Y0.5753
G01 X10.1202 Y0.5785
G01 X9.9534 Y0.6083
G01 X9.9052 Y0.6456
G01 X9.8951 Y0.7073
G01 X9.9357 Y0.7616
G01 X10.0015 Y0.7677
G01 X10.1378 Y0.7419
G01 X10.2267 Y0.7657
G01 X10.2613 Y0.8274
G01 X10.2308 Y0.8905
G01 X10.2003 Y0.8990
G01 X10.1703 Y0.9092
G01 X10.1409 Y0.9209
G01 X10.1122 Y0.9342
G01 X10.0842 Y0.9491
G01 X10.0570 Y0.9653
G01 X10.0308 Y0.9831
G01 X10.0056 Y1.0021
G01 X9.9813 Y1.0226
G01 X9.9583 Y1.0442
G01 X9.9364 Y1.0671
G01 X9.9157 Y1.0911
G01 X9.9084 Y1.1102
G01 X9.9026 Y1.1298
G01 X9.8983 Y1.1499
G01 X9.8956 Y1.1702
G01 X9.8944 Y1.1906
G01 X9.8949 Y1.2111
G01 X9.8970 Y1.2315
G01 X9.9006 Y1.2516
G01 X9.9058 Y1.2714
G01 X9.9125 Y1.2908
G01 X9.9206 Y1.3096
G01 X9.9302 Y1.3277
G01 X9.9412 Y1.3449
G01 X9.9535 Y1.3613
G01 X9.9671 Y1.3767
G01 X9.9817 Y1.3910
G01 X9.9975 Y1.4041
G01 X10.0142 Y1.4159
G01 X10.0318 Y1.4264
G01 X10.0501 Y1.4355
G01 X10.0691 Y1.4431
G01 X10.0887 Y1.4493
G01 X10.1086 Y1.4539
G01 X10.1289 Y1.4570
G01 X10.1493 Y1.4584
G01 X10.1698 Y1.4583
G01 X10.1902 Y1.4566
G01 X10.2104 Y1.4533
G01 X10.3508 Y1.4316
G01 X10.4003 Y1.3937
G01 X10.4098 Y1.3313
G01 X10.3711 Y1.2824
G01 X10.3108 Y1.2743
G01 X10.2955 Y1.2805
G01 X10.2799 Y1.2855
G01 X10.2639 Y1.2893
G01 X10.2476 Y1.2918
G01 X10.2312 Y1.2932
G01 X10.2148 Y1.2933
G01 X10.1984 Y1.2921
G01 X10.1821 Y1.2897
G01 X10.1661 Y1.2861
G01 X10.1503 Y1.2813
G01 X10.1350 Y1.2753
G01 X10.1202 Y1.2682
G01 X10.0904 Y1.2099
G01 X10.1243 Y1.1536
G01 X10.1561 Y1.1466
G01 X10.1874 Y1.1376
G01 X10.2180 Y1.1265
G01 X10.2478 Y1.1134
G01 X10.2767 Y1.0983
G01 X10.3045 Y1.0814
G01 X10.3311 Y1.0626
G01 X10.3564 Y1.0421
G01 X10.3803 Y1.0200
G01 X10.4026 Y0.9963
G01 X10.4234 Y0.9712
G01 X10.4424 Y0.9448
G01 X10.4475 Y0.9328
G01 X10.4519 Y0.9206
G01 X10.4557 Y0.9081
G01 X10.4588 Y0.8954
G01 X10.4611 Y0.8826
G01 X10.4628 Y0.8697
G01 X10.4638 Y0.8567
G01 X10.4640 Y0.8437
G01 Z-2.0000
G01 X10.4617 Y0.8652
G01 X10.4577 Y0.8864
G01 X10.4521 Y0.9073
G01 X10.4449 Y0.9277
G01 X10.4362 Y0.9474
G01 X10.4259 Y0.9664
G01 X10.4142 Y0.9846
G01 X10.4011 Y1.0018
G01 X10.3867 Y1.0180
G01 X10.3711 Y1.0329
G01 X10.3544 Y1.0467
G01 X10.3367 Y1.0591
G01 X10.3181 Y1.0700
G01 X10.2986 Y1.0795
G01 X10.2785 Y1.0875
G01 X10.2579 Y1.0939
G01 X10.1243 Y1.1536
G01 X10.0904 Y1.2099
G01 X10.1202 Y1.2682
G01 X10.1353 Y1.2744
G01 X10.1507 Y1.2796
G01 X10.1665 Y1.2838
G01 X10.1825 Y1.2869
G01 X10.1986 Y1.2890
G01 X10.2149 Y1.2901
G01 X10.2312
G01 X10.2474 Y1.2890
G01 X10.2636 Y1.2869
G01 X10.2796 Y1.2837
G01 X10.2953 Y1.2795
G01 X10.3108 Y1.2743
G01 X10.3711 Y1.2824
G01 X10.4098 Y1.3313
G01 X10.4003 Y1.3937
G01 X10.3508 Y1.4316
G01 X10.3268 Y1.4421
G01 X10.3020 Y1.4507
G01 X10.2766 Y1.4574
G01 X10.2508 Y1.4621
G01 X10.2247 Y1.4648
G01 X10.1985 Y1.4654
G01 X10.1723 Y1.4641
G01 X10.1463 Y1.4607
G01 X10.1207 Y1.4553
G01 X10.0955 Y1.4480
G01 X10.0709 Y1.4387
G01 X10.0472 Y1.4276
G01 X10.0244 Y1.4147
G01 X10.0026 Y1.4000
G01 X9.9821 Y1.3837
G01 X9.9628 Y1.3659
G01 X9.9450 Y1.3466
G01 X9.9288 Y1.3261
G01 X9.9142 Y1.3043
G01 X9.9012 Y1.2815
G01 X9.8969 Y1.2629
G01 X9.8938 Y1.2441
G01 X9.8920 Y1.2251
G01 X9.8917 Y1.2060
G01 X9.8926 Y1.1870
G01 X9.8949 Y1.1681
G01 X9.8985 Y1.1494
G01 X9.9034 Y1.1309
G01 X9.9097 Y1.1129
G01 X9.9171 Y1.0954
G01 X9.9258 Y1.0784
G01 X9.9357 Y1.0621
G01 X9.9467 Y1.0465
G01 X9.9588 Y1.0318
G01 X9.9718 Y1.0179
G01 X9.9859 Y1.0050
G01 X10.0008 Y0.9931
G01 X10.0165 Y0.9823
G01 X10.0329 Y0.9726
G01 X10.0500 Y0.9641
G01 X10.0676 Y0.9568
G01 X10.0857 Y0.9508
G01 X10.1042 Y0.9461
G01 X10.1229 Y0.9427
G01 X10.2308 Y0.8905
G01 X10.2613 Y0.8274
G01 X10.2267 Y0.7657
G01 X10.1378 Y0.7419
G01 X10.0015 Y0.7677
G01 X9.9357 Y0.7616
G01 X9.8951 Y0.7073
G01 X9.9052 Y0.6456
G01 X9.9534 Y0.6083
G01 X9.9787 Y0.5959
G01 X10.0049 Y0.5855
G01 X10.0318 Y0.5771
G01 X10.0592 Y0.5708
G01 X10.0871 Y0.5666
G01 X10.1152 Y0.5645
G01 X10.1434 Y0.5646
G01 X10.1715 Y0.5668
G01 X10.1993 Y0.5712
G01 X10.2268 Y0.5777
G01 X10.2536 Y0.5863
G01 X10.2797 Y0.5969
G01 X10.3049 Y0.6094
G01 X10.3291 Y0.6239
G01 X10.3522 Y0.6401
G01 X10.3739 Y0.6581
G01 X10.3942 Y0.6776
G01 X10.4129 Y0.6987
G01 X10.4300 Y0.7211
G01 X10.4453 Y0.7448
G01 X10.4497 Y0.7566
G01 X10.4536 Y0.7687
G01 X10.4569 Y0.7809
G01 X10.4596 Y0.7933
G01 X10.4616 Y0.8058
G01 X10.4631 Y0.8184
G01 X10.4639 Y0.8310
G01 X10.4640 Y0.8437
G00 Z5.0000


(No. 19: Engraving 19)
G00 X9.4203 Y0.7602 Z5.0000
G00 Z0.5000
G01 Z0.0000 F180
G01 Z-1.0000
G01 X9.7120 Y0.7731
G01 X9.7676 Y0.7501
G01 X9.7906 Y0.6938
G01 X9.7682 Y0.6239
G01 X9.7120 Y0.6009
G01 X9.3220
G01 X9.2549 Y0.6280
G01 X9.2277 Y0.6951
G01 Y1.3489
G01 X9.2569 Y1.4194
G01 X9.3159 Y1.4499
G01 X9.4014 Y1.4208
G01 X9.4319 Y1.3489
G01 X9.4203 Y0.7602
G01 Z-2.0000
G01 X9.4319 Y1.3489
G01 X9.4014 Y1.4208
G01 X9.3159 Y1.4499
G01 X9.2569 Y1.4194
G01 X9.2277 Y1.3489
G01 Y0.6951
G01 X9.2549 Y0.6280
G01 X9.3220 Y0.6009
G01 X9.7120
G01 X9.7682 Y0.6239
G01 X9.7906 Y0.6938
G01 X9.7676 Y0.7501
G01 X9.7120 Y0.7731
G01 X9.4203 Y0.7602
G00 Z5.0000


(No. 20: Engraving 21)
G00 X8.8337 Y0.9610 Z5.0000
G00 Z0.5000
G01 Z0.0000 F180
G01 Z-1.0000
G01 X8.7239 Y1.2655
G01 X8.6133 Y0.9610
G01 X8.8337
G01 Z-2.0000
G01 X8.6133
G01 X8.7239 Y1.2655
G01 X8.8337 Y0.9610
G00 Z5.0000


(No. 21: Engraving 20)
G00 X8.8798 Y1.3313 Z5.0000
G00 Z0.5000
G01 Z0.0000 F180
G01 Z-1.0000
G01 X9.0962 Y0.7318
G01 X9.0982 Y0.7244
G01 X9.0996 Y0.7170
G01 X9.1005 Y0.7095
G01 X9.1009 Y0.7019
G01 X9.1008 Y0.6944
G01 X9.1001 Y0.6868
G01 X9.0989 Y0.6793
G01 X9.0971 Y0.6720
G01 X9.0948 Y0.6647
G01 X9.0921 Y0.6577
G01 X9.0888 Y0.6509
G01 X9.0850 Y0.6443
G01 X9.0808 Y0.6380
G01 X9.0762 Y0.6320
G01 X9.0711 Y0.6264
G01 X9.0656 Y0.6211
G01 X9.0598 Y0.6163
G01 X9.0537 Y0.6118
G01 X9.0472 Y0.6079
G01 X9.0405 Y0.6044
G01 X9.0336 Y0.6013
G01 X9.0264 Y0.5988
G01 X9.0191 Y0.5968
G01 X9.0117 Y0.5953
G01 X9.0042 Y0.5944
G01 X8.9966 Y0.5940
G01 X8.9891 Y0.5941
G01 X8.9815 Y0.5947
G01 X8.9740 Y0.5959
G01 X8.9667 Y0.5977
G01 X8.9594 Y0.5999
G01 X8.9524 Y0.6027
G01 X8.9455 Y0.6059
G01 X8.9389 Y0.6097
G01 X8.9326 Y0.6139
G01 X8.9266 Y0.6185
G01 X8.8934 Y0.6680
G01 X8.8581 Y0.8362
G01 X8.6011
G01 X8.5686 Y0.6700
G01 X8.5340 Y0.6178
G01 X8.5279 Y0.6130
G01 X8.5214 Y0.6086
G01 X8.5147 Y0.6047
G01 X8.5077 Y0.6012
G01 X8.5005 Y0.5983
G01 X8.4930 Y0.5959
G01 X8.4855 Y0.5940
G01 X8.4778 Y0.5927
G01 X8.4700 Y0.5919
G01 X8.4622 Y0.5916
G01 X8.4544 Y0.5919
G01 X8.4467 Y0.5928
G01 X8.4390 Y0.5942
G01 X8.4315 Y0.5962
G01 X8.4241 Y0.5986
G01 X8.4169 Y0.6016
G01 X8.4099 Y0.6051
G01 X8.4032 Y0.6091
G01 X8.3968 Y0.6136
G01 X8.3907 Y0.6185
G01 X8.3850 Y0.6238
G01 X8.3797 Y0.6295
G01 X8.3748 Y0.6356
G01 X8.3703 Y0.6420
G01 X8.3663 Y0.6486
G01 X8.3628 Y0.6556
G01 X8.3598 Y0.6628
G01 X8.3573 Y0.6702
G01 X8.3554 Y0.6777
G01 X8.3540 Y0.6854
G01 X8.3531 Y0.6932
G01 X8.3528 Y0.7010
G01 X8.3530 Y0.7087
G01 X8.3538 Y0.7165
G01 X8.3551 Y0.7242
G01 X8.3570 Y0.7318
G01 X8.5625 Y1.3285
G01 X8.6235 Y1.4106
G01 X8.6344 Y1.4177
G01 X8.6458 Y1.4238
G01 X8.6576 Y1.4291
G01 X8.6698 Y1.4335
G01 X8.6823 Y1.4370
G01 X8.6950 Y1.4394
G01 X8.7079 Y1.4409
G01 X8.7208 Y1.4414
G01 X8.7338 Y1.4409
G01 X8.7466 Y1.4394
G01 X8.7594 Y1.4370
G01 X8.7718 Y1.4335
G01 X8.7840 Y1.4291
G01 X8.7959 Y1.4238
G01 X8.8073 Y1.4177
G01 X8.8181 Y1.4106
G01 X8.8798 Y1.3313
G01 Z-2.0000
G01 X8.8181 Y1.4106
G01 X8.8072 Y1.4176
G01 X8.7959 Y1.4238
G01 X8.7840 Y1.4291
G01 X8.7718 Y1.4335
G01 X8.7593 Y1.4369
G01 X8.7466 Y1.4394
G01 X8.7338 Y1.4409
G01 X8.7208 Y1.4414
G01 X8.7079 Y1.4409
G01 X8.6950 Y1.4394
G01 X8.6823 Y1.4369
G01 X8.6698 Y1.4335
G01 X8.6576 Y1.4291
G01 X8.6458 Y1.4238
G01 X8.6344 Y1.4176
G01 X8.6235 Y1.4106
G01 X8.5625 Y1.3285
G01 X8.3570 Y0.7318
G01 X8.3551 Y0.7242
G01 X8.3538 Y0.7165
G01 X8.3530 Y0.7087
G01 X8.3528 Y0.7010
G01 X8.3531 Y0.6932
G01 X8.3540 Y0.6854
G01 X8.3554 Y0.6777
G01 X8.3573 Y0.6702
G01 X8.3598 Y0.6628
G01 X8.3628 Y0.6556
G01 X8.3663 Y0.6486
G01 X8.3703 Y0.6420
G01 X8.3748 Y0.6356
G01 X8.3797 Y0.6295
G01 X8.3850 Y0.6238
G01 X8.3907 Y0.6185
G01 X8.3968 Y0.6136
G01 X8.4032 Y0.6091
G01 X8.4099 Y0.6051
G01 X8.4169 Y0.6016
G01 X8.4241 Y0.5986
G01 X8.4315 Y0.5962
G01 X8.4390 Y0.5942
G01 X8.4467 Y0.5928
G01 X8.4544 Y0.5919
G01 X8.4622 Y0.5916
G01 X8.4700 Y0.5919
G01 X8.4778 Y0.5927
G01 X8.4855 Y0.5940
G01 X8.4930 Y0.5959
G01 X8.5005 Y0.5983
G01 X8.5077 Y0.6012
G01 X8.5147 Y0.6047
G01 X8.5214 Y0.6086
G01 X8.5279 Y0.6130
G01 X8.5340 Y0.6178
G01 X8.5686 Y0.6700
G01 X8.6011 Y0.8362
G01 X8.8581
G01 X8.8934 Y0.6680
G01 X8.9266 Y0.6185
G01 X8.9326 Y0.6139
G01 X8.9389 Y0.6097
G01 X8.9455 Y0.6059
G01 X8.9524 Y0.6027
G01 X8.9594 Y0.5999
G01 X8.9667 Y0.5977
G01 X8.9740 Y0.5959
G01 X8.9815 Y0.5947
G01 X8.9891 Y0.5941
G01 X8.9966 Y0.5940
G01 X9.0042 Y0.5944
G01 X9.0117 Y0.5953
G01 X9.0191 Y0.5968
G01 X9.0264 Y0.5988
G01 X9.0336 Y0.6013
G01 X9.0405 Y0.6044
G01 X9.0472 Y0.6079
G01 X9.0537 Y0.6118
G01 X9.0598 Y0.6163
G01 X9.0656 Y0.6211
G01 X9.0711 Y0.6264
G01 X9.0762 Y0.6320
G01 X9.0808 Y0.6380
G01 X9.0850 Y0.6443
G01 X9.0888 Y0.6509
G01 X9.0921 Y0.6577
G01 X9.0948 Y0.6647
G01 X9.0971 Y0.6720
G01 X9.0989 Y0.6793
G01 X9.1001 Y0.6868
G01 X9.1008 Y0.6944
G01 X9.1009 Y0.7019
G01 X9.1005 Y0.7095
G01 X9.0996 Y0.7170
G01 X9.0982 Y0.7244
G01 X9.0962 Y0.7318
G01 X8.8798 Y1.3313
G00 Z5.0000


(No. 22: Engraving 22)
G00 X8.2593 Y1.2763 Z5.0000
G00 Z0.5000
G01 Z0.0000 F180
G01 Z-1.0000
G01 Y0.6816
G01 X8.2315 Y0.6192
G01 X8.1562 Y0.5927
G01 X8.0911 Y0.6185
G01 X8.0647 Y0.6816
G01 X8.0769 Y1.2173
G01 X7.9297 Y0.6965
G01 X7.8768 Y0.6212
G01 X7.7914 Y0.5927
G01 X7.7039 Y0.6219
G01 X7.6524 Y0.6965
G01 X7.5038 Y1.2173
G01 X7.5167 Y0.6816
G01 X7.4910 Y0.6185
G01 X7.4272 Y0.5927
G01 X7.4123
G01 X7.3506 Y0.6199
G01 X7.3234 Y0.6816
G01 X7.3141 Y0.7605
G01 X7.3075 Y0.8397
G01 X7.3038 Y0.9191
G01 X7.3029 Y0.9986
G01 X7.3048 Y1.0780
G01 X7.3096 Y1.1574
G01 X7.3172 Y1.2365
G01 X7.3276 Y1.3153
G01 X7.3308 Y1.3267
G01 X7.3347 Y1.3379
G01 X7.3394 Y1.3487
G01 X7.3449 Y1.3592
G01 X7.3511 Y1.3693
G01 X7.3580 Y1.3789
G01 X7.3656 Y1.3880
G01 X7.3737 Y1.3965
G01 X7.3825 Y1.4045
G01 X7.3918 Y1.4118
G01 X7.4016 Y1.4184
G01 X7.4119 Y1.4243
G01 X7.4225 Y1.4295
G01 X7.4335 Y1.4338
G01 X7.4448 Y1.4375
G01 X7.4563 Y1.4403
G01 X7.4679 Y1.4422
G01 X7.4797 Y1.4434
G01 X7.4915 Y1.4437
G01 X7.5034 Y1.4432
G01 X7.5151 Y1.4418
G01 X7.5267 Y1.4396
G01 X7.5382 Y1.4366
G01 X7.5494 Y1.4328
G01 X7.5603 Y1.4282
G01 X7.5708 Y1.4228
G01 X7.5810 Y1.4167
G01 X7.5906 Y1.4099
G01 X7.6503 Y1.3238
G01 X7.7914 Y0.8335
G01 X7.9311 Y1.3224
G01 X7.9908 Y1.4093
G01 X8.0911 Y1.4425
G01 X8.1021 Y1.4422
G01 X8.1130 Y1.4412
G01 X8.1238 Y1.4395
G01 X8.1345 Y1.4371
G01 X8.1450 Y1.4340
G01 X8.1553 Y1.4303
G01 X8.1653 Y1.4258
G01 X8.1749 Y1.4207
G01 X8.1843 Y1.4150
G01 X8.1932 Y1.4087
G01 X8.2017 Y1.4018
G01 X8.2098 Y1.3944
G01 X8.2173 Y1.3864
G01 X8.2243 Y1.3780
G01 X8.2307 Y1.3691
G01 X8.2366 Y1.3599
G01 X8.2418 Y1.3502
G01 X8.2463 Y1.3403
G01 X8.2502 Y1.3301
G01 X8.2535 Y1.3196
G01 X8.2560 Y1.3090
G01 X8.2578 Y1.2982
G01 X8.2589 Y1.2873
G01 X8.2593 Y1.2763
G01 Z-2.0000
G01 X8.2589 Y1.2873
G01 X8.2578 Y1.2982
G01 X8.2560 Y1.3090
G01 X8.2535 Y1.3196
G01 X8.2502 Y1.3301
G01 X8.2463 Y1.3403
G01 X8.2418 Y1.3502
G01 X8.2366 Y1.3599
G01 X8.2307 Y1.3691
G01 X8.2243 Y1.3780
G01 X8.2173 Y1.3864
G01 X8.2098 Y1.3944
G01 X8.2017 Y1.4018
G01 X8.1932 Y1.4087
G01 X8.1843 Y1.4150
G01 X8.1749 Y1.4207
G01 X8.1653 Y1.4258
G01 X8.1553 Y1.4303
G01 X8.1450 Y1.4340
G01 X8.1345 Y1.4371
G01 X8.1238 Y1.4395
G01 X8.1130 Y1.4412
G01 X8.1021 Y1.4422
G01 X8.0911 Y1.4425
G01 X7.9908 Y1.4093
G01 X7.9311 Y1.3224
G01 X7.7914 Y0.8335
G01 X7.6503 Y1.3238
G01 X7.5906 Y1.4099
G01 X7.5812 Y1.4166
G01 X7.5713 Y1.4226
G01 X7.5610 Y1.4279
G01 X7.5503 Y1.4325
G01 X7.5394 Y1.4363
G01 X7.5282 Y1.4393
G01 X7.5169 Y1.4416
G01 X7.5054 Y1.4430
G01 X7.4938 Y1.4437
G01 X7.4823 Y1.4436
G01 X7.4707 Y1.4426
G01 X7.4593 Y1.4409
G01 X7.4480 Y1.4384
G01 X7.4369 Y1.4351
G01 X7.4261 Y1.4310
G01 X7.4155 Y1.4262
G01 X7.4054 Y1.4206
G01 X7.3956 Y1.4144
G01 X7.3863 Y1.4075
G01 X7.3775 Y1.4000
G01 X7.3692 Y1.3919
G01 X7.3616 Y1.3832
G01 X7.3545 Y1.3740
G01 X7.3481 Y1.3644
G01 X7.3424 Y1.3543
G01 X7.3374 Y1.3439
G01 X7.3331 Y1.3331
G01 X7.3296 Y1.3221
G01 X7.3269 Y1.3108
G01 X7.3249 Y1.2994
G01 X7.3238 Y1.2879
G01 X7.3234 Y1.2763
G01 Y0.6816
G01 X7.3506 Y0.6199
G01 X7.4123 Y0.5927
G01 X7.4272
G01 X7.4910 Y0.6185
G01 X7.5167 Y0.6816
G01 X7.5038 Y1.2173
G01 X7.6524 Y0.6965
G01 X7.7039 Y0.6219
G01 X7.7914 Y0.5927
G01 X7.8768 Y0.6212
G01 X7.9297 Y0.6965
G01 X8.0769 Y1.2173
G01 X8.0647 Y0.6816
G01 X8.0911 Y0.6185
G01 X8.1562 Y0.5927
G01 X8.2315 Y0.6192
G01 X8.2593 Y0.6816
G01 Y1.2763
G00 Z5.0000


(No. 23: Engraving 23)
G00 X7.1926 Y1.4303 Z5.0000
G00 Z0.5000
G01 Z0.0000 F180
G01 Z-1.0000
G01 X7.2224 Y0.6938
G01 X7.1932 Y0.6226
G01 X7.1220 Y0.5927
G01 X7.0481 Y0.6219
G01 X7.0183 Y0.6938
G01 Y1.3577
G01 X7.0481 Y1.4296
G01 X7.1200 Y1.4594
G01 X7.1926 Y1.4303
G01 Z-2.0000
G01 X7.1200 Y1.4594
G01 X7.0481 Y1.4296
G01 X7.0183 Y1.3577
G01 Y0.6938
G01 X7.0481 Y0.6219
G01 X7.1220 Y0.5927
G01 X7.1932 Y0.6226
G01 X7.2224 Y0.6938
G01 X7.1926 Y1.4303
G00 Z5.0000


(No. 24: Engraving 24)
G00 X6.8881 Y1.4174 Z5.0000
G00 Z0.5000
G01 Z0.0000 F180
G01 Z-1.0000
G01 X6.9165 Y0.7528
G01 X6.9161 Y0.7413
G01 X6.9149 Y0.7300
G01 X6.9129 Y0.7187
G01 X6.9100 Y0.7076
G01 X6.9064 Y0.6968
G01 X6.9020 Y0.6862
G01 X6.8968 Y0.6760
G01 X6.8909 Y0.6662
G01 X6.8843 Y0.6568
G01 X6.8771 Y0.6479
G01 X6.8692 Y0.6396
G01 X6.8608 Y0.6319
G01 X6.8518 Y0.6248
G01 X6.8423 Y0.6184
G01 X6.8324 Y0.6126
G01 X6.8221 Y0.6076
G01 X6.8115 Y0.6034
G01 X6.8006 Y0.5999
G01 X6.7894 Y0.5972
G01 X6.7781 Y0.5954
G01 X6.7667 Y0.5943
G01 X6.7553 Y0.5941
G01 X6.7439 Y0.5947
G01 X6.7325 Y0.5961
G01 X6.7213 Y0.5984
G01 X6.7102 Y0.6014
G01 X6.6995 Y0.6053
G01 X6.6890 Y0.6099
G01 X6.6789 Y0.6152
G01 X6.6692 Y0.6213
G01 X6.6599 Y0.6280
G01 X6.6512 Y0.6354
G01 X6.6430 Y0.6435
G01 X6.6354 Y0.6520
G01 X6.6285 Y0.6611
G01 X6.6222 Y0.6707
G01 X6.3204 Y1.1631
G01 X6.3326 Y0.6945
G01 X6.3042 Y0.6239
G01 X6.2336 Y0.5941
G01 X6.1495 Y0.6239
G01 X6.1197 Y0.6945
G01 Y1.3469
G01 X6.1495 Y1.4174
G01 X6.2187 Y1.4459
G01 X6.2262 Y1.4485
G01 X6.2338 Y1.4507
G01 X6.2416 Y1.4523
G01 X6.2494 Y1.4534
G01 X6.2573 Y1.4540
G01 X6.2652 Y1.4541
G01 X6.2732 Y1.4536
G01 X6.2810 Y1.4526
G01 X6.2888 Y1.4511
G01 X6.2965 Y1.4491
G01 X6.3040 Y1.4466
G01 X6.3113 Y1.4436
G01 X6.3184 Y1.4401
G01 X6.3253 Y1.4362
G01 X6.3319 Y1.4318
G01 X6.3382 Y1.4269
G01 X6.3442 Y1.4217
G01 X6.3497 Y1.4161
G01 X6.3550 Y1.4101
G01 X6.3598 Y1.4038
G01 X6.7165 Y0.8755
G01 X6.7036 Y1.3469
G01 X6.7328 Y1.4160
G01 X6.8026 Y1.4459
G01 X6.8881 Y1.4174
G01 Z-2.0000
G01 X6.8026 Y1.4459
G01 X6.7328 Y1.4160
G01 X6.7036 Y1.3469
G01 X6.7165 Y0.8755
G01 X6.3598 Y1.4038
G01 X6.3531 Y1.4109
G01 X6.3460 Y1.4174
G01 X6.3384 Y1.4235
G01 X6.3304 Y1.4290
G01 X6.3221 Y1.4339
G01 X6.3134 Y1.4382
G01 X6.3044 Y1.4419
G01 X6.2953 Y1.4450
G01 X6.2859 Y1.4475
G01 X6.2763 Y1.4493
G01 X6.2667 Y1.4504
G01 X6.2570 Y1.4508
G01 X6.2473 Y1.4506
G01 X6.2377 Y1.4497
G01 X6.2281 Y1.4481
G01 X6.2187 Y1.4459
G01 X6.1495 Y1.4174
G01 X6.1197 Y1.3469
G01 Y0.6945
G01 X6.1495 Y0.6239
G01 X6.2336 Y0.5941
G01 X6.3042 Y0.6239
G01 X6.3326 Y0.6945
G01 X6.3204 Y1.1631
G01 X6.3518 Y1.0911
G01 X6.3863 Y1.0205
G01 X6.4237 Y0.9514
G01 X6.4640 Y0.8839
G01 X6.5071 Y0.8183
G01 X6.5529 Y0.7545
G01 X6.6014 Y0.6927
G01 X6.6525 Y0.6330
G01 X6.6613 Y0.6257
G01 X6.6706 Y0.6191
G01 X6.6804 Y0.6132
G01 X6.6905 Y0.6079
G01 X6.7011 Y0.6034
G01 X6.7119 Y0.5997
G01 X6.7229 Y0.5968
G01 X6.7341 Y0.5947
G01 X6.7455 Y0.5933
G01 X6.7569 Y0.5929
G01 X6.7683 Y0.5932
G01 X6.7797 Y0.5943
G01 X6.7910 Y0.5963
G01 X6.8021 Y0.5991
G01 X6.8129 Y0.6027
G01 X6.8235 Y0.6070
G01 X6.8337 Y0.6121
G01 X6.8436 Y0.6179
G01 X6.8530 Y0.6244
G01 X6.8619 Y0.6316
G01 X6.8702 Y0.6394
G01 X6.8780 Y0.6478
G01 X6.8851 Y0.6567
G01 X6.8916 Y0.6661
G01 X6.8974 Y0.6759
G01 X6.9025 Y0.6862
G01 X6.9068 Y0.6968
G01 X6.9104 Y0.7076
G01 X6.9131 Y0.7187
G01 X6.9151 Y0.7300
G01 X6.9162 Y0.7414
G01 X6.9165 Y0.7528
G01 X6.8881 Y1.4174
G00 Z5.0000


(No. 25: Engraving 25)
G00 X5.7718 Y1.3313 Z5.0000
G00 Z0.5000
G01 Z0.0000 F180
G01 Z-1.0000
G01 X5.9881 Y0.7318
G01 X5.9901 Y0.7244
G01 X5.9916 Y0.7170
G01 X5.9925 Y0.7095
G01 X5.9929 Y0.7019
G01 X5.9927 Y0.6944
G01 X5.9920 Y0.6868
G01 X5.9908 Y0.6793
G01 X5.9891 Y0.6720
G01 X5.9868 Y0.6647
G01 X5.9840 Y0.6577
G01 X5.9807 Y0.6509
G01 X5.9770 Y0.6443
G01 X5.9728 Y0.6380
G01 X5.9681 Y0.6320
G01 X5.9630 Y0.6264
G01 X5.9576 Y0.6211
G01 X5.9518 Y0.6163
G01 X5.9456 Y0.6118
G01 X5.9392 Y0.6079
G01 X5.9325 Y0.6044
G01 X5.9255 Y0.6013
G01 X5.9184 Y0.5988
G01 X5.9111 Y0.5968
G01 X5.9037 Y0.5953
G01 X5.8961 Y0.5944
G01 X5.8886 Y0.5940
G01 X5.8810 Y0.5941
G01 X5.8735 Y0.5947
G01 X5.8660 Y0.5959
G01 X5.8586 Y0.5977
G01 X5.8514 Y0.5999
G01 X5.8443 Y0.6027
G01 X5.8375 Y0.6059
G01 X5.8309 Y0.6097
G01 X5.8246 Y0.6139
G01 X5.8186 Y0.6185
G01 X5.7854 Y0.6680
G01 X5.7501 Y0.8362
G01 X5.4931
G01 X5.4605 Y0.6700
G01 X5.4259 Y0.6178
G01 X5.4198 Y0.6130
G01 X5.4134 Y0.6086
G01 X5.4066 Y0.6047
G01 X5.3996 Y0.6012
G01 X5.3924 Y0.5983
G01 X5.3850 Y0.5959
G01 X5.3774 Y0.5940
G01 X5.3697 Y0.5927
G01 X5.3620 Y0.5919
G01 X5.3542 Y0.5916
G01 X5.3464 Y0.5919
G01 X5.3386 Y0.5928
G01 X5.3310 Y0.5942
G01 X5.3234 Y0.5962
G01 X5.3160 Y0.5986
G01 X5.3088 Y0.6016
G01 X5.3019 Y0.6051
G01 X5.2952 Y0.6091
G01 X5.2888 Y0.6136
G01 X5.2827 Y0.6185
G01 X5.2770 Y0.6238
G01 X5.2717 Y0.6295
G01 X5.2668 Y0.6356
G01 X5.2623 Y0.6420
G01 X5.2583 Y0.6486
G01 X5.2548 Y0.6556
G01 X5.2518 Y0.6628
G01 X5.2493 Y0.6702
G01 X5.2473 Y0.6777
G01 X5.2459 Y0.6854
G01 X5.2450 Y0.6932
G01 X5.2447 Y0.7010
G01 X5.2449 Y0.7087
G01 X5.2457 Y0.7165
G01 X5.2471 Y0.7242
G01 X5.2489 Y0.7318
G01 X5.4544 Y1.3285
G01 X5.5154 Y1.4106
G01 X5.5263 Y1.4177
G01 X5.5377 Y1.4238
G01 X5.5495 Y1.4291
G01 X5.5617 Y1.4335
G01 X5.5742 Y1.4370
G01 X5.5869 Y1.4394
G01 X5.5998 Y1.4409
G01 X5.6128 Y1.4414
G01 X5.6257 Y1.4409
G01 X5.6386 Y1.4394
G01 X5.6513 Y1.4370
G01 X5.6638 Y1.4335
G01 X5.6760 Y1.4291
G01 X5.6878 Y1.4238
G01 X5.6992 Y1.4177
G01 X5.7101 Y1.4106
G01 X5.7718 Y1.3313
G01 Z-2.0000
G01 X5.7101 Y1.4106
G01 X5.6992 Y1.4176
G01 X5.6878 Y1.4238
G01 X5.6760 Y1.4291
G01 X5.6638 Y1.4335
G01 X5.6513 Y1.4369
G01 X5.6386 Y1.4394
G01 X5.6257 Y1.4409
G01 X5.6128 Y1.4414
G01 X5.5998 Y1.4409
G01 X5.5869 Y1.4394
G01 X5.5742 Y1.4369
G01 X5.5617 Y1.4335
G01 X5.5495 Y1.4291
G01 X5.5377 Y1.4238
G01 X5.5263 Y1.4176
G01 X5.5154 Y1.4106
G01 X5.4544 Y1.3285
G01 X5.2489 Y0.7318
G01 X5.2471 Y0.7242
G01 X5.2457 Y0.7165
G01 X5.2449 Y0.7087
G01 X5.2447 Y0.7010
G01 X5.2450 Y0.6932
G01 X5.2459 Y0.6854
G01 X5.2473 Y0.6777
G01 X5.2493 Y0.6702
G01 X5.2518 Y0.6628
G01 X5.2548 Y0.6556
G01 X5.2583 Y0.6486
G01 X5.2623 Y0.6420
G01 X5.2668 Y0.6356
G01 X5.2717 Y0.6295
G01 X5.2770 Y0.6238
G01 X5.2827 Y0.6185
G01 X5.2888 Y0.6136
G01 X5.2952 Y0.6091
G01 X5.3019 Y0.6051
G01 X5.3088 Y0.6016
G01 X5.3160 Y0.5986
G01 X5.3234 Y0.5962
G01 X5.3310 Y0.5942
G01 X5.3386 Y0.5928
G01 X5.3464 Y0.5919
G01 X5.3542 Y0.5916
G01 X5.3620 Y0.5919
G01 X5.3697 Y0.5927
G01 X5.3774 Y0.5940
G01 X5.3850 Y0.5959
G01 X5.3924 Y0.5983
G01 X5.3996 Y0.6012
G01 X5.4066 Y0.6047
G01 X5.4134 Y0.6086
G01 X5.4198 Y0.6130
G01 X5.4259 Y0.6178
G01 X5.4605 Y0.6700
G01 X5.4931 Y0.8362
G01 X5.7501
G01 X5.7854 Y0.6680
G01 X5.8186 Y0.6185
G01 X5.8246 Y0.6139
G01 X5.8309 Y0.6097
G01 X5.8375 Y0.6059
G01 X5.8443 Y0.6027
G01 X5.8514 Y0.5999
G01 X5.8586 Y0.5977
G01 X5.8660 Y0.5959
G01 X5.8735 Y0.5947
G01 X5.8810 Y0.5941
G01 X5.8886 Y0.5940
G01 X5.8961 Y0.5944
G01 X5.9037 Y0.5953
G01 X5.9111 Y0.5968
G01 X5.9184 Y0.5988
G01 X5.9255 Y0.6013
G01 X5.9325 Y0.6044
G01 X5.9392 Y0.6079
G01 X5.9456 Y0.6118
G01 X5.9518 Y0.6163
G01 X5.9576 Y0.6211
G01 X5.9630 Y0.6264
G01 X5.9681 Y0.6320
G01 X5.9728 Y0.6380
G01 X5.9770 Y0.6443
G01 X5.9807 Y0.6509
G01 X5.9840 Y0.6577
G01 X5.9868 Y0.6647
G01 X5.9891 Y0.6720
G01 X5.9908 Y0.6793
G01 X5.9920 Y0.6868
G01 X5.9927 Y0.6944
G01 X5.9929 Y0.7019
G01 X5.9925 Y0.7095
G01 X5.9916 Y0.7170
G01 X5.9901 Y0.7244
G01 X5.9881 Y0.7318
G01 X5.7718 Y1.3313
G00 Z5.0000
G00 X0.0000 Y0.0000

M05
M30
