( Made using CamBam - http://www.cambam.co.uk )
( dr-leroy 5/10/2021 6:17:20 PM )
( Post processor: Default )
( T0 : 0.0 )
G21 G90 G64 G40
G0 Z3.0
( T0 : 0.0 )
T0 M6
( Engrave1 )
G17
M3 S1000
G0 X13.6038 Y206.0355
G0 Z1.0
G1 F300.0 Z-0.2
G1 F800.0 X12.4829 Y188.7191
G1 X24.3492 Y190.1493
G1 X25.4315 Y181.2206
G1 X3.9407 Y178.6695
G1 X2.8585 Y207.2723
G1 X13.6038 Y206.0355
( Engrave2 )
S1000
G0 Z3.0
G0 X29.49 Y207.1177
G0 Z1.0
G1 F300.0 Z-0.4
G1 F800.0 X48.4297
G1 X46.8449 Y199.1167
G1 X37.5297 Y197.6865
G1 X37.4137 Y195.7152
G1 X45.6467 Y195.0968
G1 X45.2602 Y188.9511
G1 X37.9162 Y188.294
G1 X38.5733 Y186.2067
G1 X47.502 Y186.1294
G1 X50.7875 Y178.4376
G1 X29.49
G1 X27.4027 Y196.9135
G1 X29.49 Y207.1177
G0 Z3.0
M5
M30
