; Generated with:
; "Raster 2 Laser Gcode generator"
; by 305 Engineering
;
; Inkscape 1.x mod by +BFerrarese
;
G21; Set units to millimeters
G90; Use absolute coordinates
G0 F3600
G1 F3600 S204.0
G0 X0.0 Y0.0
M03  S149
G1 X0.2 Y0.0
M03  S157
G1 X0.4 Y0.0
M03  S155
G1 X0.6 Y0.0
M03  S136
G1 X0.8 Y0.0
M03  S115
G1 X1.0 Y0.0
M03  S121
G1 X1.2 Y0.0
M03  S129
G1 X1.4 Y0.0
M03  S117
G1 X1.6 Y0.0
M03  S114
G1 X1.8 Y0.0
M03  S143
G1 X2.0 Y0.0
M03  S165
G1 X2.2 Y0.0
M03  S173
G1 X2.4 Y0.0
M03  S171
G1 X2.6 Y0.0
M03  S165
G1 X2.8 Y0.0
M03  S126
G1 X3.0 Y0.0
M03  S124
G1 X3.2 Y0.0
M03  S122
G1 X3.4 Y0.0
M03  S98
G1 X3.6 Y0.0
M03  S74
G1 X3.8 Y0.0
M03  S79
G1 X4.0 Y0.0
M03  S78
G1 X4.2 Y0.0
M03  S89
G1 X4.4 Y0.0
M03  S90
G1 X4.6 Y0.0
M03  S83
G1 X4.8 Y0.0
M03  S89
G1 X5.0 Y0.0
M03  S93
G1 X5.2 Y0.0
M03  S85
G1 X5.4 Y0.0
M03  S82
G1 X5.6 Y0.0
M03  S86
G1 X6.0 Y0.0
M03  S89
G1 X6.2 Y0.0
M03  S87
G1 X6.4 Y0.0
M03  S69
G1 X6.6 Y0.0
M03  S53
G1 X6.8 Y0.0
M03  S71
G1 X7.0 Y0.0
M03  S90
G1 X7.2 Y0.0
M03  S80
G1 X7.4 Y0.0
M03  S82
G1 X7.6 Y0.0
M03  S79
G1 X7.8 Y0.0
M03  S80
G1 X8.0 Y0.0
M03  S87
G1 X8.2 Y0.0
M03  S82
G1 X8.4 Y0.0
M03  S70
G1 X8.6 Y0.0
M03  S60
G1 X8.8 Y0.0
M03  S68
G1 X9.0 Y0.0
M03  S78
G1 X9.2 Y0.0
M03  S82
G1 X9.4 Y0.0
M03  S80
G1 X9.6 Y0.0
M03  S75
G1 X9.8 Y0.0
M03  S70
G1 X10.0 Y0.0
M03  S73
G1 X10.2 Y0.0
M03  S81
G1 X10.4 Y0.0
M03  S85
G1 X10.6 Y0.0
M03  S76
G1 X10.8 Y0.0
M03  S74
G1 X11.0 Y0.0
M03  S79
G1 X11.2 Y0.0
M03  S78
G1 X11.4 Y0.0
M03  S76
G1 X11.6 Y0.0
M03  S81
G1 X11.8 Y0.0
M03  S100
G1 X12.0 Y0.0
M03  S111
G1 X12.4 Y0.0
M03  S104
G1 X12.6 Y0.0
M03  S92
G1 X12.8 Y0.0
M03  S68
G1 X13.0 Y0.0
M03  S74
G1 X13.2 Y0.0
M03  S79
G1 X13.4 Y0.0
M03  S89
G1 X13.6 Y0.0
M03  S84
G1 X13.8 Y0.0
M03  S88
G1 X14.0 Y0.0
M03  S98
G1 X14.2 Y0.0
M03  S107
G1 X14.4 Y0.0
M03  S109
G1 X14.6 Y0.0
M03  S111
G1 X14.8 Y0.0
M03  S108
G1 X15.0 Y0.0
M03  S104
G1 X15.2 Y0.0
M03  S101
G1 X15.4 Y0.0
M03  S98
G1 X15.6 Y0.0
M03  S91
G1 X15.8 Y0.0
M03  S84
G1 X16.0 Y0.0
M03  S81
G1 X16.2 Y0.0
M03  S78
G1 X16.4 Y0.0
M03  S85
G1 X16.6 Y0.0
M03  S83
G1 X16.8 Y0.0
M03  S78
G1 X17.0 Y0.0
M03  S79
G1 X17.2 Y0.0
M03  S75
G1 X17.4 Y0.0
M03  S80
G1 X17.6 Y0.0
M03  S84
G1 X17.8 Y0.0
M03  S86
G1 X18.2 Y0.0
M03  S68
G1 X18.4 Y0.0
M03  S71
G1 X18.6 Y0.0
M03  S78
G1 X18.8 Y0.0
M03  S74
G1 X19.0 Y0.0
M03  S89
G1 X19.2 Y0.0
M03  S99
G1 X19.4 Y0.0
M03  S94
G1 X19.6 Y0.0
M03  S89
G1 X19.8 Y0.0
M03  S108
G1 X20.0 Y0.0
M03  S128
G1 X20.2 Y0.0
M03  S93
G1 X20.4 Y0.0
M03  S103
G1 X20.6 Y0.0
M03  S116
G1 X20.8 Y0.0
M03  S124
G1 X21.0 Y0.0
M03  S131
G1 X21.2 Y0.0
M03  S143
G1 X21.4 Y0.0
M03  S147
G1 X21.6 Y0.0
M03  S130
G1 X21.8 Y0.0
M03  S110
G1 X22.0 Y0.0
M03  S95
G1 X22.2 Y0.0
M03  S93
G1 X22.4 Y0.0
M03  S97
G1 X22.6 Y0.0
M03  S94
G1 X22.8 Y0.0
M03  S92
G1 X23.0 Y0.0
M03  S87
G1 X23.2 Y0.0
M03  S81
G1 X23.4 Y0.0
M03  S84
G1 X23.6 Y0.0
M03  S86
G1 X24.0 Y0.0
M03  S83
G1 X24.2 Y0.0
M03  S81
G1 X25.0 Y0.0
M03  S80
G1 X25.2 Y0.0
M03  S78
G1 X25.4 Y0.0
M03  S77
G1 X26.2 Y0.0
M03  S76
G1 X26.6 Y0.0
M03  S73
G1 X26.8 Y0.0
M03  S68
G1 X27.0 Y0.0
M03  S63
G1 X27.2 Y0.0
M03  S60
G1 X27.4 Y0.0
M03  S61
G1 X27.6 Y0.0
M03  S64
G1 X27.8 Y0.0
M03  S66
G1 X28.0 Y0.0
M03  S65
G1 X28.4 Y0.0
M03  S68
G1 X28.8 Y0.0
M03  S69
G1 X29.0 Y0.0
M03  S70
G1 X29.6 Y0.0
M03  S74
G1 X30.2 Y0.0
M03  S78
G1 X30.4 Y0.0
M03  S83
G1 X30.6 Y0.0
M03  S84
G1 X30.8 Y0.0
M03  S85
G1 X31.0 Y0.0
M03  S88
G1 X31.2 Y0.0
M03  S91
G1 X31.4 Y0.0
M03  S95
G1 X31.8 Y0.0
M03  S98
G1 X32.0 Y0.0
M03  S103
G1 X32.2 Y0.0
M03  S107
G1 X32.4 Y0.0
M03  S111
G1 X32.6 Y0.0
M03  S114
G1 X32.8 Y0.0
M03  S117
G1 X33.0 Y0.0
M03  S120
G1 X33.2 Y0.0
M03  S125
G1 X33.4 Y0.0
M03  S130
G1 X33.6 Y0.0
M03  S134
G1 X33.8 Y0.0
M03  S137
G1 X34.0 Y0.0
M03  S141
G1 X34.2 Y0.0
M03  S144
G1 X34.4 Y0.0
M03  S147
G1 X34.6 Y0.0
M03  S152
G1 X34.8 Y0.0
M03  S156
G1 X35.0 Y0.0
M03  S158
G1 X35.2 Y0.0
M03  S159
G1 X35.4 Y0.0
M03  S160
G1 X35.6 Y0.0
M03  S161
G1 X35.8 Y0.0
M03  S156
G1 X36.0 Y0.0
M03  S152
G1 X36.2 Y0.0
M03  S156
G1 X36.4 Y0.0
M03  S143
G1 X36.6 Y0.0
M03  S133
G1 X36.8 Y0.0
M03  S135
G1 X37.0 Y0.0
M03  S137
G1 X37.2 Y0.0
M03  S135
G1 X37.4 Y0.0
M03  S125
G1 X37.6 Y0.0
M03  S114
G1 X37.8 Y0.0
M03  S102
G1 X38.0 Y0.0
M03  S99
G1 X38.2 Y0.0
M03  S107
G1 X38.4 Y0.0
M03  S102
G1 X38.6 Y0.0
M03  S121
G1 X39.0 Y0.0
M03  S110
G1 X39.2 Y0.0
M03  S100
G1 X39.4 Y0.0
M03  S113
G1 X39.6 Y0.0
M03  S111
G1 X39.8 Y0.0
M03  S96
G1 X40.0 Y0.0
M03  S117
G1 X40.2 Y0.0
M03  S131
G1 X40.4 Y0.0
M03  S133
G1 X40.6 Y0.0
M03  S132
G1 X40.8 Y0.0
M03  S126
G1 X41.0 Y0.0
M03  S141
G1 X41.2 Y0.0
M03  S143
G1 X41.4 Y0.0
M03  S128
G1 X41.6 Y0.0
M03  S141
G1 X41.8 Y0.0
M03  S154
G1 X42.0 Y0.0
M03  S155
G1 X42.2 Y0.0
M03  S120
G1 X42.4 Y0.0
M03  S119
G1 X42.6 Y0.0
M03  S151
G1 X42.8 Y0.0
M03  S144
G1 X43.0 Y0.0
M03  S132
G1 X43.2 Y0.0
M03  S116
G1 X43.4 Y0.0
M03  S130
G1 X43.8 Y0.0
M03  S125
G1 X44.0 Y0.0
M03  S151
G1 X44.2 Y0.0
M03  S152
G1 X44.4 Y0.0
M03  S142
G1 X44.6 Y0.0
M03  S146
G1 X44.8 Y0.0
M03  S116
G1 X45.0 Y0.0
M03  S128
G1 X45.2 Y0.0
M03  S125
G1 X45.4 Y0.0
M03  S133
G1 X45.6 Y0.0
M03  S124
G1 X45.8 Y0.0
M03  S126
G1 X46.0 Y0.0
M03  S145
G1 X46.2 Y0.0
M03  S133
G1 X46.4 Y0.0
M03  S135
G1 X46.6 Y0.0
M03  S160
G1 X46.8 Y0.0
M03  S155
G1 X47.0 Y0.0
M03  S140
G1 X47.2 Y0.0
M03  S166
G1 X47.4 Y0.0
M03  S157
G1 X47.6 Y0.0
M03  S156
G1 X47.8 Y0.0
M03  S150
G1 X48.0 Y0.0
M03  S147
G1 X48.2 Y0.0
M03  S143
G1 X48.4 Y0.0
M03  S139
G1 X48.6 Y0.0
M03  S137
G1 X48.8 Y0.0
M03  S134
G1 X49.0 Y0.0
M03  S131
G1 X49.2 Y0.0
M03  S127
G1 X49.4 Y0.0
M03  S120
G1 X49.6 Y0.0
M03  S114
G1 X49.8 Y0.0
M03  S112
G1 X50.0 Y0.0
M03  S102
G1 X50.2 Y0.0
M03  S99
G1 X50.6 Y0.0
M03  S96
G1 X50.8 Y0.0
M03  S93
G1 X51.0 Y0.0
M03  S89
G1 X51.2 Y0.0
M03  S76
G1 X51.4 Y0.0
M03  S84
G1 X51.6 Y0.0
M03  S100
G1 X51.8 Y0.0
M03  S98
G1 X52.0 Y0.0
M03  S99
G1 X52.2 Y0.0
M03  S96
G1 X52.8 Y0.0
M03  S107
G1 X53.0 Y0.0
M03  S112
G1 X53.2 Y0.0
M03  S104
G1 X53.4 Y0.0
M03  S96
G1 X53.6 Y0.0
M03  S95
G1 X53.8 Y0.0
M03  S94
G1 X54.0 Y0.0
M03  S93
G1 X54.2 Y0.0
M03  S86
G1 X54.4 Y0.0
M03  S71
G1 X54.6 Y0.0
M03  S66
G1 X54.8 Y0.0
M03  S73
G1 X55.0 Y0.0
M03  S69
G1 X55.2 Y0.0
M03  S57
G1 X55.4 Y0.0
M03  S55
G1 X55.6 Y0.0
M03  S60
G1 X55.8 Y0.0
M03  S63
G1 X56.0 Y0.0
M03  S61
G1 X56.2 Y0.0
M03  S59
G1 X56.4 Y0.0
M03  S58
G1 X56.8 Y0.0
M03  S57
G1 X57.0 Y0.0
M03  S50
G1 X57.2 Y0.0
M03  S47
G1 X57.4 Y0.0
M03  S48
G1 X57.6 Y0.0
M03  S45
G1 X57.8 Y0.0
M03  S46
G1 X58.0 Y0.0
M03  S53
G1 X58.2 Y0.0
M03  S55
G1 X58.4 Y0.0
M03  S52
G1 X58.6 Y0.0
M03  S56
G1 X58.8 Y0.0
M03  S53
G1 X59.0 Y0.0
M03  S56
G1 X59.2 Y0.0
M03  S65
G1 X59.4 Y0.0
M03  S56
G1 X59.6 Y0.0
M03  S47
G1 X59.8 Y0.0
M03  S53
G1 X60.0 Y0.0
M03  S49
G1 X60.2 Y0.0
M03  S48
G1 X60.6 Y0.0
M05
G0 X60.6 Y0.2
M03  S53
G1 X60.0 Y0.2
M03  S55
G1 X59.8 Y0.2
M03  S48
G1 X59.6 Y0.2
M03  S55
G1 X59.4 Y0.2
M03  S67
G1 X59.2 Y0.2
M03  S57
G1 X59.0 Y0.2
M03  S54
G1 X58.8 Y0.2
M03  S57
G1 X58.6 Y0.2
M03  S50
G1 X58.4 Y0.2
M03  S51
G1 X58.2 Y0.2
M03  S52
G1 X58.0 Y0.2
M03  S53
G1 X57.8 Y0.2
M03  S48
G1 X57.6 Y0.2
M03  S47
G1 X57.4 Y0.2
M03  S53
G1 X57.2 Y0.2
M03  S46
G1 X57.0 Y0.2
M03  S50
G1 X56.8 Y0.2
M03  S56
G1 X56.6 Y0.2
M03  S57
G1 X56.4 Y0.2
M03  S60
G1 X56.2 Y0.2
M03  S57
G1 X56.0 Y0.2
M03  S53
G1 X55.8 Y0.2
M03  S57
G1 X55.6 Y0.2
M03  S58
G1 X55.4 Y0.2
M03  S55
G1 X55.2 Y0.2
M03  S57
G1 X55.0 Y0.2
M03  S58
G1 X54.8 Y0.2
M03  S55
G1 X54.6 Y0.2
M03  S57
G1 X54.4 Y0.2
M03  S69
G1 X54.2 Y0.2
M03  S83
G1 X54.0 Y0.2
M03  S92
G1 X53.8 Y0.2
M03  S95
G1 X53.6 Y0.2
M03  S94
G1 X53.4 Y0.2
M03  S109
G1 X53.2 Y0.2
M03  S115
G1 X53.0 Y0.2
M03  S97
G1 X52.8 Y0.2
M03  S69
G1 X52.6 Y0.2
M03  S75
G1 X52.4 Y0.2
M03  S69
G1 X52.2 Y0.2
M03  S76
G1 X52.0 Y0.2
M03  S89
G1 X51.8 Y0.2
M03  S91
G1 X51.6 Y0.2
M03  S99
G1 X51.4 Y0.2
M03  S93
G1 X51.0 Y0.2
M03  S95
G1 X50.8 Y0.2
M03  S98
G1 X50.6 Y0.2
M03  S100
G1 X50.4 Y0.2
M03  S99
G1 X50.0 Y0.2
M03  S113
G1 X49.8 Y0.2
M03  S117
G1 X49.6 Y0.2
M03  S118
G1 X49.4 Y0.2
M03  S127
G1 X49.2 Y0.2
M03  S131
G1 X49.0 Y0.2
M03  S135
G1 X48.8 Y0.2
M03  S138
G1 X48.6 Y0.2
M03  S139
G1 X48.4 Y0.2
M03  S143
G1 X48.2 Y0.2
M03  S147
G1 X48.0 Y0.2
M03  S150
G1 X47.8 Y0.2
M03  S158
G1 X47.6 Y0.2
M03  S156
G1 X47.4 Y0.2
M03  S157
G1 X47.2 Y0.2
M03  S128
G1 X47.0 Y0.2
M03  S156
G1 X46.6 Y0.2
M03  S133
G1 X46.4 Y0.2
M03  S145
G1 X46.2 Y0.2
M03  S147
G1 X46.0 Y0.2
M03  S131
G1 X45.8 Y0.2
M03  S128
G1 X45.6 Y0.2
M03  S130
G1 X45.4 Y0.2
M03  S124
G1 X45.2 Y0.2
M03  S136
G1 X45.0 Y0.2
M03  S137
G1 X44.8 Y0.2
M03  S136
G1 X44.6 Y0.2
M03  S147
G1 X44.4 Y0.2
M03  S146
G1 X44.2 Y0.2
M03  S151
G1 X44.0 Y0.2
M03  S130
G1 X43.8 Y0.2
M03  S141
G1 X43.6 Y0.2
M03  S146
G1 X43.4 Y0.2
M03  S142
G1 X43.2 Y0.2
M03  S139
G1 X43.0 Y0.2
M03  S155
G1 X42.8 Y0.2
M03  S135
G1 X42.6 Y0.2
M03  S106
G1 X42.4 Y0.2
M03  S121
G1 X42.2 Y0.2
M03  S156
G1 X42.0 Y0.2
M03  S148
G1 X41.8 Y0.2
M03  S134
G1 X41.6 Y0.2
M03  S126
G1 X41.4 Y0.2
M03  S152
G1 X41.2 Y0.2
M03  S138
G1 X41.0 Y0.2
M03  S130
G1 X40.8 Y0.2
M03  S133
G1 X40.6 Y0.2
M03  S130
G1 X40.4 Y0.2
M03  S141
G1 X40.2 Y0.2
M03  S146
G1 X40.0 Y0.2
M03  S97
G1 X39.8 Y0.2
M03  S101
G1 X39.6 Y0.2
M03  S107
G1 X39.4 Y0.2
M03  S104
G1 X39.2 Y0.2
M03  S105
G1 X39.0 Y0.2
M03  S117
G1 X38.8 Y0.2
M03  S120
G1 X38.6 Y0.2
M03  S118
G1 X38.2 Y0.2
M03  S113
G1 X38.0 Y0.2
M03  S121
G1 X37.8 Y0.2
M03  S128
G1 X37.6 Y0.2
M03  S132
G1 X37.4 Y0.2
M03  S133
G1 X37.2 Y0.2
M03  S134
G1 X37.0 Y0.2
M03  S136
G1 X36.8 Y0.2
M03  S146
G1 X36.6 Y0.2
M03  S151
G1 X36.4 Y0.2
M03  S152
G1 X36.2 Y0.2
M03  S158
G1 X36.0 Y0.2
M03  S163
G1 X35.8 Y0.2
M03  S161
G1 X35.6 Y0.2
M03  S159
G1 X35.4 Y0.2
M03  S158
G1 X35.2 Y0.2
M03  S157
G1 X35.0 Y0.2
M03  S154
G1 X34.8 Y0.2
M03  S151
G1 X34.6 Y0.2
M03  S147
G1 X34.4 Y0.2
M03  S141
G1 X34.2 Y0.2
M03  S136
G1 X34.0 Y0.2
M03  S132
G1 X33.8 Y0.2
M03  S130
G1 X33.6 Y0.2
M03  S127
G1 X33.4 Y0.2
M03  S122
G1 X33.2 Y0.2
M03  S118
G1 X33.0 Y0.2
M03  S116
G1 X32.8 Y0.2
M03  S113
G1 X32.6 Y0.2
M03  S109
G1 X32.4 Y0.2
M03  S105
G1 X32.2 Y0.2
M03  S101
G1 X32.0 Y0.2
M03  S97
G1 X31.8 Y0.2
M03  S94
G1 X31.6 Y0.2
M03  S92
G1 X31.4 Y0.2
M03  S89
G1 X31.2 Y0.2
M03  S86
G1 X31.0 Y0.2
M03  S81
G1 X30.8 Y0.2
M03  S79
G1 X30.6 Y0.2
M03  S78
G1 X30.4 Y0.2
M03  S76
G1 X30.2 Y0.2
M03  S73
G1 X29.8 Y0.2
M03  S72
G1 X29.6 Y0.2
M03  S70
G1 X29.0 Y0.2
M03  S68
G1 X28.8 Y0.2
M03  S67
G1 X28.0 Y0.2
M03  S62
G1 X27.8 Y0.2
M03  S61
G1 X27.2 Y0.2
M03  S65
G1 X27.0 Y0.2
M03  S70
G1 X26.8 Y0.2
M03  S75
G1 X26.6 Y0.2
M03  S76
G1 X26.2 Y0.2
M03  S77
G1 X25.4 Y0.2
M03  S78
G1 X25.2 Y0.2
M03  S80
G1 X25.0 Y0.2
M03  S81
G1 X24.2 Y0.2
M03  S83
G1 X24.0 Y0.2
M03  S86
G1 X23.6 Y0.2
M03  S82
G1 X23.2 Y0.2
M03  S88
G1 X23.0 Y0.2
M03  S92
G1 X22.8 Y0.2
M03  S93
G1 X22.6 Y0.2
M03  S96
G1 X22.4 Y0.2
M03  S98
G1 X22.2 Y0.2
M03  S107
G1 X22.0 Y0.2
M03  S122
G1 X21.8 Y0.2
M03  S142
G1 X21.6 Y0.2
M03  S144
G1 X21.4 Y0.2
M03  S134
G1 X21.2 Y0.2
M03  S120
G1 X21.0 Y0.2
M03  S112
G1 X20.8 Y0.2
M03  S108
G1 X20.6 Y0.2
M03  S102
G1 X20.4 Y0.2
M03  S98
G1 X20.2 Y0.2
M03  S126
G1 X20.0 Y0.2
M03  S89
G1 X19.8 Y0.2
M03  S91
G1 X19.6 Y0.2
M03  S103
G1 X19.4 Y0.2
M03  S101
G1 X19.2 Y0.2
M03  S92
G1 X19.0 Y0.2
M03  S80
G1 X18.8 Y0.2
M03  S67
G1 X18.6 Y0.2
M03  S48
G1 X18.4 Y0.2
M03  S69
G1 X18.2 Y0.2
M03  S90
G1 X18.0 Y0.2
M03  S86
G1 X17.8 Y0.2
M03  S77
G1 X17.6 Y0.2
M03  S74
G1 X17.4 Y0.2
M03  S78
G1 X17.2 Y0.2
M03  S82
G1 X17.0 Y0.2
M03  S79
G1 X16.8 Y0.2
M03  S78
G1 X16.6 Y0.2
M03  S77
G1 X16.4 Y0.2
M03  S74
G1 X16.2 Y0.2
M03  S79
G1 X16.0 Y0.2
M03  S85
G1 X15.8 Y0.2
M03  S90
G1 X15.6 Y0.2
M03  S96
G1 X15.4 Y0.2
M03  S102
G1 X15.2 Y0.2
M03  S103
G1 X15.0 Y0.2
M03  S104
G1 X14.8 Y0.2
M03  S105
G1 X14.6 Y0.2
M03  S106
G1 X14.4 Y0.2
M03  S107
G1 X14.2 Y0.2
M03  S104
G1 X14.0 Y0.2
M03  S89
G1 X13.8 Y0.2
M03  S82
G1 X13.6 Y0.2
M03  S91
G1 X13.4 Y0.2
M03  S88
G1 X13.2 Y0.2
M03  S85
G1 X13.0 Y0.2
M03  S74
G1 X12.8 Y0.2
M03  S87
G1 X12.6 Y0.2
M03  S102
G1 X12.4 Y0.2
M03  S109
G1 X12.2 Y0.2
M03  S108
G1 X12.0 Y0.2
M03  S103
G1 X11.8 Y0.2
M03  S90
G1 X11.6 Y0.2
M03  S88
G1 X11.2 Y0.2
M03  S78
G1 X11.0 Y0.2
M03  S81
G1 X10.8 Y0.2
M03  S82
G1 X10.6 Y0.2
M03  S76
G1 X10.4 Y0.2
M03  S73
G1 X10.2 Y0.2
M03  S74
G1 X9.8 Y0.2
M03  S77
G1 X9.6 Y0.2
M03  S72
G1 X9.4 Y0.2
M03  S70
G1 X9.2 Y0.2
M03  S68
G1 X9.0 Y0.2
M03  S58
G1 X8.8 Y0.2
M03  S36
G1 X8.6 Y0.2
M03  S57
G1 X8.4 Y0.2
M03  S79
G1 X8.2 Y0.2
M03  S83
G1 X8.0 Y0.2
M03  S81
G1 X7.8 Y0.2
M03  S84
G1 X7.6 Y0.2
M03  S79
G1 X7.4 Y0.2
M03  S86
G1 X7.2 Y0.2
M03  S90
G1 X7.0 Y0.2
M03  S91
G1 X6.8 Y0.2
M03  S84
G1 X6.6 Y0.2
M03  S79
G1 X6.4 Y0.2
M03  S80
G1 X6.2 Y0.2
M03  S82
G1 X6.0 Y0.2
M03  S84
G1 X5.8 Y0.2
M03  S90
G1 X5.2 Y0.2
M03  S96
G1 X5.0 Y0.2
M03  S94
G1 X4.8 Y0.2
M03  S90
G1 X4.6 Y0.2
M03  S92
G1 X4.4 Y0.2
M03  S93
G1 X4.2 Y0.2
M03  S92
G1 X4.0 Y0.2
M03  S91
G1 X3.8 Y0.2
M03  S95
G1 X3.6 Y0.2
M03  S113
G1 X3.4 Y0.2
M03  S134
G1 X3.2 Y0.2
M03  S154
G1 X3.0 Y0.2
M03  S157
G1 X2.8 Y0.2
M03  S172
G1 X2.6 Y0.2
M03  S174
G1 X2.4 Y0.2
M03  S162
G1 X2.2 Y0.2
M03  S154
G1 X2.0 Y0.2
M03  S128
G1 X1.8 Y0.2
M03  S117
G1 X1.6 Y0.2
M03  S131
G1 X1.4 Y0.2
M03  S132
G1 X1.2 Y0.2
M03  S115
G1 X1.0 Y0.2
M03  S137
G1 X0.8 Y0.2
M03  S158
G1 X0.6 Y0.2
M03  S155
G1 X0.4 Y0.2
M03  S145
G1 X0.2 Y0.2
M03  S137
G1 X0.0 Y0.2
M05
G0 X0.0 Y0.4
M03  S124
G1 X0.2 Y0.4
M03  S134
G1 X0.4 Y0.4
M03  S150
G1 X0.6 Y0.4
M03  S158
G1 X1.0 Y0.4
M03  S133
G1 X1.2 Y0.4
M03  S120
G1 X1.4 Y0.4
M03  S124
G1 X1.6 Y0.4
M03  S106
G1 X2.0 Y0.4
M03  S112
G1 X2.2 Y0.4
M03  S122
G1 X2.4 Y0.4
M03  S164
G1 X2.6 Y0.4
M03  S167
G1 X2.8 Y0.4
M03  S170
G1 X3.2 Y0.4
M03  S138
G1 X3.4 Y0.4
M03  S112
G1 X3.6 Y0.4
M03  S107
G1 X3.8 Y0.4
M03  S96
G1 X4.0 Y0.4
M03  S101
G1 X4.2 Y0.4
M03  S109
G1 X4.4 Y0.4
M03  S107
G1 X4.6 Y0.4
M03  S100
G1 X4.8 Y0.4
M03  S98
G1 X5.0 Y0.4
M03  S96
G1 X5.2 Y0.4
M03  S94
G1 X5.4 Y0.4
M03  S89
G1 X5.6 Y0.4
M03  S92
G1 X6.0 Y0.4
M03  S94
G1 X6.4 Y0.4
M03  S81
G1 X6.6 Y0.4
M03  S84
G1 X6.8 Y0.4
M03  S78
G1 X7.0 Y0.4
M03  S65
G1 X7.2 Y0.4
M03  S77
G1 X7.6 Y0.4
M03  S80
G1 X7.8 Y0.4
M03  S82
G1 X8.0 Y0.4
M03  S83
G1 X8.2 Y0.4
M03  S78
G1 X8.4 Y0.4
M03  S70
G1 X8.6 Y0.4
M03  S59
G1 X8.8 Y0.4
M03  S64
G1 X9.0 Y0.4
M03  S70
G1 X9.2 Y0.4
M03  S73
G1 X9.4 Y0.4
M03  S81
G1 X9.6 Y0.4
M03  S83
G1 X9.8 Y0.4
M03  S64
G1 X10.0 Y0.4
M03  S58
G1 X10.2 Y0.4
M03  S65
G1 X10.4 Y0.4
M03  S72
G1 X10.6 Y0.4
M03  S79
G1 X11.0 Y0.4
M03  S83
G1 X11.2 Y0.4
M03  S101
G1 X11.4 Y0.4
M03  S98
G1 X11.8 Y0.4
M03  S103
G1 X12.0 Y0.4
M03  S104
G1 X12.2 Y0.4
M03  S109
G1 X12.4 Y0.4
M03  S84
G1 X12.6 Y0.4
M03  S79
G1 X12.8 Y0.4
M03  S100
G1 X13.0 Y0.4
M03  S97
G1 X13.2 Y0.4
M03  S96
G1 X13.4 Y0.4
M03  S95
G1 X13.6 Y0.4
M03  S82
G1 X13.8 Y0.4
M03  S87
G1 X14.0 Y0.4
M03  S104
G1 X14.2 Y0.4
M03  S103
G1 X14.4 Y0.4
M03  S99
G1 X14.6 Y0.4
M03  S95
G1 X14.8 Y0.4
M03  S97
G1 X15.0 Y0.4
M03  S98
G1 X15.2 Y0.4
M03  S99
G1 X15.4 Y0.4
M03  S98
G1 X15.6 Y0.4
M03  S88
G1 X15.8 Y0.4
M03  S82
G1 X16.0 Y0.4
M03  S86
G1 X16.2 Y0.4
M03  S75
G1 X16.4 Y0.4
M03  S72
G1 X16.6 Y0.4
M03  S74
G1 X16.8 Y0.4
M03  S63
G1 X17.0 Y0.4
M03  S57
G1 X17.2 Y0.4
M03  S65
G1 X17.4 Y0.4
M03  S68
G1 X17.6 Y0.4
M03  S67
G1 X17.8 Y0.4
M03  S77
G1 X18.0 Y0.4
M03  S80
G1 X18.2 Y0.4
M03  S74
G1 X18.4 Y0.4
M03  S49
G1 X18.8 Y0.4
M03  S76
G1 X19.0 Y0.4
M03  S88
G1 X19.2 Y0.4
M03  S100
G1 X19.4 Y0.4
M03  S110
G1 X19.6 Y0.4
M03  S101
G1 X19.8 Y0.4
M03  S86
G1 X20.0 Y0.4
M03  S104
G1 X20.2 Y0.4
M03  S87
G1 X20.4 Y0.4
M03  S93
G1 X20.6 Y0.4
M03  S102
G1 X20.8 Y0.4
M03  S105
G1 X21.0 Y0.4
M03  S107
G1 X21.2 Y0.4
M03  S112
G1 X21.4 Y0.4
M03  S121
G1 X21.6 Y0.4
M03  S138
G1 X21.8 Y0.4
M03  S137
G1 X22.0 Y0.4
M03  S119
G1 X22.2 Y0.4
M03  S105
G1 X22.4 Y0.4
M03  S98
G1 X22.6 Y0.4
M03  S96
G1 X22.8 Y0.4
M03  S95
G1 X23.0 Y0.4
M03  S92
G1 X23.2 Y0.4
M03  S87
G1 X23.4 Y0.4
M03  S81
G1 X23.6 Y0.4
M03  S86
G1 X24.0 Y0.4
M03  S83
G1 X24.2 Y0.4
M03  S81
G1 X25.0 Y0.4
M03  S80
G1 X25.2 Y0.4
M03  S78
G1 X25.4 Y0.4
M03  S77
G1 X26.2 Y0.4
M03  S76
G1 X26.8 Y0.4
M03  S73
G1 X27.0 Y0.4
M03  S67
G1 X27.2 Y0.4
M03  S61
G1 X27.4 Y0.4
M03  S60
G1 X27.6 Y0.4
M03  S64
G1 X27.8 Y0.4
M03  S59
G1 X28.0 Y0.4
M03  S64
G1 X28.2 Y0.4
M03  S66
G1 X28.8 Y0.4
M03  S67
G1 X29.0 Y0.4
M03  S69
G1 X29.6 Y0.4
M03  S70
G1 X29.8 Y0.4
M03  S71
G1 X30.0 Y0.4
M03  S73
G1 X30.2 Y0.4
M03  S75
G1 X30.4 Y0.4
M03  S76
G1 X30.6 Y0.4
M03  S77
G1 X30.8 Y0.4
M03  S79
G1 X31.0 Y0.4
M03  S83
G1 X31.2 Y0.4
M03  S86
G1 X31.4 Y0.4
M03  S89
G1 X31.6 Y0.4
M03  S95
G1 X31.8 Y0.4
M03  S97
G1 X32.0 Y0.4
M03  S100
G1 X32.2 Y0.4
M03  S102
G1 X32.4 Y0.4
M03  S104
G1 X32.6 Y0.4
M03  S107
G1 X32.8 Y0.4
M03  S110
G1 X33.0 Y0.4
M03  S115
G1 X33.2 Y0.4
M03  S119
G1 X33.4 Y0.4
M03  S124
G1 X33.6 Y0.4
M03  S127
G1 X33.8 Y0.4
M03  S130
G1 X34.0 Y0.4
M03  S133
G1 X34.2 Y0.4
M03  S139
G1 X34.4 Y0.4
M03  S147
G1 X34.6 Y0.4
M03  S150
G1 X34.8 Y0.4
M03  S152
G1 X35.0 Y0.4
M03  S156
G1 X35.2 Y0.4
M03  S157
G1 X35.4 Y0.4
M03  S158
G1 X35.6 Y0.4
M03  S161
G1 X35.8 Y0.4
M03  S165
G1 X36.0 Y0.4
M03  S164
G1 X36.2 Y0.4
M03  S157
G1 X36.4 Y0.4
M03  S152
G1 X36.6 Y0.4
M03  S156
G1 X36.8 Y0.4
M03  S151
G1 X37.0 Y0.4
M03  S142
G1 X37.2 Y0.4
M03  S136
G1 X37.6 Y0.4
M03  S141
G1 X37.8 Y0.4
M03  S134
G1 X38.0 Y0.4
M03  S128
G1 X38.2 Y0.4
M03  S121
G1 X38.4 Y0.4
M03  S114
G1 X38.6 Y0.4
M03  S117
G1 X38.8 Y0.4
M03  S100
G1 X39.0 Y0.4
M03  S91
G1 X39.2 Y0.4
M03  S80
G1 X39.4 Y0.4
M03  S96
G1 X39.6 Y0.4
M03  S75
G1 X39.8 Y0.4
M03  S115
G1 X40.0 Y0.4
M03  S140
G1 X40.2 Y0.4
M03  S135
G1 X40.4 Y0.4
M03  S126
G1 X40.6 Y0.4
M03  S135
G1 X40.8 Y0.4
M03  S136
G1 X41.0 Y0.4
M03  S132
G1 X41.2 Y0.4
M03  S152
G1 X41.4 Y0.4
M03  S132
G1 X41.6 Y0.4
M03  S131
G1 X41.8 Y0.4
M03  S138
G1 X42.0 Y0.4
M03  S151
G1 X42.2 Y0.4
M03  S139
G1 X42.4 Y0.4
M03  S87
G1 X42.6 Y0.4
M03  S126
G1 X42.8 Y0.4
M03  S151
G1 X43.0 Y0.4
M03  S150
G1 X43.2 Y0.4
M03  S151
G1 X43.4 Y0.4
M03  S148
G1 X43.6 Y0.4
M03  S153
G1 X44.0 Y0.4
M03  S152
G1 X44.2 Y0.4
M03  S146
G1 X44.4 Y0.4
M03  S150
G1 X44.6 Y0.4
M03  S133
G1 X44.8 Y0.4
M03  S136
G1 X45.0 Y0.4
M03  S144
G1 X45.2 Y0.4
M03  S122
G1 X45.4 Y0.4
M03  S131
G1 X45.6 Y0.4
M03  S143
G1 X45.8 Y0.4
M03  S129
G1 X46.0 Y0.4
M03  S142
G1 X46.2 Y0.4
M03  S154
G1 X46.4 Y0.4
M03  S132
G1 X46.6 Y0.4
M03  S153
G1 X46.8 Y0.4
M03  S171
G1 X47.0 Y0.4
M03  S140
G1 X47.2 Y0.4
M03  S156
G1 X47.4 Y0.4
M03  S157
G1 X47.8 Y0.4
M03  S150
G1 X48.0 Y0.4
M03  S147
G1 X48.2 Y0.4
M03  S143
G1 X48.4 Y0.4
M03  S140
G1 X48.6 Y0.4
M03  S139
G1 X48.8 Y0.4
M03  S136
G1 X49.0 Y0.4
M03  S131
G1 X49.2 Y0.4
M03  S127
G1 X49.4 Y0.4
M03  S121
G1 X49.6 Y0.4
M03  S109
G1 X49.8 Y0.4
M03  S85
G1 X50.0 Y0.4
M03  S91
G1 X50.2 Y0.4
M03  S98
G1 X50.4 Y0.4
M03  S99
G1 X50.6 Y0.4
M03  S100
G1 X50.8 Y0.4
M03  S97
G1 X51.0 Y0.4
M03  S95
G1 X51.2 Y0.4
M03  S90
G1 X51.4 Y0.4
M03  S80
G1 X51.6 Y0.4
M03  S64
G1 X51.8 Y0.4
M03  S60
G1 X52.0 Y0.4
M03  S66
G1 X52.2 Y0.4
M03  S65
G1 X52.4 Y0.4
M03  S68
G1 X52.6 Y0.4
M03  S81
G1 X52.8 Y0.4
M03  S104
G1 X53.0 Y0.4
M03  S113
G1 X53.2 Y0.4
M03  S105
G1 X53.4 Y0.4
M03  S91
G1 X53.6 Y0.4
M03  S88
G1 X53.8 Y0.4
M03  S76
G1 X54.0 Y0.4
M03  S59
G1 X54.2 Y0.4
M03  S55
G1 X54.4 Y0.4
M03  S57
G1 X54.6 Y0.4
M03  S56
G1 X54.8 Y0.4
M03  S57
G1 X55.0 Y0.4
M03  S60
G1 X55.4 Y0.4
M03  S57
G1 X55.6 Y0.4
M03  S56
G1 X55.8 Y0.4
M03  S59
G1 X56.0 Y0.4
M03  S58
G1 X56.4 Y0.4
M03  S61
G1 X56.6 Y0.4
M03  S54
G1 X56.8 Y0.4
M03  S45
G1 X57.2 Y0.4
M03  S51
G1 X57.4 Y0.4
M03  S53
G1 X57.8 Y0.4
M03  S51
G1 X58.0 Y0.4
M03  S48
G1 X58.2 Y0.4
M03  S49
G1 X58.4 Y0.4
M03  S54
G1 X58.6 Y0.4
M03  S60
G1 X58.8 Y0.4
M03  S57
G1 X59.0 Y0.4
M03  S60
G1 X59.2 Y0.4
M03  S66
G1 X59.4 Y0.4
M03  S57
G1 X59.6 Y0.4
M03  S53
G1 X60.2 Y0.4
M03  S54
G1 X60.4 Y0.4
M03  S56
G1 X60.6 Y0.4
M05
G0 X60.6 Y0.6
M03  S48
G1 X60.4 Y0.6
M03  S47
G1 X60.2 Y0.6
M03  S48
G1 X60.0 Y0.6
M03  S47
G1 X59.8 Y0.6
M03  S51
G1 X59.6 Y0.6
M03  S57
G1 X59.4 Y0.6
M03  S61
G1 X59.0 Y0.6
M03  S63
G1 X58.8 Y0.6
M03  S65
G1 X58.6 Y0.6
M03  S59
G1 X58.4 Y0.6
M03  S53
G1 X58.2 Y0.6
M03  S54
G1 X58.0 Y0.6
M03  S60
G1 X57.6 Y0.6
M03  S57
G1 X57.4 Y0.6
M03  S55
G1 X57.2 Y0.6
M03  S54
G1 X57.0 Y0.6
M03  S53
G1 X56.8 Y0.6
M03  S57
G1 X56.4 Y0.6
M03  S52
G1 X56.0 Y0.6
M03  S60
G1 X55.8 Y0.6
M03  S61
G1 X55.6 Y0.6
M03  S58
G1 X55.4 Y0.6
M03  S60
G1 X55.2 Y0.6
M03  S63
G1 X55.0 Y0.6
M03  S61
G1 X54.6 Y0.6
M03  S62
G1 X54.4 Y0.6
M03  S60
G1 X54.2 Y0.6
M03  S55
G1 X54.0 Y0.6
M03  S57
G1 X53.8 Y0.6
M03  S70
G1 X53.6 Y0.6
M03  S85
G1 X53.4 Y0.6
M03  S98
G1 X53.2 Y0.6
M03  S112
G1 X53.0 Y0.6
M03  S107
G1 X52.8 Y0.6
M03  S108
G1 X52.6 Y0.6
M03  S106
G1 X52.4 Y0.6
M03  S102
G1 X52.2 Y0.6
M03  S98
G1 X52.0 Y0.6
M03  S90
G1 X51.8 Y0.6
M03  S72
G1 X51.6 Y0.6
M03  S59
G1 X51.4 Y0.6
M03  S76
G1 X51.2 Y0.6
M03  S92
G1 X51.0 Y0.6
M03  S101
G1 X50.8 Y0.6
M03  S98
G1 X50.6 Y0.6
M03  S101
G1 X50.4 Y0.6
M03  S102
G1 X50.2 Y0.6
M03  S99
G1 X50.0 Y0.6
M03  S60
G1 X49.8 Y0.6
M03  S69
G1 X49.6 Y0.6
M03  S98
G1 X49.4 Y0.6
M03  S116
G1 X49.2 Y0.6
M03  S126
G1 X49.0 Y0.6
M03  S134
G1 X48.8 Y0.6
M03  S139
G1 X48.6 Y0.6
M03  S142
G1 X48.4 Y0.6
M03  S143
G1 X48.2 Y0.6
M03  S145
G1 X48.0 Y0.6
M03  S151
G1 X47.8 Y0.6
M03  S157
G1 X47.6 Y0.6
M03  S156
G1 X47.4 Y0.6
M03  S158
G1 X47.2 Y0.6
M03  S157
G1 X47.0 Y0.6
M03  S173
G1 X46.8 Y0.6
M03  S141
G1 X46.6 Y0.6
M03  S128
G1 X46.4 Y0.6
M03  S156
G1 X46.2 Y0.6
M03  S141
G1 X46.0 Y0.6
M03  S127
G1 X45.8 Y0.6
M03  S152
G1 X45.6 Y0.6
M03  S130
G1 X45.4 Y0.6
M03  S125
G1 X45.2 Y0.6
M03  S136
G1 X45.0 Y0.6
M03  S128
G1 X44.8 Y0.6
M03  S145
G1 X44.4 Y0.6
M03  S147
G1 X44.2 Y0.6
M03  S144
G1 X44.0 Y0.6
M03  S153
G1 X43.8 Y0.6
M03  S151
G1 X43.6 Y0.6
M03  S139
G1 X43.4 Y0.6
M03  S150
G1 X43.2 Y0.6
M03  S156
G1 X43.0 Y0.6
M03  S138
G1 X42.8 Y0.6
M03  S133
G1 X42.6 Y0.6
M03  S98
G1 X42.4 Y0.6
M03  S146
G1 X42.2 Y0.6
M03  S144
G1 X42.0 Y0.6
M03  S136
G1 X41.6 Y0.6
M03  S145
G1 X41.4 Y0.6
M03  S151
G1 X41.2 Y0.6
M03  S133
G1 X41.0 Y0.6
M03  S141
G1 X40.8 Y0.6
M03  S138
G1 X40.6 Y0.6
M03  S128
G1 X40.4 Y0.6
M03  S120
G1 X40.2 Y0.6
M03  S102
G1 X40.0 Y0.6
M03  S76
G1 X39.8 Y0.6
M03  S60
G1 X39.6 Y0.6
M03  S115
G1 X39.4 Y0.6
M03  S74
G1 X39.2 Y0.6
M03  S70
G1 X39.0 Y0.6
M03  S86
G1 X38.8 Y0.6
M03  S107
G1 X38.6 Y0.6
M03  S117
G1 X38.4 Y0.6
M03  S127
G1 X38.2 Y0.6
M03  S138
G1 X38.0 Y0.6
M03  S142
G1 X37.8 Y0.6
M03  S145
G1 X37.6 Y0.6
M03  S142
G1 X37.4 Y0.6
M03  S146
G1 X37.2 Y0.6
M03  S154
G1 X37.0 Y0.6
M03  S156
G1 X36.8 Y0.6
M03  S151
G1 X36.6 Y0.6
M03  S157
G1 X36.4 Y0.6
M03  S165
G1 X36.2 Y0.6
M03  S164
G1 X36.0 Y0.6
M03  S161
G1 X35.8 Y0.6
M03  S159
G1 X35.6 Y0.6
M03  S158
G1 X35.4 Y0.6
M03  S157
G1 X35.2 Y0.6
M03  S155
G1 X35.0 Y0.6
M03  S151
G1 X34.8 Y0.6
M03  S147
G1 X34.6 Y0.6
M03  S143
G1 X34.4 Y0.6
M03  S137
G1 X34.2 Y0.6
M03  S132
G1 X34.0 Y0.6
M03  S127
G1 X33.8 Y0.6
M03  S124
G1 X33.6 Y0.6
M03  S121
G1 X33.4 Y0.6
M03  S117
G1 X33.2 Y0.6
M03  S113
G1 X33.0 Y0.6
M03  S107
G1 X32.8 Y0.6
M03  S103
G1 X32.6 Y0.6
M03  S100
G1 X32.4 Y0.6
M03  S99
G1 X32.2 Y0.6
M03  S98
G1 X32.0 Y0.6
M03  S95
G1 X31.8 Y0.6
M03  S92
G1 X31.6 Y0.6
M03  S86
G1 X31.4 Y0.6
M03  S84
G1 X31.2 Y0.6
M03  S83
G1 X31.0 Y0.6
M03  S79
G1 X30.8 Y0.6
M03  S77
G1 X30.6 Y0.6
M03  S75
G1 X30.4 Y0.6
M03  S73
G1 X30.2 Y0.6
M03  S72
G1 X29.8 Y0.6
M03  S70
G1 X29.6 Y0.6
M03  S67
G1 X29.2 Y0.6
M03  S68
G1 X29.0 Y0.6
M03  S66
G1 X28.6 Y0.6
M03  S67
G1 X28.4 Y0.6
M03  S65
G1 X28.2 Y0.6
M03  S63
G1 X28.0 Y0.6
M03  S61
G1 X27.8 Y0.6
M03  S63
G1 X27.6 Y0.6
M03  S58
G1 X27.4 Y0.6
M03  S64
G1 X27.2 Y0.6
M03  S69
G1 X27.0 Y0.6
M03  S73
G1 X26.8 Y0.6
M03  S77
G1 X26.6 Y0.6
M03  S76
G1 X26.4 Y0.6
M03  S77
G1 X25.4 Y0.6
M03  S78
G1 X25.2 Y0.6
M03  S79
G1 X25.0 Y0.6
M03  S80
G1 X24.8 Y0.6
M03  S81
G1 X24.6 Y0.6
M03  S82
G1 X24.0 Y0.6
M03  S87
G1 X23.8 Y0.6
M03  S86
G1 X23.6 Y0.6
M03  S84
G1 X23.4 Y0.6
M03  S89
G1 X23.2 Y0.6
M03  S93
G1 X23.0 Y0.6
M03  S97
G1 X22.8 Y0.6
M03  S98
G1 X22.6 Y0.6
M03  S103
G1 X22.4 Y0.6
M03  S116
G1 X22.2 Y0.6
M03  S134
G1 X22.0 Y0.6
M03  S133
G1 X21.8 Y0.6
M03  S109
G1 X21.6 Y0.6
M03  S104
G1 X21.2 Y0.6
M03  S101
G1 X21.0 Y0.6
M03  S100
G1 X20.8 Y0.6
M03  S99
G1 X20.6 Y0.6
M03  S86
G1 X20.4 Y0.6
M03  S81
G1 X20.2 Y0.6
M03  S84
G1 X19.8 Y0.6
M03  S88
G1 X19.4 Y0.6
M03  S89
G1 X19.2 Y0.6
M03  S81
G1 X19.0 Y0.6
M03  S69
G1 X18.8 Y0.6
M03  S57
G1 X18.6 Y0.6
M03  S63
G1 X18.4 Y0.6
M03  S65
G1 X18.2 Y0.6
M03  S69
G1 X18.0 Y0.6
M03  S70
G1 X17.8 Y0.6
M03  S67
G1 X17.6 Y0.6
M03  S70
G1 X17.4 Y0.6
M03  S69
G1 X17.2 Y0.6
M03  S61
G1 X17.0 Y0.6
M03  S63
G1 X16.8 Y0.6
M03  S68
G1 X16.6 Y0.6
M03  S80
G1 X16.4 Y0.6
M03  S89
G1 X16.2 Y0.6
M03  S80
G1 X15.8 Y0.6
M03  S89
G1 X15.6 Y0.6
M03  S93
G1 X15.4 Y0.6
M03  S89
G1 X15.2 Y0.6
M03  S87
G1 X15.0 Y0.6
M03  S84
G1 X14.8 Y0.6
M03  S85
G1 X14.6 Y0.6
M03  S95
G1 X14.4 Y0.6
M03  S103
G1 X14.2 Y0.6
M03  S102
G1 X14.0 Y0.6
M03  S85
G1 X13.8 Y0.6
M03  S79
G1 X13.6 Y0.6
M03  S88
G1 X13.4 Y0.6
M03  S100
G1 X13.2 Y0.6
M03  S94
G1 X13.0 Y0.6
M03  S102
G1 X12.8 Y0.6
M03  S95
G1 X12.6 Y0.6
M03  S77
G1 X12.4 Y0.6
M03  S96
G1 X12.2 Y0.6
M03  S95
G1 X12.0 Y0.6
M03  S89
G1 X11.8 Y0.6
M03  S92
G1 X11.6 Y0.6
M03  S87
G1 X11.4 Y0.6
M03  S90
G1 X11.2 Y0.6
M03  S85
G1 X11.0 Y0.6
M03  S84
G1 X10.8 Y0.6
M03  S65
G1 X10.6 Y0.6
M03  S57
G1 X10.4 Y0.6
M03  S55
G1 X10.2 Y0.6
M03  S49
G1 X10.0 Y0.6
M03  S64
G1 X9.8 Y0.6
M03  S88
G1 X9.6 Y0.6
M03  S89
G1 X9.4 Y0.6
M03  S80
G1 X9.2 Y0.6
M03  S84
G1 X9.0 Y0.6
M03  S77
G1 X8.8 Y0.6
M03  S74
G1 X8.6 Y0.6
M03  S79
G1 X8.4 Y0.6
M03  S78
G1 X8.2 Y0.6
M03  S83
G1 X8.0 Y0.6
M03  S75
G1 X7.8 Y0.6
M03  S64
G1 X7.6 Y0.6
M03  S65
G1 X7.4 Y0.6
M03  S79
G1 X7.2 Y0.6
M03  S63
G1 X7.0 Y0.6
M03  S55
G1 X6.8 Y0.6
M03  S65
G1 X6.6 Y0.6
M03  S76
G1 X6.4 Y0.6
M03  S92
G1 X6.2 Y0.6
M03  S93
G1 X6.0 Y0.6
M03  S92
G1 X5.6 Y0.6
M03  S77
G1 X5.4 Y0.6
M03  S86
G1 X5.2 Y0.6
M03  S93
G1 X5.0 Y0.6
M03  S91
G1 X4.8 Y0.6
M03  S100
G1 X4.6 Y0.6
M03  S108
G1 X4.4 Y0.6
M03  S97
G1 X4.2 Y0.6
M03  S77
G1 X4.0 Y0.6
M03  S89
G1 X3.8 Y0.6
M03  S115
G1 X3.6 Y0.6
M03  S122
G1 X3.4 Y0.6
M03  S142
G1 X3.2 Y0.6
M03  S168
G1 X3.0 Y0.6
M03  S157
G1 X2.8 Y0.6
M03  S144
G1 X2.6 Y0.6
M03  S154
G1 X2.4 Y0.6
M03  S113
G1 X2.2 Y0.6
M03  S116
G1 X2.0 Y0.6
M03  S106
G1 X1.8 Y0.6
M03  S109
G1 X1.6 Y0.6
M03  S116
G1 X1.4 Y0.6
M03  S121
G1 X1.2 Y0.6
M03  S150
G1 X1.0 Y0.6
M03  S153
G1 X0.8 Y0.6
M03  S147
G1 X0.6 Y0.6
M03  S135
G1 X0.4 Y0.6
M03  S125
G1 X0.2 Y0.6
M03  S135
G1 X0.0 Y0.6
M05
G0 X0.0 Y0.8
M03  S140
G1 X0.2 Y0.8
M03  S133
G1 X0.4 Y0.8
M03  S132
G1 X0.6 Y0.8
M03  S135
G1 X0.8 Y0.8
M03  S139
G1 X1.0 Y0.8
M03  S153
G1 X1.2 Y0.8
M03  S144
G1 X1.4 Y0.8
M03  S118
G1 X1.6 Y0.8
M03  S109
G1 X1.8 Y0.8
M03  S108
G1 X2.0 Y0.8
M03  S128
G1 X2.2 Y0.8
M03  S133
G1 X2.4 Y0.8
M03  S147
G1 X2.6 Y0.8
M03  S118
G1 X2.8 Y0.8
M03  S128
G1 X3.0 Y0.8
M03  S157
G1 X3.4 Y0.8
M03  S135
G1 X3.6 Y0.8
M03  S136
G1 X3.8 Y0.8
M03  S121
G1 X4.0 Y0.8
M03  S105
G1 X4.2 Y0.8
M03  S96
G1 X4.4 Y0.8
M03  S88
G1 X4.6 Y0.8
M03  S82
G1 X4.8 Y0.8
M03  S80
G1 X5.0 Y0.8
M03  S82
G1 X5.2 Y0.8
M03  S87
G1 X5.4 Y0.8
M03  S85
G1 X5.6 Y0.8
M03  S93
G1 X5.8 Y0.8
M03  S85
G1 X6.0 Y0.8
M03  S80
G1 X6.2 Y0.8
M03  S81
G1 X6.4 Y0.8
M03  S65
G1 X6.6 Y0.8
M03  S57
G1 X6.8 Y0.8
M03  S68
G1 X7.0 Y0.8
M03  S83
G1 X7.2 Y0.8
M03  S80
G1 X7.4 Y0.8
M03  S69
G1 X7.6 Y0.8
M03  S76
G1 X7.8 Y0.8
M03  S70
G1 X8.0 Y0.8
M03  S58
G1 X8.2 Y0.8
M03  S65
G1 X8.4 Y0.8
M03  S80
G1 X8.6 Y0.8
M03  S76
G1 X8.8 Y0.8
M03  S79
G1 X9.0 Y0.8
M03  S82
G1 X9.2 Y0.8
M03  S76
G1 X9.4 Y0.8
M03  S78
G1 X9.6 Y0.8
M03  S85
G1 X9.8 Y0.8
M03  S77
G1 X10.0 Y0.8
M03  S63
G1 X10.2 Y0.8
M03  S61
G1 X10.4 Y0.8
M03  S59
G1 X10.6 Y0.8
M03  S66
G1 X10.8 Y0.8
M03  S75
G1 X11.0 Y0.8
M03  S82
G1 X11.2 Y0.8
M03  S90
G1 X11.4 Y0.8
M03  S85
G1 X11.6 Y0.8
M03  S83
G1 X11.8 Y0.8
M03  S71
G1 X12.0 Y0.8
M03  S83
G1 X12.2 Y0.8
M03  S81
G1 X12.4 Y0.8
M03  S86
G1 X12.6 Y0.8
M03  S108
G1 X12.8 Y0.8
M03  S96
G1 X13.0 Y0.8
M03  S95
G1 X13.2 Y0.8
M03  S92
G1 X13.4 Y0.8
M03  S85
G1 X13.6 Y0.8
M03  S87
G1 X13.8 Y0.8
M03  S88
G1 X14.0 Y0.8
M03  S97
G1 X14.2 Y0.8
M03  S101
G1 X14.4 Y0.8
M03  S92
G1 X14.6 Y0.8
M03  S80
G1 X14.8 Y0.8
M03  S77
G1 X15.0 Y0.8
M03  S75
G1 X15.2 Y0.8
M03  S76
G1 X15.4 Y0.8
M03  S85
G1 X15.6 Y0.8
M03  S88
G1 X15.8 Y0.8
M03  S85
G1 X16.0 Y0.8
M03  S83
G1 X16.4 Y0.8
M03  S94
G1 X16.6 Y0.8
M03  S88
G1 X16.8 Y0.8
M03  S73
G1 X17.0 Y0.8
M03  S71
G1 X17.2 Y0.8
M03  S75
G1 X17.4 Y0.8
M03  S72
G1 X17.6 Y0.8
M03  S75
G1 X17.8 Y0.8
M03  S80
G1 X18.0 Y0.8
M03  S77
G1 X18.2 Y0.8
M03  S75
G1 X18.4 Y0.8
M03  S69
G1 X18.6 Y0.8
M03  S63
G1 X18.8 Y0.8
M03  S61
G1 X19.0 Y0.8
M03  S68
G1 X19.2 Y0.8
M03  S87
G1 X19.4 Y0.8
M03  S96
G1 X19.6 Y0.8
M03  S92
G1 X19.8 Y0.8
M03  S80
G1 X20.0 Y0.8
M03  S79
G1 X20.2 Y0.8
M03  S91
G1 X20.4 Y0.8
M03  S82
G1 X20.6 Y0.8
M03  S85
G1 X20.8 Y0.8
M03  S89
G1 X21.0 Y0.8
M03  S91
G1 X21.2 Y0.8
M03  S96
G1 X21.4 Y0.8
M03  S99
G1 X21.6 Y0.8
M03  S100
G1 X21.8 Y0.8
M03  S114
G1 X22.0 Y0.8
M03  S138
G1 X22.2 Y0.8
M03  S131
G1 X22.4 Y0.8
M03  S113
G1 X22.6 Y0.8
M03  S98
G1 X22.8 Y0.8
M03  S95
G1 X23.0 Y0.8
M03  S94
G1 X23.2 Y0.8
M03  S91
G1 X23.4 Y0.8
M03  S88
G1 X23.6 Y0.8
M03  S82
G1 X23.8 Y0.8
M03  S86
G1 X24.0 Y0.8
M03  S87
G1 X24.2 Y0.8
M03  S83
G1 X24.6 Y0.8
M03  S82
G1 X24.8 Y0.8
M03  S80
G1 X25.0 Y0.8
M03  S78
G1 X25.6 Y0.8
M03  S77
G1 X26.2 Y0.8
M03  S78
G1 X26.4 Y0.8
M03  S76
G1 X26.6 Y0.8
M03  S77
G1 X26.8 Y0.8
M03  S74
G1 X27.0 Y0.8
M03  S75
G1 X27.2 Y0.8
M03  S71
G1 X27.4 Y0.8
M03  S63
G1 X27.6 Y0.8
M03  S62
G1 X28.0 Y0.8
M03  S63
G1 X28.2 Y0.8
M03  S65
G1 X28.4 Y0.8
M03  S68
G1 X28.6 Y0.8
M03  S67
G1 X29.6 Y0.8
M03  S71
G1 X30.4 Y0.8
M03  S72
G1 X30.6 Y0.8
M03  S75
G1 X30.8 Y0.8
M03  S77
G1 X31.0 Y0.8
M03  S79
G1 X31.2 Y0.8
M03  S84
G1 X31.4 Y0.8
M03  S89
G1 X31.6 Y0.8
M03  S91
G1 X31.8 Y0.8
M03  S92
G1 X32.0 Y0.8
M03  S96
G1 X32.4 Y0.8
M03  S95
G1 X32.6 Y0.8
M03  S98
G1 X32.8 Y0.8
M03  S103
G1 X33.0 Y0.8
M03  S111
G1 X33.2 Y0.8
M03  S114
G1 X33.4 Y0.8
M03  S118
G1 X33.6 Y0.8
M03  S119
G1 X33.8 Y0.8
M03  S122
G1 X34.0 Y0.8
M03  S128
G1 X34.2 Y0.8
M03  S133
G1 X34.4 Y0.8
M03  S138
G1 X34.6 Y0.8
M03  S143
G1 X34.8 Y0.8
M03  S148
G1 X35.0 Y0.8
M03  S153
G1 X35.2 Y0.8
M03  S156
G1 X35.6 Y0.8
M03  S157
G1 X35.8 Y0.8
M03  S159
G1 X36.0 Y0.8
M03  S161
G1 X36.2 Y0.8
M03  S163
G1 X36.6 Y0.8
M03  S158
G1 X36.8 Y0.8
M03  S153
G1 X37.2 Y0.8
M03  S155
G1 X37.4 Y0.8
M03  S150
G1 X37.6 Y0.8
M03  S144
G1 X37.8 Y0.8
M03  S140
G1 X38.0 Y0.8
M03  S141
G1 X38.2 Y0.8
M03  S135
G1 X38.4 Y0.8
M03  S123
G1 X38.6 Y0.8
M03  S120
G1 X38.8 Y0.8
M03  S116
G1 X39.0 Y0.8
M03  S84
G1 X39.2 Y0.8
M03  S53
G1 X39.4 Y0.8
M03  S142
G1 X39.6 Y0.8
M03  S79
G1 X39.8 Y0.8
M03  S86
G1 X40.0 Y0.8
M03  S115
G1 X40.2 Y0.8
M03  S127
G1 X40.4 Y0.8
M03  S131
G1 X40.6 Y0.8
M03  S134
G1 X40.8 Y0.8
M03  S137
G1 X41.0 Y0.8
M03  S132
G1 X41.2 Y0.8
M03  S145
G1 X41.4 Y0.8
M03  S151
G1 X41.6 Y0.8
M03  S134
G1 X41.8 Y0.8
M03  S135
G1 X42.0 Y0.8
M03  S148
G1 X42.2 Y0.8
M03  S144
G1 X42.4 Y0.8
M03  S117
G1 X42.6 Y0.8
M03  S124
G1 X42.8 Y0.8
M03  S143
G1 X43.0 Y0.8
M03  S152
G1 X43.2 Y0.8
M03  S144
G1 X43.4 Y0.8
M03  S137
G1 X43.6 Y0.8
M03  S143
G1 X43.8 Y0.8
M03  S156
G1 X44.0 Y0.8
M03  S145
G1 X44.2 Y0.8
M03  S139
G1 X44.4 Y0.8
M03  S136
G1 X44.6 Y0.8
M03  S149
G1 X44.8 Y0.8
M03  S130
G1 X45.2 Y0.8
M03  S125
G1 X45.4 Y0.8
M03  S130
G1 X45.6 Y0.8
M03  S156
G1 X45.8 Y0.8
M03  S131
G1 X46.0 Y0.8
M03  S139
G1 X46.2 Y0.8
M03  S156
G1 X46.4 Y0.8
M03  S133
G1 X46.6 Y0.8
M03  S135
G1 X46.8 Y0.8
M03  S172
G1 X47.0 Y0.8
M03  S171
G1 X47.2 Y0.8
M03  S163
G1 X47.4 Y0.8
M03  S151
G1 X47.6 Y0.8
M03  S148
G1 X47.8 Y0.8
M03  S144
G1 X48.0 Y0.8
M03  S146
G1 X48.4 Y0.8
M03  S131
G1 X48.6 Y0.8
M03  S130
G1 X48.8 Y0.8
M03  S98
G1 X49.0 Y0.8
M03  S94
G1 X49.2 Y0.8
M03  S97
G1 X49.4 Y0.8
M03  S77
G1 X49.6 Y0.8
M03  S62
G1 X49.8 Y0.8
M03  S82
G1 X50.0 Y0.8
M03  S102
G1 X50.2 Y0.8
M03  S104
G1 X50.4 Y0.8
M03  S97
G1 X50.6 Y0.8
M03  S98
G1 X50.8 Y0.8
M03  S97
G1 X51.0 Y0.8
M03  S75
G1 X51.2 Y0.8
M03  S55
G1 X51.4 Y0.8
M03  S91
G1 X51.6 Y0.8
M03  S98
G1 X51.8 Y0.8
M03  S102
G1 X52.0 Y0.8
M03  S93
G1 X52.2 Y0.8
M03  S89
G1 X52.4 Y0.8
M03  S107
G1 X52.8 Y0.8
M03  S104
G1 X53.0 Y0.8
M03  S91
G1 X53.2 Y0.8
M03  S69
G1 X53.4 Y0.8
M03  S61
G1 X53.6 Y0.8
M03  S55
G1 X54.0 Y0.8
M03  S61
G1 X54.2 Y0.8
M03  S65
G1 X54.4 Y0.8
M03  S63
G1 X54.6 Y0.8
M03  S61
G1 X54.8 Y0.8
M03  S59
G1 X55.0 Y0.8
M03  S61
G1 X55.2 Y0.8
M03  S64
G1 X55.4 Y0.8
M03  S61
G1 X55.6 Y0.8
M03  S57
G1 X55.8 Y0.8
M03  S54
G1 X56.0 Y0.8
M03  S50
G1 X56.2 Y0.8
M03  S56
G1 X56.4 Y0.8
M03  S61
G1 X56.6 Y0.8
M03  S58
G1 X56.8 Y0.8
M03  S59
G1 X57.2 Y0.8
M03  S57
G1 X57.6 Y0.8
M03  S61
G1 X57.8 Y0.8
M03  S58
G1 X58.0 Y0.8
M03  S54
G1 X58.2 Y0.8
M03  S60
G1 X58.4 Y0.8
M03  S69
G1 X58.6 Y0.8
M03  S62
G1 X58.8 Y0.8
M03  S58
G1 X59.0 Y0.8
M03  S57
G1 X59.2 Y0.8
M03  S54
G1 X59.4 Y0.8
M03  S51
G1 X59.6 Y0.8
M03  S48
G1 X59.8 Y0.8
M03  S46
G1 X60.2 Y0.8
M03  S45
G1 X60.4 Y0.8
M03  S47
G1 X60.6 Y0.8
M05
G0 X60.6 Y1.0
M03  S50
G1 X60.4 Y1.0
M03  S44
G1 X60.2 Y1.0
M03  S42
G1 X60.0 Y1.0
M03  S43
G1 X59.8 Y1.0
M03  S46
G1 X59.6 Y1.0
M03  S49
G1 X59.4 Y1.0
M03  S52
G1 X59.2 Y1.0
M03  S54
G1 X59.0 Y1.0
M03  S55
G1 X58.8 Y1.0
M03  S58
G1 X58.6 Y1.0
M03  S66
G1 X58.4 Y1.0
M03  S61
G1 X58.2 Y1.0
M03  S52
G1 X57.8 Y1.0
M03  S56
G1 X57.4 Y1.0
M03  S58
G1 X57.2 Y1.0
M03  S59
G1 X56.8 Y1.0
M03  S58
G1 X56.6 Y1.0
M03  S63
G1 X56.4 Y1.0
M03  S58
G1 X56.2 Y1.0
M03  S54
G1 X56.0 Y1.0
M03  S57
G1 X55.8 Y1.0
M03  S60
G1 X55.6 Y1.0
M03  S64
G1 X55.4 Y1.0
M03  S66
G1 X55.2 Y1.0
M03  S62
G1 X55.0 Y1.0
M03  S61
G1 X54.8 Y1.0
M03  S62
G1 X54.6 Y1.0
M03  S65
G1 X54.4 Y1.0
M03  S69
G1 X54.0 Y1.0
M03  S64
G1 X53.8 Y1.0
M03  S58
G1 X53.6 Y1.0
M03  S55
G1 X53.4 Y1.0
M03  S59
G1 X53.2 Y1.0
M03  S73
G1 X53.0 Y1.0
M03  S81
G1 X52.8 Y1.0
M03  S87
G1 X52.6 Y1.0
M03  S84
G1 X52.4 Y1.0
M03  S57
G1 X52.2 Y1.0
M03  S68
G1 X52.0 Y1.0
M03  S96
G1 X51.8 Y1.0
M03  S84
G1 X51.6 Y1.0
M03  S73
G1 X51.4 Y1.0
M03  S76
G1 X51.2 Y1.0
M03  S93
G1 X51.0 Y1.0
M03  S85
G1 X50.8 Y1.0
M03  S88
G1 X50.6 Y1.0
M03  S101
G1 X50.2 Y1.0
M03  S107
G1 X50.0 Y1.0
M03  S112
G1 X49.6 Y1.0
M03  S116
G1 X49.2 Y1.0
M03  S95
G1 X49.0 Y1.0
M03  S72
G1 X48.8 Y1.0
M03  S91
G1 X48.6 Y1.0
M03  S109
G1 X48.4 Y1.0
M03  S139
G1 X48.2 Y1.0
M03  S134
G1 X48.0 Y1.0
M03  S126
G1 X47.8 Y1.0
M03  S142
G1 X47.6 Y1.0
M03  S147
G1 X47.4 Y1.0
M03  S151
G1 X47.2 Y1.0
M03  S156
G1 X47.0 Y1.0
M03  S168
G1 X46.8 Y1.0
M03  S133
G1 X46.6 Y1.0
M03  S142
G1 X46.4 Y1.0
M03  S156
G1 X46.2 Y1.0
M03  S137
G1 X46.0 Y1.0
M03  S138
G1 X45.8 Y1.0
M03  S157
G1 X45.6 Y1.0
M03  S134
G1 X45.4 Y1.0
M03  S127
G1 X45.2 Y1.0
M03  S133
G1 X45.0 Y1.0
M03  S131
G1 X44.8 Y1.0
M03  S151
G1 X44.6 Y1.0
M03  S133
G1 X44.4 Y1.0
M03  S132
G1 X44.2 Y1.0
M03  S147
G1 X44.0 Y1.0
M03  S150
G1 X43.8 Y1.0
M03  S136
G1 X43.6 Y1.0
M03  S141
G1 X43.4 Y1.0
M03  S140
G1 X43.2 Y1.0
M03  S150
G1 X43.0 Y1.0
M03  S132
G1 X42.8 Y1.0
M03  S123
G1 X42.6 Y1.0
M03  S144
G1 X42.4 Y1.0
M03  S143
G1 X42.2 Y1.0
M03  S156
G1 X42.0 Y1.0
M03  S154
G1 X41.8 Y1.0
M03  S145
G1 X41.6 Y1.0
M03  S151
G1 X41.4 Y1.0
M03  S138
G1 X41.2 Y1.0
M03  S135
G1 X41.0 Y1.0
M03  S134
G1 X40.8 Y1.0
M03  S122
G1 X40.4 Y1.0
M03  S127
G1 X40.2 Y1.0
M03  S112
G1 X40.0 Y1.0
M03  S107
G1 X39.8 Y1.0
M03  S129
G1 X39.6 Y1.0
M03  S120
G1 X39.4 Y1.0
M03  S98
G1 X39.2 Y1.0
M03  S116
G1 X39.0 Y1.0
M03  S131
G1 X38.6 Y1.0
M03  S138
G1 X38.4 Y1.0
M03  S143
G1 X38.2 Y1.0
M03  S142
G1 X38.0 Y1.0
M03  S144
G1 X37.8 Y1.0
M03  S156
G1 X37.6 Y1.0
M03  S157
G1 X37.4 Y1.0
M03  S151
G1 X37.2 Y1.0
M03  S148
G1 X37.0 Y1.0
M03  S157
G1 X36.8 Y1.0
M03  S164
G1 X36.6 Y1.0
M03  S161
G1 X36.4 Y1.0
M03  S158
G1 X36.2 Y1.0
M03  S157
G1 X36.0 Y1.0
M03  S156
G1 X35.6 Y1.0
M03  S155
G1 X35.4 Y1.0
M03  S152
G1 X35.2 Y1.0
M03  S148
G1 X35.0 Y1.0
M03  S144
G1 X34.8 Y1.0
M03  S139
G1 X34.6 Y1.0
M03  S134
G1 X34.4 Y1.0
M03  S130
G1 X34.2 Y1.0
M03  S127
G1 X34.0 Y1.0
M03  S121
G1 X33.8 Y1.0
M03  S117
G1 X33.6 Y1.0
M03  S115
G1 X33.4 Y1.0
M03  S111
G1 X33.2 Y1.0
M03  S108
G1 X33.0 Y1.0
M03  S102
G1 X32.8 Y1.0
M03  S98
G1 X32.6 Y1.0
M03  S95
G1 X32.4 Y1.0
M03  S92
G1 X32.2 Y1.0
M03  S90
G1 X32.0 Y1.0
M03  S87
G1 X31.8 Y1.0
M03  S86
G1 X31.4 Y1.0
M03  S81
G1 X31.2 Y1.0
M03  S76
G1 X31.0 Y1.0
M03  S75
G1 X30.8 Y1.0
M03  S73
G1 X30.6 Y1.0
M03  S71
G1 X30.4 Y1.0
M03  S70
G1 X29.6 Y1.0
M03  S69
G1 X29.4 Y1.0
M03  S67
G1 X29.2 Y1.0
M03  S66
G1 X28.6 Y1.0
M03  S68
G1 X28.4 Y1.0
M03  S64
G1 X28.2 Y1.0
M03  S62
G1 X28.0 Y1.0
M03  S63
G1 X27.6 Y1.0
M03  S69
G1 X27.4 Y1.0
M03  S74
G1 X27.0 Y1.0
M03  S73
G1 X26.8 Y1.0
M03  S76
G1 X26.6 Y1.0
M03  S75
G1 X26.4 Y1.0
M03  S77
G1 X25.6 Y1.0
M03  S78
G1 X25.0 Y1.0
M03  S81
G1 X24.8 Y1.0
M03  S83
G1 X24.6 Y1.0
M03  S84
G1 X24.4 Y1.0
M03  S85
G1 X24.2 Y1.0
M03  S87
G1 X24.0 Y1.0
M03  S82
G1 X23.8 Y1.0
M03  S81
G1 X23.6 Y1.0
M03  S89
G1 X23.4 Y1.0
M03  S92
G1 X23.2 Y1.0
M03  S96
G1 X23.0 Y1.0
M03  S97
G1 X22.8 Y1.0
M03  S108
G1 X22.6 Y1.0
M03  S129
G1 X22.4 Y1.0
M03  S146
G1 X22.2 Y1.0
M03  S137
G1 X22.0 Y1.0
M03  S104
G1 X21.8 Y1.0
M03  S98
G1 X21.6 Y1.0
M03  S89
G1 X21.4 Y1.0
M03  S87
G1 X21.2 Y1.0
M03  S94
G1 X21.0 Y1.0
M03  S98
G1 X20.8 Y1.0
M03  S92
G1 X20.6 Y1.0
M03  S88
G1 X20.4 Y1.0
M03  S90
G1 X20.2 Y1.0
M03  S88
G1 X20.0 Y1.0
M03  S78
G1 X19.8 Y1.0
M03  S86
G1 X19.6 Y1.0
M03  S92
G1 X19.4 Y1.0
M03  S78
G1 X19.2 Y1.0
M03  S64
G1 X19.0 Y1.0
M03  S71
G1 X18.8 Y1.0
M03  S77
G1 X18.6 Y1.0
M03  S74
G1 X18.4 Y1.0
M03  S81
G1 X18.2 Y1.0
M03  S90
G1 X18.0 Y1.0
M03  S85
G1 X17.8 Y1.0
M03  S77
G1 X17.6 Y1.0
M03  S74
G1 X17.2 Y1.0
M03  S75
G1 X17.0 Y1.0
M03  S90
G1 X16.8 Y1.0
M03  S97
G1 X16.6 Y1.0
M03  S82
G1 X16.2 Y1.0
M03  S94
G1 X16.0 Y1.0
M03  S92
G1 X15.8 Y1.0
M03  S88
G1 X15.6 Y1.0
M03  S71
G1 X15.4 Y1.0
M03  S60
G1 X15.2 Y1.0
M03  S73
G1 X15.0 Y1.0
M03  S81
G1 X14.8 Y1.0
M03  S75
G1 X14.6 Y1.0
M03  S81
G1 X14.4 Y1.0
M03  S94
G1 X14.2 Y1.0
M03  S96
G1 X14.0 Y1.0
M03  S80
G1 X13.8 Y1.0
M03  S74
G1 X13.6 Y1.0
M03  S79
G1 X13.4 Y1.0
M03  S92
G1 X13.2 Y1.0
M03  S105
G1 X13.0 Y1.0
M03  S101
G1 X12.8 Y1.0
M03  S100
G1 X12.6 Y1.0
M03  S93
G1 X12.4 Y1.0
M03  S87
G1 X12.2 Y1.0
M03  S94
G1 X12.0 Y1.0
M03  S79
G1 X11.8 Y1.0
M03  S81
G1 X11.6 Y1.0
M03  S80
G1 X11.4 Y1.0
M03  S82
G1 X11.2 Y1.0
M03  S79
G1 X10.8 Y1.0
M03  S77
G1 X10.6 Y1.0
M03  S68
G1 X10.4 Y1.0
M03  S59
G1 X10.2 Y1.0
M03  S68
G1 X10.0 Y1.0
M03  S85
G1 X9.8 Y1.0
M03  S88
G1 X9.6 Y1.0
M03  S84
G1 X9.4 Y1.0
M03  S71
G1 X9.2 Y1.0
M03  S54
G1 X9.0 Y1.0
M03  S50
G1 X8.8 Y1.0
M03  S61
G1 X8.6 Y1.0
M03  S76
G1 X8.4 Y1.0
M03  S67
G1 X8.2 Y1.0
M03  S36
G1 X8.0 Y1.0
M03  S35
G1 X7.8 Y1.0
M03  S46
G1 X7.6 Y1.0
M03  S52
G1 X7.4 Y1.0
M03  S62
G1 X7.2 Y1.0
M03  S78
G1 X7.0 Y1.0
M03  S82
G1 X6.8 Y1.0
M03  S69
G1 X6.6 Y1.0
M03  S62
G1 X6.4 Y1.0
M03  S72
G1 X6.2 Y1.0
M03  S82
G1 X6.0 Y1.0
M03  S88
G1 X5.8 Y1.0
M03  S98
G1 X5.4 Y1.0
M03  S84
G1 X5.2 Y1.0
M03  S83
G1 X5.0 Y1.0
M03  S92
G1 X4.8 Y1.0
M03  S103
G1 X4.6 Y1.0
M03  S114
G1 X4.4 Y1.0
M03  S121
G1 X4.2 Y1.0
M03  S128
G1 X4.0 Y1.0
M03  S134
G1 X3.8 Y1.0
M03  S143
G1 X3.6 Y1.0
M03  S148
G1 X3.4 Y1.0
M03  S163
G1 X3.2 Y1.0
M03  S145
G1 X3.0 Y1.0
M03  S116
G1 X2.8 Y1.0
M03  S122
G1 X2.6 Y1.0
M03  S154
G1 X2.4 Y1.0
M03  S147
G1 X2.2 Y1.0
M03  S125
G1 X2.0 Y1.0
M03  S102
G1 X1.8 Y1.0
M03  S114
G1 X1.6 Y1.0
M03  S142
G1 X1.4 Y1.0
M03  S152
G1 X1.2 Y1.0
M03  S141
G1 X1.0 Y1.0
M03  S137
G1 X0.6 Y1.0
M03  S135
G1 X0.2 Y1.0
M03  S127
G1 X0.0 Y1.0
M05
G0 X0.0 Y1.2
M03  S130
G1 X0.2 Y1.2
M03  S121
G1 X0.4 Y1.2
M03  S125
G1 X0.6 Y1.2
M03  S134
G1 X0.8 Y1.2
M03  S136
G1 X1.0 Y1.2
M03  S133
G1 X1.2 Y1.2
M03  S145
G1 X1.4 Y1.2
M03  S153
G1 X1.6 Y1.2
M03  S135
G1 X1.8 Y1.2
M03  S115
G1 X2.0 Y1.2
M03  S132
G1 X2.2 Y1.2
M03  S145
G1 X2.4 Y1.2
M03  S154
G1 X2.6 Y1.2
M03  S119
G1 X2.8 Y1.2
M03  S108
G1 X3.0 Y1.2
M03  S132
G1 X3.2 Y1.2
M03  S159
G1 X3.4 Y1.2
M03  S158
G1 X3.6 Y1.2
M03  S150
G1 X3.8 Y1.2
M03  S154
G1 X4.0 Y1.2
M03  S137
G1 X4.2 Y1.2
M03  S143
G1 X4.6 Y1.2
M03  S130
G1 X4.8 Y1.2
M03  S122
G1 X5.0 Y1.2
M03  S116
G1 X5.2 Y1.2
M03  S107
G1 X5.4 Y1.2
M03  S98
G1 X5.6 Y1.2
M03  S95
G1 X5.8 Y1.2
M03  S92
G1 X6.2 Y1.2
M03  S87
G1 X6.4 Y1.2
M03  S82
G1 X6.8 Y1.2
M03  S67
G1 X7.0 Y1.2
M03  S71
G1 X7.2 Y1.2
M03  S80
G1 X7.6 Y1.2
M03  S69
G1 X7.8 Y1.2
M03  S57
G1 X8.0 Y1.2
M03  S59
G1 X8.2 Y1.2
M03  S77
G1 X8.4 Y1.2
M03  S81
G1 X8.6 Y1.2
M03  S85
G1 X8.8 Y1.2
M03  S81
G1 X9.0 Y1.2
M03  S75
G1 X9.2 Y1.2
M03  S84
G1 X9.4 Y1.2
M03  S80
G1 X9.6 Y1.2
M03  S82
G1 X9.8 Y1.2
M03  S84
G1 X10.0 Y1.2
M03  S77
G1 X10.2 Y1.2
M03  S70
G1 X10.6 Y1.2
M03  S73
G1 X10.8 Y1.2
M03  S79
G1 X11.2 Y1.2
M03  S80
G1 X11.4 Y1.2
M03  S79
G1 X11.6 Y1.2
M03  S76
G1 X11.8 Y1.2
M03  S79
G1 X12.0 Y1.2
M03  S96
G1 X12.2 Y1.2
M03  S93
G1 X12.4 Y1.2
M03  S90
G1 X12.6 Y1.2
M03  S93
G1 X12.8 Y1.2
M03  S107
G1 X13.0 Y1.2
M03  S105
G1 X13.2 Y1.2
M03  S91
G1 X13.4 Y1.2
M03  S77
G1 X13.6 Y1.2
M03  S58
G1 X13.8 Y1.2
M03  S64
G1 X14.0 Y1.2
M03  S96
G1 X14.2 Y1.2
M03  S100
G1 X14.4 Y1.2
M03  S89
G1 X14.6 Y1.2
M03  S84
G1 X14.8 Y1.2
M03  S92
G1 X15.0 Y1.2
M03  S79
G1 X15.2 Y1.2
M03  S56
G1 X15.4 Y1.2
M03  S60
G1 X15.6 Y1.2
M03  S90
G1 X15.8 Y1.2
M03  S98
G1 X16.0 Y1.2
M03  S95
G1 X16.2 Y1.2
M03  S91
G1 X16.4 Y1.2
M03  S72
G1 X16.6 Y1.2
M03  S80
G1 X16.8 Y1.2
M03  S100
G1 X17.0 Y1.2
M03  S82
G1 X17.2 Y1.2
M03  S71
G1 X17.4 Y1.2
M03  S67
G1 X17.6 Y1.2
M03  S65
G1 X17.8 Y1.2
M03  S69
G1 X18.0 Y1.2
M03  S88
G1 X18.2 Y1.2
M03  S91
G1 X18.4 Y1.2
M03  S77
G1 X18.6 Y1.2
M03  S74
G1 X18.8 Y1.2
M03  S71
G1 X19.0 Y1.2
M03  S68
G1 X19.2 Y1.2
M03  S81
G1 X19.4 Y1.2
M03  S92
G1 X19.8 Y1.2
M03  S80
G1 X20.0 Y1.2
M03  S81
G1 X20.2 Y1.2
M03  S93
G1 X20.6 Y1.2
M03  S116
G1 X20.8 Y1.2
M03  S128
G1 X21.0 Y1.2
M03  S112
G1 X21.2 Y1.2
M03  S92
G1 X21.6 Y1.2
M03  S105
G1 X21.8 Y1.2
M03  S99
G1 X22.0 Y1.2
M03  S110
G1 X22.2 Y1.2
M03  S144
G1 X22.4 Y1.2
M03  S143
G1 X22.6 Y1.2
M03  S122
G1 X22.8 Y1.2
M03  S106
G1 X23.0 Y1.2
M03  S98
G1 X23.2 Y1.2
M03  S94
G1 X23.4 Y1.2
M03  S89
G1 X23.8 Y1.2
M03  S85
G1 X24.0 Y1.2
M03  S86
G1 X24.4 Y1.2
M03  S84
G1 X24.8 Y1.2
M03  S82
G1 X25.0 Y1.2
M03  S79
G1 X25.4 Y1.2
M03  S78
G1 X25.6 Y1.2
M03  S77
G1 X26.4 Y1.2
M03  S75
G1 X26.6 Y1.2
M03  S76
G1 X26.8 Y1.2
M03  S73
G1 X27.2 Y1.2
M03  S76
G1 X27.4 Y1.2
M03  S75
G1 X27.6 Y1.2
M03  S67
G1 X27.8 Y1.2
M03  S62
G1 X28.0 Y1.2
M03  S61
G1 X28.2 Y1.2
M03  S62
G1 X28.4 Y1.2
M03  S64
G1 X28.6 Y1.2
M03  S63
G1 X29.0 Y1.2
M03  S65
G1 X29.2 Y1.2
M03  S67
G1 X29.4 Y1.2
M03  S68
G1 X29.6 Y1.2
M03  S69
G1 X30.2 Y1.2
M03  S70
G1 X30.4 Y1.2
M03  S71
G1 X30.6 Y1.2
M03  S74
G1 X30.8 Y1.2
M03  S76
G1 X31.0 Y1.2
M03  S77
G1 X31.2 Y1.2
M03  S78
G1 X31.4 Y1.2
M03  S79
G1 X31.6 Y1.2
M03  S82
G1 X31.8 Y1.2
M03  S83
G1 X32.0 Y1.2
M03  S86
G1 X32.2 Y1.2
M03  S91
G1 X32.4 Y1.2
M03  S94
G1 X32.6 Y1.2
M03  S96
G1 X32.8 Y1.2
M03  S101
G1 X33.0 Y1.2
M03  S105
G1 X33.2 Y1.2
M03  S108
G1 X33.4 Y1.2
M03  S111
G1 X33.6 Y1.2
M03  S114
G1 X33.8 Y1.2
M03  S118
G1 X34.0 Y1.2
M03  S123
G1 X34.2 Y1.2
M03  S127
G1 X34.4 Y1.2
M03  S131
G1 X34.6 Y1.2
M03  S135
G1 X34.8 Y1.2
M03  S139
G1 X35.0 Y1.2
M03  S145
G1 X35.2 Y1.2
M03  S149
G1 X35.4 Y1.2
M03  S152
G1 X35.6 Y1.2
M03  S154
G1 X35.8 Y1.2
M03  S155
G1 X36.0 Y1.2
M03  S156
G1 X36.6 Y1.2
M03  S159
G1 X36.8 Y1.2
M03  S161
G1 X37.0 Y1.2
M03  S158
G1 X37.2 Y1.2
M03  S149
G1 X37.4 Y1.2
M03  S148
G1 X37.6 Y1.2
M03  S154
G1 X37.8 Y1.2
M03  S150
G1 X38.0 Y1.2
M03  S147
G1 X38.2 Y1.2
M03  S145
G1 X38.4 Y1.2
M03  S148
G1 X38.6 Y1.2
M03  S141
G1 X38.8 Y1.2
M03  S143
G1 X39.0 Y1.2
M03  S133
G1 X39.2 Y1.2
M03  S113
G1 X39.4 Y1.2
M03  S111
G1 X39.6 Y1.2
M03  S139
G1 X39.8 Y1.2
M03  S115
G1 X40.0 Y1.2
M03  S102
G1 X40.2 Y1.2
M03  S114
G1 X40.4 Y1.2
M03  S101
G1 X40.6 Y1.2
M03  S106
G1 X40.8 Y1.2
M03  S128
G1 X41.0 Y1.2
M03  S137
G1 X41.2 Y1.2
M03  S134
G1 X41.4 Y1.2
M03  S142
G1 X41.6 Y1.2
M03  S155
G1 X41.8 Y1.2
M03  S158
G1 X42.0 Y1.2
M03  S157
G1 X42.2 Y1.2
M03  S153
G1 X42.4 Y1.2
M03  S144
G1 X42.6 Y1.2
M03  S105
G1 X42.8 Y1.2
M03  S130
G1 X43.0 Y1.2
M03  S143
G1 X43.2 Y1.2
M03  S138
G1 X43.6 Y1.2
M03  S134
G1 X43.8 Y1.2
M03  S135
G1 X44.2 Y1.2
M03  S129
G1 X44.4 Y1.2
M03  S130
G1 X44.6 Y1.2
M03  S137
G1 X44.8 Y1.2
M03  S135
G1 X45.0 Y1.2
M03  S147
G1 X45.2 Y1.2
M03  S133
G1 X45.4 Y1.2
M03  S138
G1 X45.6 Y1.2
M03  S156
G1 X45.8 Y1.2
M03  S147
G1 X46.0 Y1.2
M03  S137
G1 X46.2 Y1.2
M03  S156
G1 X46.4 Y1.2
M03  S150
G1 X46.6 Y1.2
M03  S136
G1 X46.8 Y1.2
M03  S162
G1 X47.0 Y1.2
M03  S144
G1 X47.4 Y1.2
M03  S130
G1 X47.6 Y1.2
M03  S135
G1 X47.8 Y1.2
M03  S113
G1 X48.0 Y1.2
M03  S118
G1 X48.2 Y1.2
M03  S128
G1 X48.4 Y1.2
M03  S105
G1 X48.6 Y1.2
M03  S85
G1 X48.8 Y1.2
M03  S72
G1 X49.0 Y1.2
M03  S100
G1 X49.2 Y1.2
M03  S121
G1 X49.4 Y1.2
M03  S109
G1 X49.6 Y1.2
M03  S95
G1 X49.8 Y1.2
M03  S100
G1 X50.0 Y1.2
M03  S109
G1 X50.2 Y1.2
M03  S77
G1 X50.4 Y1.2
M03  S61
G1 X50.6 Y1.2
M03  S58
G1 X50.8 Y1.2
M03  S75
G1 X51.0 Y1.2
M03  S73
G1 X51.2 Y1.2
M03  S61
G1 X51.4 Y1.2
M03  S52
G1 X51.6 Y1.2
M03  S59
G1 X51.8 Y1.2
M03  S76
G1 X52.4 Y1.2
M03  S80
G1 X52.6 Y1.2
M03  S84
G1 X52.8 Y1.2
M03  S89
G1 X53.0 Y1.2
M03  S92
G1 X53.2 Y1.2
M03  S74
G1 X53.4 Y1.2
M03  S63
G1 X53.6 Y1.2
M03  S67
G1 X53.8 Y1.2
M03  S70
G1 X54.2 Y1.2
M03  S68
G1 X54.4 Y1.2
M03  S65
G1 X54.8 Y1.2
M03  S63
G1 X55.0 Y1.2
M03  S64
G1 X55.2 Y1.2
M03  S66
G1 X55.6 Y1.2
M03  S67
G1 X55.8 Y1.2
M03  S69
G1 X56.0 Y1.2
M03  S61
G1 X56.2 Y1.2
M03  S59
G1 X56.4 Y1.2
M03  S62
G1 X56.6 Y1.2
M03  S57
G1 X56.8 Y1.2
M03  S58
G1 X57.0 Y1.2
M03  S57
G1 X57.4 Y1.2
M03  S51
G1 X57.6 Y1.2
M03  S47
G1 X57.8 Y1.2
M03  S48
G1 X58.0 Y1.2
M03  S52
G1 X58.2 Y1.2
M03  S59
G1 X58.4 Y1.2
M03  S60
G1 X58.6 Y1.2
M03  S57
G1 X58.8 Y1.2
M03  S58
G1 X59.0 Y1.2
M03  S53
G1 X59.2 Y1.2
M03  S49
G1 X59.4 Y1.2
M03  S45
G1 X59.6 Y1.2
M03  S38
G1 X59.8 Y1.2
M03  S35
G1 X60.0 Y1.2
M03  S38
G1 X60.2 Y1.2
M03  S46
G1 X60.4 Y1.2
M03  S53
G1 X60.6 Y1.2
M05
G0 X60.6 Y1.4
M03  S55
G1 X60.4 Y1.4
M03  S52
G1 X60.2 Y1.4
M03  S46
G1 X60.0 Y1.4
M03  S41
G1 X59.8 Y1.4
M03  S36
G1 X59.6 Y1.4
M03  S32
G1 X59.4 Y1.4
M03  S31
G1 X59.2 Y1.4
M03  S34
G1 X59.0 Y1.4
M03  S46
G1 X58.8 Y1.4
M03  S56
G1 X58.6 Y1.4
M03  S55
G1 X58.4 Y1.4
M03  S48
G1 X58.2 Y1.4
M03  S51
G1 X57.8 Y1.4
M03  S38
G1 X57.6 Y1.4
M03  S43
G1 X57.4 Y1.4
M03  S53
G1 X57.2 Y1.4
M03  S57
G1 X57.0 Y1.4
M03  S62
G1 X56.6 Y1.4
M03  S64
G1 X56.4 Y1.4
M03  S57
G1 X56.2 Y1.4
M03  S59
G1 X56.0 Y1.4
M03  S67
G1 X55.8 Y1.4
M03  S65
G1 X55.6 Y1.4
M03  S67
G1 X55.4 Y1.4
M03  S61
G1 X55.2 Y1.4
M03  S59
G1 X55.0 Y1.4
M03  S61
G1 X54.8 Y1.4
M03  S63
G1 X54.6 Y1.4
M03  S65
G1 X54.4 Y1.4
M03  S64
G1 X54.2 Y1.4
M03  S66
G1 X54.0 Y1.4
M03  S71
G1 X53.8 Y1.4
M03  S72
G1 X53.6 Y1.4
M03  S68
G1 X53.4 Y1.4
M03  S73
G1 X53.2 Y1.4
M03  S86
G1 X53.0 Y1.4
M03  S88
G1 X52.8 Y1.4
M03  S84
G1 X52.6 Y1.4
M03  S78
G1 X52.4 Y1.4
M03  S80
G1 X52.2 Y1.4
M03  S79
G1 X52.0 Y1.4
M03  S77
G1 X51.8 Y1.4
M03  S73
G1 X51.6 Y1.4
M03  S65
G1 X51.4 Y1.4
M03  S70
G1 X51.2 Y1.4
M03  S66
G1 X50.8 Y1.4
M03  S63
G1 X50.6 Y1.4
M03  S67
G1 X50.4 Y1.4
M03  S64
G1 X50.2 Y1.4
M03  S93
G1 X50.0 Y1.4
M03  S67
G1 X49.8 Y1.4
M03  S63
G1 X49.6 Y1.4
M03  S94
G1 X49.4 Y1.4
M03  S89
G1 X49.2 Y1.4
M03  S80
G1 X49.0 Y1.4
M03  S77
G1 X48.8 Y1.4
M03  S85
G1 X48.6 Y1.4
M03  S105
G1 X48.4 Y1.4
M03  S101
G1 X48.2 Y1.4
M03  S117
G1 X48.0 Y1.4
M03  S130
G1 X47.8 Y1.4
M03  S132
G1 X47.6 Y1.4
M03  S129
G1 X47.4 Y1.4
M03  S121
G1 X47.2 Y1.4
M03  S147
G1 X47.0 Y1.4
M03  S149
G1 X46.8 Y1.4
M03  S138
G1 X46.6 Y1.4
M03  S166
G1 X46.4 Y1.4
M03  S150
G1 X46.2 Y1.4
M03  S134
G1 X46.0 Y1.4
M03  S153
G1 X45.8 Y1.4
M03  S145
G1 X45.4 Y1.4
M03  S137
G1 X45.2 Y1.4
M03  S139
G1 X45.0 Y1.4
M03  S133
G1 X44.8 Y1.4
M03  S132
G1 X44.4 Y1.4
M03  S135
G1 X44.2 Y1.4
M03  S133
G1 X43.6 Y1.4
M03  S130
G1 X43.4 Y1.4
M03  S142
G1 X43.2 Y1.4
M03  S141
G1 X43.0 Y1.4
M03  S137
G1 X42.8 Y1.4
M03  S127
G1 X42.6 Y1.4
M03  S149
G1 X42.4 Y1.4
M03  S156
G1 X42.2 Y1.4
M03  S160
G1 X41.8 Y1.4
M03  S155
G1 X41.6 Y1.4
M03  S133
G1 X41.4 Y1.4
M03  S130
G1 X41.2 Y1.4
M03  S124
G1 X41.0 Y1.4
M03  S111
G1 X40.8 Y1.4
M03  S88
G1 X40.6 Y1.4
M03  S62
G1 X40.4 Y1.4
M03  S79
G1 X40.2 Y1.4
M03  S102
G1 X40.0 Y1.4
M03  S129
G1 X39.8 Y1.4
M03  S122
G1 X39.6 Y1.4
M03  S109
G1 X39.4 Y1.4
M03  S121
G1 X39.2 Y1.4
M03  S140
G1 X39.0 Y1.4
M03  S141
G1 X38.8 Y1.4
M03  S137
G1 X38.6 Y1.4
M03  S142
G1 X38.4 Y1.4
M03  S147
G1 X38.2 Y1.4
M03  S153
G1 X38.0 Y1.4
M03  S147
G1 X37.8 Y1.4
M03  S146
G1 X37.6 Y1.4
M03  S152
G1 X37.4 Y1.4
M03  S156
G1 X37.2 Y1.4
M03  S158
G1 X37.0 Y1.4
M03  S156
G1 X36.6 Y1.4
M03  S155
G1 X36.0 Y1.4
M03  S154
G1 X35.8 Y1.4
M03  S150
G1 X35.6 Y1.4
M03  S147
G1 X35.4 Y1.4
M03  S144
G1 X35.2 Y1.4
M03  S142
G1 X35.0 Y1.4
M03  S134
G1 X34.8 Y1.4
M03  S132
G1 X34.6 Y1.4
M03  S129
G1 X34.4 Y1.4
M03  S125
G1 X34.2 Y1.4
M03  S121
G1 X34.0 Y1.4
M03  S117
G1 X33.8 Y1.4
M03  S113
G1 X33.6 Y1.4
M03  S107
G1 X33.4 Y1.4
M03  S104
G1 X33.2 Y1.4
M03  S101
G1 X32.8 Y1.4
M03  S94
G1 X32.6 Y1.4
M03  S92
G1 X32.4 Y1.4
M03  S91
G1 X32.2 Y1.4
M03  S86
G1 X32.0 Y1.4
M03  S82
G1 X31.8 Y1.4
M03  S83
G1 X31.6 Y1.4
M03  S79
G1 X31.4 Y1.4
M03  S78
G1 X31.2 Y1.4
M03  S77
G1 X31.0 Y1.4
M03  S74
G1 X30.8 Y1.4
M03  S72
G1 X30.6 Y1.4
M03  S69
G1 X30.4 Y1.4
M03  S68
G1 X30.2 Y1.4
M03  S69
G1 X29.8 Y1.4
M03  S68
G1 X29.6 Y1.4
M03  S65
G1 X29.2 Y1.4
M03  S64
G1 X29.0 Y1.4
M03  S63
G1 X28.8 Y1.4
M03  S62
G1 X28.6 Y1.4
M03  S60
G1 X28.4 Y1.4
M03  S64
G1 X28.2 Y1.4
M03  S61
G1 X28.0 Y1.4
M03  S62
G1 X27.8 Y1.4
M03  S73
G1 X27.6 Y1.4
M03  S74
G1 X27.0 Y1.4
M03  S75
G1 X26.8 Y1.4
M03  S76
G1 X26.4 Y1.4
M03  S77
G1 X26.2 Y1.4
M03  S78
G1 X25.6 Y1.4
M03  S80
G1 X25.2 Y1.4
M03  S81
G1 X25.0 Y1.4
M03  S84
G1 X24.8 Y1.4
M03  S85
G1 X24.2 Y1.4
M03  S86
G1 X24.0 Y1.4
M03  S87
G1 X23.8 Y1.4
M03  S88
G1 X23.6 Y1.4
M03  S91
G1 X23.4 Y1.4
M03  S100
G1 X23.2 Y1.4
M03  S104
G1 X23.0 Y1.4
M03  S112
G1 X22.8 Y1.4
M03  S139
G1 X22.6 Y1.4
M03  S147
G1 X22.4 Y1.4
M03  S120
G1 X22.2 Y1.4
M03  S101
G1 X22.0 Y1.4
M03  S95
G1 X21.8 Y1.4
M03  S97
G1 X21.6 Y1.4
M03  S91
G1 X21.4 Y1.4
M03  S93
G1 X21.2 Y1.4
M03  S103
G1 X20.8 Y1.4
M03  S99
G1 X20.6 Y1.4
M03  S103
G1 X20.4 Y1.4
M03  S93
G1 X20.2 Y1.4
M03  S77
G1 X20.0 Y1.4
M03  S89
G1 X19.8 Y1.4
M03  S101
G1 X19.6 Y1.4
M03  S87
G1 X19.4 Y1.4
M03  S80
G1 X19.2 Y1.4
M03  S75
G1 X19.0 Y1.4
M03  S80
G1 X18.8 Y1.4
M03  S76
G1 X18.6 Y1.4
M03  S77
G1 X18.4 Y1.4
M03  S82
G1 X18.2 Y1.4
M03  S70
G1 X18.0 Y1.4
M03  S58
G1 X17.8 Y1.4
M03  S50
G1 X17.6 Y1.4
M03  S55
G1 X17.4 Y1.4
M03  S76
G1 X17.2 Y1.4
M03  S87
G1 X17.0 Y1.4
M03  S86
G1 X16.8 Y1.4
M03  S76
G1 X16.6 Y1.4
M03  S85
G1 X16.4 Y1.4
M03  S96
G1 X16.2 Y1.4
M03  S95
G1 X16.0 Y1.4
M03  S92
G1 X15.8 Y1.4
M03  S82
G1 X15.6 Y1.4
M03  S57
G1 X15.4 Y1.4
M03  S68
G1 X15.2 Y1.4
M03  S83
G1 X15.0 Y1.4
M03  S96
G1 X14.8 Y1.4
M03  S100
G1 X14.6 Y1.4
M03  S103
G1 X14.2 Y1.4
M03  S98
G1 X14.0 Y1.4
M03  S74
G1 X13.8 Y1.4
M03  S68
G1 X13.6 Y1.4
M03  S71
G1 X13.4 Y1.4
M03  S83
G1 X13.2 Y1.4
M03  S103
G1 X13.0 Y1.4
M03  S106
G1 X12.8 Y1.4
M03  S88
G1 X12.6 Y1.4
M03  S64
G1 X12.4 Y1.4
M03  S73
G1 X12.2 Y1.4
M03  S86
G1 X12.0 Y1.4
M03  S79
G1 X11.8 Y1.4
M03  S77
G1 X11.6 Y1.4
M03  S80
G1 X11.4 Y1.4
M03  S77
G1 X11.2 Y1.4
M03  S82
G1 X10.8 Y1.4
M03  S78
G1 X10.6 Y1.4
M03  S77
G1 X10.4 Y1.4
M03  S85
G1 X10.2 Y1.4
M03  S80
G1 X10.0 Y1.4
M03  S81
G1 X9.6 Y1.4
M03  S80
G1 X9.4 Y1.4
M03  S91
G1 X9.2 Y1.4
M03  S87
G1 X9.0 Y1.4
M03  S85
G1 X8.8 Y1.4
M03  S84
G1 X8.6 Y1.4
M03  S80
G1 X8.4 Y1.4
M03  S78
G1 X8.2 Y1.4
M03  S77
G1 X8.0 Y1.4
M03  S78
G1 X7.8 Y1.4
M03  S77
G1 X7.6 Y1.4
M03  S69
G1 X7.4 Y1.4
M03  S63
G1 X7.2 Y1.4
M03  S62
G1 X7.0 Y1.4
M03  S68
G1 X6.8 Y1.4
M03  S79
G1 X6.6 Y1.4
M03  S83
G1 X6.4 Y1.4
M03  S90
G1 X6.2 Y1.4
M03  S97
G1 X6.0 Y1.4
M03  S103
G1 X5.8 Y1.4
M03  S106
G1 X5.6 Y1.4
M03  S116
G1 X5.4 Y1.4
M03  S124
G1 X5.2 Y1.4
M03  S125
G1 X5.0 Y1.4
M03  S131
G1 X4.8 Y1.4
M03  S138
G1 X4.6 Y1.4
M03  S144
G1 X4.4 Y1.4
M03  S140
G1 X4.2 Y1.4
M03  S143
G1 X4.0 Y1.4
M03  S154
G1 X3.8 Y1.4
M03  S138
G1 X3.6 Y1.4
M03  S156
G1 X3.4 Y1.4
M03  S140
G1 X3.2 Y1.4
M03  S114
G1 X3.0 Y1.4
M03  S107
G1 X2.8 Y1.4
M03  S117
G1 X2.6 Y1.4
M03  S149
G1 X2.4 Y1.4
M03  S150
G1 X2.2 Y1.4
M03  S140
G1 X2.0 Y1.4
M03  S139
G1 X1.8 Y1.4
M03  S150
G1 X1.6 Y1.4
M03  S135
G1 X1.4 Y1.4
M03  S125
G1 X1.2 Y1.4
M03  S121
G1 X1.0 Y1.4
M03  S131
G1 X0.8 Y1.4
M03  S134
G1 X0.6 Y1.4
M03  S121
G1 X0.2 Y1.4
M03  S137
G1 X0.0 Y1.4
M05
G0 X0.0 Y1.6
M03  S142
G1 X0.2 Y1.6
M03  S130
G1 X0.4 Y1.6
M03  S121
G1 X0.6 Y1.6
M03  S137
G1 X1.0 Y1.6
M03  S121
G1 X1.2 Y1.6
M03  S120
G1 X1.4 Y1.6
M03  S124
G1 X1.6 Y1.6
M03  S137
G1 X1.8 Y1.6
M03  S157
G1 X2.0 Y1.6
M03  S159
G1 X2.2 Y1.6
M03  S163
G1 X2.4 Y1.6
M03  S153
G1 X2.6 Y1.6
M03  S118
G1 X2.8 Y1.6
M03  S108
G1 X3.0 Y1.6
M03  S106
G1 X3.2 Y1.6
M03  S117
G1 X3.4 Y1.6
M03  S159
G1 X3.6 Y1.6
M03  S138
G1 X3.8 Y1.6
M03  S123
G1 X4.0 Y1.6
M03  S124
G1 X4.2 Y1.6
M03  S117
G1 X4.4 Y1.6
M03  S114
G1 X4.6 Y1.6
M03  S119
G1 X4.8 Y1.6
M03  S123
G1 X5.0 Y1.6
M03  S125
G1 X5.2 Y1.6
M03  S123
G1 X5.4 Y1.6
M03  S120
G1 X5.6 Y1.6
M03  S117
G1 X5.8 Y1.6
M03  S115
G1 X6.0 Y1.6
M03  S107
G1 X6.2 Y1.6
M03  S100
G1 X6.4 Y1.6
M03  S92
G1 X6.6 Y1.6
M03  S90
G1 X6.8 Y1.6
M03  S93
G1 X7.0 Y1.6
M03  S90
G1 X7.2 Y1.6
M03  S82
G1 X7.4 Y1.6
M03  S78
G1 X7.6 Y1.6
M03  S86
G1 X7.8 Y1.6
M03  S93
G1 X8.0 Y1.6
M03  S89
G1 X8.2 Y1.6
M03  S84
G1 X8.6 Y1.6
M03  S86
G1 X8.8 Y1.6
M03  S83
G1 X9.0 Y1.6
M03  S93
G1 X9.2 Y1.6
M03  S95
G1 X9.4 Y1.6
M03  S84
G1 X9.6 Y1.6
M03  S82
G1 X9.8 Y1.6
M03  S84
G1 X10.0 Y1.6
M03  S86
G1 X10.2 Y1.6
M03  S91
G1 X10.4 Y1.6
M03  S81
G1 X11.0 Y1.6
M03  S76
G1 X11.2 Y1.6
M03  S72
G1 X11.4 Y1.6
M03  S82
G1 X11.6 Y1.6
M03  S93
G1 X11.8 Y1.6
M03  S75
G1 X12.0 Y1.6
M03  S70
G1 X12.2 Y1.6
M03  S68
G1 X12.4 Y1.6
M03  S74
G1 X12.6 Y1.6
M03  S105
G1 X12.8 Y1.6
M03  S110
G1 X13.0 Y1.6
M03  S93
G1 X13.2 Y1.6
M03  S64
G1 X13.4 Y1.6
M03  S73
G1 X13.6 Y1.6
M03  S93
G1 X13.8 Y1.6
M03  S88
G1 X14.0 Y1.6
M03  S109
G1 X14.2 Y1.6
M03  S121
G1 X14.4 Y1.6
M03  S109
G1 X14.6 Y1.6
M03  S102
G1 X14.8 Y1.6
M03  S92
G1 X15.0 Y1.6
M03  S82
G1 X15.2 Y1.6
M03  S71
G1 X15.4 Y1.6
M03  S59
G1 X15.6 Y1.6
M03  S76
G1 X15.8 Y1.6
M03  S86
G1 X16.0 Y1.6
M03  S93
G1 X16.2 Y1.6
M03  S94
G1 X16.4 Y1.6
M03  S95
G1 X16.6 Y1.6
M03  S88
G1 X16.8 Y1.6
M03  S89
G1 X17.0 Y1.6
M03  S95
G1 X17.2 Y1.6
M03  S86
G1 X17.4 Y1.6
M03  S66
G1 X17.6 Y1.6
M03  S57
G1 X17.8 Y1.6
M03  S59
G1 X18.0 Y1.6
M03  S54
G1 X18.2 Y1.6
M03  S71
G1 X18.4 Y1.6
M03  S74
G1 X18.6 Y1.6
M03  S77
G1 X18.8 Y1.6
M03  S80
G1 X19.0 Y1.6
M03  S72
G1 X19.2 Y1.6
M03  S73
G1 X19.4 Y1.6
M03  S76
G1 X19.6 Y1.6
M03  S90
G1 X19.8 Y1.6
M03  S96
G1 X20.0 Y1.6
M03  S95
G1 X20.4 Y1.6
M03  S98
G1 X20.6 Y1.6
M03  S92
G1 X20.8 Y1.6
M03  S81
G1 X21.0 Y1.6
M03  S82
G1 X21.2 Y1.6
M03  S80
G1 X21.4 Y1.6
M03  S84
G1 X21.6 Y1.6
M03  S87
G1 X21.8 Y1.6
M03  S86
G1 X22.0 Y1.6
M03  S92
G1 X22.2 Y1.6
M03  S103
G1 X22.4 Y1.6
M03  S112
G1 X22.6 Y1.6
M03  S144
G1 X22.8 Y1.6
M03  S128
G1 X23.0 Y1.6
M03  S110
G1 X23.2 Y1.6
M03  S103
G1 X23.4 Y1.6
M03  S97
G1 X23.6 Y1.6
M03  S92
G1 X23.8 Y1.6
M03  S90
G1 X24.0 Y1.6
M03  S87
G1 X24.2 Y1.6
M03  S85
G1 X24.8 Y1.6
M03  S84
G1 X25.0 Y1.6
M03  S81
G1 X25.2 Y1.6
M03  S80
G1 X25.6 Y1.6
M03  S78
G1 X26.2 Y1.6
M03  S77
G1 X26.4 Y1.6
M03  S76
G1 X26.8 Y1.6
M03  S75
G1 X27.0 Y1.6
M03  S74
G1 X27.6 Y1.6
M03  S68
G1 X27.8 Y1.6
M03  S64
G1 X28.2 Y1.6
M03  S61
G1 X28.4 Y1.6
M03  S59
G1 X28.6 Y1.6
M03  S61
G1 X28.8 Y1.6
M03  S66
G1 X29.0 Y1.6
M03  S63
G1 X29.2 Y1.6
M03  S64
G1 X29.4 Y1.6
M03  S65
G1 X29.8 Y1.6
M03  S66
G1 X30.2 Y1.6
M03  S65
G1 X30.4 Y1.6
M03  S66
G1 X30.6 Y1.6
M03  S69
G1 X30.8 Y1.6
M03  S71
G1 X31.0 Y1.6
M03  S74
G1 X31.2 Y1.6
M03  S75
G1 X31.6 Y1.6
M03  S77
G1 X31.8 Y1.6
M03  S80
G1 X32.0 Y1.6
M03  S83
G1 X32.2 Y1.6
M03  S86
G1 X32.4 Y1.6
M03  S91
G1 X32.6 Y1.6
M03  S95
G1 X32.8 Y1.6
M03  S97
G1 X33.0 Y1.6
M03  S99
G1 X33.2 Y1.6
M03  S102
G1 X33.4 Y1.6
M03  S106
G1 X33.6 Y1.6
M03  S111
G1 X33.8 Y1.6
M03  S114
G1 X34.0 Y1.6
M03  S118
G1 X34.2 Y1.6
M03  S122
G1 X34.4 Y1.6
M03  S126
G1 X34.6 Y1.6
M03  S129
G1 X34.8 Y1.6
M03  S131
G1 X35.0 Y1.6
M03  S136
G1 X35.2 Y1.6
M03  S139
G1 X35.4 Y1.6
M03  S142
G1 X35.6 Y1.6
M03  S146
G1 X35.8 Y1.6
M03  S150
G1 X36.0 Y1.6
M03  S153
G1 X36.2 Y1.6
M03  S154
G1 X36.4 Y1.6
M03  S155
G1 X36.8 Y1.6
M03  S154
G1 X37.0 Y1.6
M03  S156
G1 X37.2 Y1.6
M03  S158
G1 X37.6 Y1.6
M03  S152
G1 X37.8 Y1.6
M03  S145
G1 X38.0 Y1.6
M03  S150
G1 X38.4 Y1.6
M03  S143
G1 X38.6 Y1.6
M03  S134
G1 X38.8 Y1.6
M03  S138
G1 X39.0 Y1.6
M03  S141
G1 X39.2 Y1.6
M03  S130
G1 X39.4 Y1.6
M03  S116
G1 X39.6 Y1.6
M03  S120
G1 X39.8 Y1.6
M03  S136
G1 X40.0 Y1.6
M03  S94
G1 X40.2 Y1.6
M03  S109
G1 X40.4 Y1.6
M03  S62
G1 X40.6 Y1.6
M03  S95
G1 X40.8 Y1.6
M03  S91
G1 X41.0 Y1.6
M03  S107
G1 X41.2 Y1.6
M03  S130
G1 X41.4 Y1.6
M03  S135
G1 X41.6 Y1.6
M03  S146
G1 X41.8 Y1.6
M03  S158
G1 X42.0 Y1.6
M03  S160
G1 X42.2 Y1.6
M03  S158
G1 X42.4 Y1.6
M03  S148
G1 X42.6 Y1.6
M03  S140
G1 X42.8 Y1.6
M03  S142
G1 X43.0 Y1.6
M03  S151
G1 X43.2 Y1.6
M03  S137
G1 X43.4 Y1.6
M03  S130
G1 X43.6 Y1.6
M03  S134
G1 X43.8 Y1.6
M03  S129
G1 X44.0 Y1.6
M03  S125
G1 X44.2 Y1.6
M03  S128
G1 X44.6 Y1.6
M03  S130
G1 X44.8 Y1.6
M03  S135
G1 X45.0 Y1.6
M03  S144
G1 X45.2 Y1.6
M03  S150
G1 X45.4 Y1.6
M03  S136
G1 X45.6 Y1.6
M03  S140
G1 X45.8 Y1.6
M03  S146
G1 X46.0 Y1.6
M03  S138
G1 X46.2 Y1.6
M03  S144
G1 X46.4 Y1.6
M03  S163
G1 X46.6 Y1.6
M03  S153
G1 X46.8 Y1.6
M03  S135
G1 X47.0 Y1.6
M03  S140
G1 X47.2 Y1.6
M03  S118
G1 X47.4 Y1.6
M03  S126
G1 X47.6 Y1.6
M03  S123
G1 X47.8 Y1.6
M03  S107
G1 X48.0 Y1.6
M03  S103
G1 X48.2 Y1.6
M03  S99
G1 X48.4 Y1.6
M03  S106
G1 X48.6 Y1.6
M03  S90
G1 X48.8 Y1.6
M03  S76
G1 X49.0 Y1.6
M03  S78
G1 X49.2 Y1.6
M03  S88
G1 X49.4 Y1.6
M03  S84
G1 X49.6 Y1.6
M03  S87
G1 X49.8 Y1.6
M03  S82
G1 X50.0 Y1.6
M03  S71
G1 X50.2 Y1.6
M03  S76
G1 X50.4 Y1.6
M03  S78
G1 X50.6 Y1.6
M03  S67
G1 X50.8 Y1.6
M03  S73
G1 X51.0 Y1.6
M03  S74
G1 X51.2 Y1.6
M03  S77
G1 X51.4 Y1.6
M03  S81
G1 X51.6 Y1.6
M03  S87
G1 X51.8 Y1.6
M03  S85
G1 X52.0 Y1.6
M03  S80
G1 X52.2 Y1.6
M03  S77
G1 X52.4 Y1.6
M03  S78
G1 X52.6 Y1.6
M03  S85
G1 X52.8 Y1.6
M03  S84
G1 X53.0 Y1.6
M03  S80
G1 X53.2 Y1.6
M03  S70
G1 X53.6 Y1.6
M03  S67
G1 X53.8 Y1.6
M03  S64
G1 X54.0 Y1.6
M03  S63
G1 X54.2 Y1.6
M03  S61
G1 X54.6 Y1.6
M03  S60
G1 X54.8 Y1.6
M03  S58
G1 X55.0 Y1.6
M03  S56
G1 X55.2 Y1.6
M03  S57
G1 X55.4 Y1.6
M03  S70
G1 X55.6 Y1.6
M03  S68
G1 X55.8 Y1.6
M03  S61
G1 X56.4 Y1.6
M03  S60
G1 X56.6 Y1.6
M03  S57
G1 X56.8 Y1.6
M03  S59
G1 X57.0 Y1.6
M03  S51
G1 X57.2 Y1.6
M03  S43
G1 X57.6 Y1.6
M03  S45
G1 X57.8 Y1.6
M03  S51
G1 X58.0 Y1.6
M03  S44
G1 X58.2 Y1.6
M03  S47
G1 X58.4 Y1.6
M03  S69
G1 X58.6 Y1.6
M03  S53
G1 X58.8 Y1.6
M03  S36
G1 X59.0 Y1.6
M03  S38
G1 X59.2 Y1.6
M03  S43
G1 X59.6 Y1.6
M03  S45
G1 X59.8 Y1.6
M03  S50
G1 X60.0 Y1.6
M03  S51
G1 X60.2 Y1.6
M03  S49
G1 X60.4 Y1.6
M03  S54
G1 X60.6 Y1.6
M05
G0 X60.6 Y1.8
M03  S52
G1 X60.4 Y1.8
M03  S54
G1 X60.2 Y1.8
M03  S52
G1 X60.0 Y1.8
M03  S46
G1 X59.6 Y1.8
M03  S50
G1 X59.4 Y1.8
M03  S54
G1 X59.2 Y1.8
M03  S51
G1 X58.8 Y1.8
M03  S57
G1 X58.6 Y1.8
M03  S58
G1 X58.4 Y1.8
M03  S54
G1 X58.2 Y1.8
M03  S58
G1 X57.8 Y1.8
M03  S54
G1 X57.6 Y1.8
M03  S53
G1 X57.4 Y1.8
M03  S49
G1 X57.2 Y1.8
M03  S52
G1 X57.0 Y1.8
M03  S59
G1 X56.8 Y1.8
M03  S49
G1 X56.6 Y1.8
M03  S54
G1 X56.4 Y1.8
M03  S62
G1 X56.2 Y1.8
M03  S60
G1 X56.0 Y1.8
M03  S56
G1 X55.8 Y1.8
M03  S59
G1 X55.6 Y1.8
M03  S54
G1 X55.4 Y1.8
M03  S52
G1 X55.2 Y1.8
M03  S53
G1 X55.0 Y1.8
M03  S55
G1 X54.8 Y1.8
M03  S57
G1 X54.6 Y1.8
M03  S62
G1 X54.4 Y1.8
M03  S55
G1 X54.2 Y1.8
M03  S57
G1 X54.0 Y1.8
M03  S65
G1 X53.8 Y1.8
M03  S62
G1 X53.6 Y1.8
M03  S64
G1 X53.2 Y1.8
M03  S78
G1 X53.0 Y1.8
M03  S84
G1 X52.8 Y1.8
M03  S88
G1 X52.6 Y1.8
M03  S83
G1 X52.4 Y1.8
M03  S78
G1 X52.2 Y1.8
M03  S77
G1 X52.0 Y1.8
M03  S83
G1 X51.8 Y1.8
M03  S87
G1 X51.6 Y1.8
M03  S90
G1 X51.4 Y1.8
M03  S84
G1 X51.2 Y1.8
M03  S80
G1 X50.8 Y1.8
M03  S75
G1 X50.6 Y1.8
M03  S76
G1 X50.2 Y1.8
M03  S73
G1 X50.0 Y1.8
M03  S81
G1 X49.8 Y1.8
M03  S86
G1 X49.6 Y1.8
M03  S84
G1 X49.4 Y1.8
M03  S88
G1 X49.2 Y1.8
M03  S89
G1 X49.0 Y1.8
M03  S78
G1 X48.8 Y1.8
M03  S82
G1 X48.6 Y1.8
M03  S101
G1 X48.2 Y1.8
M03  S99
G1 X48.0 Y1.8
M03  S103
G1 X47.8 Y1.8
M03  S129
G1 X47.6 Y1.8
M03  S113
G1 X47.4 Y1.8
M03  S125
G1 X47.2 Y1.8
M03  S135
G1 X47.0 Y1.8
M03  S132
G1 X46.8 Y1.8
M03  S154
G1 X46.6 Y1.8
M03  S145
G1 X46.4 Y1.8
M03  S137
G1 X46.2 Y1.8
M03  S145
G1 X46.0 Y1.8
M03  S143
G1 X45.8 Y1.8
M03  S138
G1 X45.6 Y1.8
M03  S145
G1 X45.4 Y1.8
M03  S154
G1 X45.2 Y1.8
M03  S135
G1 X45.0 Y1.8
M03  S132
G1 X44.4 Y1.8
M03  S130
G1 X44.2 Y1.8
M03  S132
G1 X44.0 Y1.8
M03  S133
G1 X43.8 Y1.8
M03  S130
G1 X43.6 Y1.8
M03  S134
G1 X43.2 Y1.8
M03  S150
G1 X43.0 Y1.8
M03  S141
G1 X42.8 Y1.8
M03  S153
G1 X42.4 Y1.8
M03  S160
G1 X42.2 Y1.8
M03  S161
G1 X42.0 Y1.8
M03  S156
G1 X41.8 Y1.8
M03  S144
G1 X41.6 Y1.8
M03  S134
G1 X41.4 Y1.8
M03  S135
G1 X41.2 Y1.8
M03  S105
G1 X41.0 Y1.8
M03  S71
G1 X40.8 Y1.8
M03  S90
G1 X40.6 Y1.8
M03  S41
G1 X40.4 Y1.8
M03  S127
G1 X40.2 Y1.8
M03  S83
G1 X40.0 Y1.8
M03  S95
G1 X39.8 Y1.8
M03  S109
G1 X39.6 Y1.8
M03  S122
G1 X39.4 Y1.8
M03  S139
G1 X39.2 Y1.8
M03  S140
G1 X39.0 Y1.8
M03  S138
G1 X38.8 Y1.8
M03  S149
G1 X38.6 Y1.8
M03  S156
G1 X38.4 Y1.8
M03  S148
G1 X38.2 Y1.8
M03  S146
G1 X38.0 Y1.8
M03  S154
G1 X37.8 Y1.8
M03  S160
G1 X37.6 Y1.8
M03  S158
G1 X37.4 Y1.8
M03  S155
G1 X37.2 Y1.8
M03  S151
G1 X37.0 Y1.8
M03  S153
G1 X36.8 Y1.8
M03  S154
G1 X36.6 Y1.8
M03  S155
G1 X36.4 Y1.8
M03  S153
G1 X36.2 Y1.8
M03  S151
G1 X36.0 Y1.8
M03  S146
G1 X35.8 Y1.8
M03  S143
G1 X35.6 Y1.8
M03  S141
G1 X35.4 Y1.8
M03  S137
G1 X35.2 Y1.8
M03  S133
G1 X35.0 Y1.8
M03  S129
G1 X34.8 Y1.8
M03  S126
G1 X34.6 Y1.8
M03  S124
G1 X34.4 Y1.8
M03  S119
G1 X34.2 Y1.8
M03  S115
G1 X34.0 Y1.8
M03  S112
G1 X33.8 Y1.8
M03  S107
G1 X33.6 Y1.8
M03  S101
G1 X33.4 Y1.8
M03  S98
G1 X33.2 Y1.8
M03  S95
G1 X33.0 Y1.8
M03  S92
G1 X32.8 Y1.8
M03  S93
G1 X32.6 Y1.8
M03  S87
G1 X32.4 Y1.8
M03  S80
G1 X32.2 Y1.8
M03  S82
G1 X32.0 Y1.8
M03  S79
G1 X31.8 Y1.8
M03  S73
G1 X31.4 Y1.8
M03  S72
G1 X31.2 Y1.8
M03  S71
G1 X31.0 Y1.8
M03  S68
G1 X30.8 Y1.8
M03  S66
G1 X30.6 Y1.8
M03  S64
G1 X30.4 Y1.8
M03  S62
G1 X30.2 Y1.8
M03  S63
G1 X30.0 Y1.8
M03  S64
G1 X29.8 Y1.8
M03  S63
G1 X29.6 Y1.8
M03  S64
G1 X29.4 Y1.8
M03  S63
G1 X29.2 Y1.8
M03  S62
G1 X29.0 Y1.8
M03  S58
G1 X28.8 Y1.8
M03  S62
G1 X28.6 Y1.8
M03  S65
G1 X28.4 Y1.8
M03  S59
G1 X28.2 Y1.8
M03  S67
G1 X28.0 Y1.8
M03  S66
G1 X27.8 Y1.8
M03  S63
G1 X27.6 Y1.8
M03  S74
G1 X27.0 Y1.8
M03  S75
G1 X26.8 Y1.8
M03  S76
G1 X26.4 Y1.8
M03  S77
G1 X26.2 Y1.8
M03  S78
G1 X25.6 Y1.8
M03  S80
G1 X25.2 Y1.8
M03  S81
G1 X25.0 Y1.8
M03  S84
G1 X24.8 Y1.8
M03  S85
G1 X24.4 Y1.8
M03  S86
G1 X24.2 Y1.8
M03  S89
G1 X24.0 Y1.8
M03  S93
G1 X23.8 Y1.8
M03  S96
G1 X23.6 Y1.8
M03  S99
G1 X23.4 Y1.8
M03  S107
G1 X23.2 Y1.8
M03  S124
G1 X23.0 Y1.8
M03  S140
G1 X22.8 Y1.8
M03  S122
G1 X22.6 Y1.8
M03  S109
G1 X22.4 Y1.8
M03  S111
G1 X22.2 Y1.8
M03  S99
G1 X22.0 Y1.8
M03  S91
G1 X21.8 Y1.8
M03  S89
G1 X21.6 Y1.8
M03  S88
G1 X21.4 Y1.8
M03  S94
G1 X21.2 Y1.8
M03  S99
G1 X21.0 Y1.8
M03  S91
G1 X20.8 Y1.8
M03  S83
G1 X20.6 Y1.8
M03  S93
G1 X20.4 Y1.8
M03  S118
G1 X20.2 Y1.8
M03  S104
G1 X20.0 Y1.8
M03  S98
G1 X19.8 Y1.8
M03  S88
G1 X19.6 Y1.8
M03  S80
G1 X19.4 Y1.8
M03  S78
G1 X19.2 Y1.8
M03  S74
G1 X19.0 Y1.8
M03  S77
G1 X18.8 Y1.8
M03  S71
G1 X18.6 Y1.8
M03  S74
G1 X18.4 Y1.8
M03  S67
G1 X18.2 Y1.8
M03  S56
G1 X18.0 Y1.8
M03  S59
G1 X17.8 Y1.8
M03  S71
G1 X17.6 Y1.8
M03  S84
G1 X17.4 Y1.8
M03  S94
G1 X17.2 Y1.8
M03  S97
G1 X17.0 Y1.8
M03  S96
G1 X16.8 Y1.8
M03  S98
G1 X16.6 Y1.8
M03  S93
G1 X16.4 Y1.8
M03  S92
G1 X16.2 Y1.8
M03  S89
G1 X16.0 Y1.8
M03  S77
G1 X15.8 Y1.8
M03  S68
G1 X15.6 Y1.8
M03  S57
G1 X15.4 Y1.8
M03  S67
G1 X15.2 Y1.8
M03  S80
G1 X15.0 Y1.8
M03  S93
G1 X14.8 Y1.8
M03  S103
G1 X14.6 Y1.8
M03  S113
G1 X14.4 Y1.8
M03  S128
G1 X14.2 Y1.8
M03  S121
G1 X14.0 Y1.8
M03  S88
G1 X13.8 Y1.8
M03  S102
G1 X13.6 Y1.8
M03  S91
G1 X13.4 Y1.8
M03  S75
G1 X13.2 Y1.8
M03  S84
G1 X13.0 Y1.8
M03  S105
G1 X12.8 Y1.8
M03  S104
G1 X12.6 Y1.8
M03  S85
G1 X12.4 Y1.8
M03  S72
G1 X12.2 Y1.8
M03  S54
G1 X12.0 Y1.8
M03  S44
G1 X11.8 Y1.8
M03  S74
G1 X11.6 Y1.8
M03  S82
G1 X11.4 Y1.8
M03  S69
G1 X11.2 Y1.8
M03  S67
G1 X11.0 Y1.8
M03  S74
G1 X10.8 Y1.8
M03  S79
G1 X10.6 Y1.8
M03  S80
G1 X10.4 Y1.8
M03  S91
G1 X10.2 Y1.8
M03  S90
G1 X10.0 Y1.8
M03  S87
G1 X9.8 Y1.8
M03  S84
G1 X9.6 Y1.8
M03  S89
G1 X9.4 Y1.8
M03  S90
G1 X9.2 Y1.8
M03  S86
G1 X9.0 Y1.8
M03  S87
G1 X8.8 Y1.8
M03  S89
G1 X8.6 Y1.8
M03  S88
G1 X8.4 Y1.8
M03  S89
G1 X8.2 Y1.8
M03  S91
G1 X7.8 Y1.8
M03  S94
G1 X7.6 Y1.8
M03  S102
G1 X7.4 Y1.8
M03  S92
G1 X7.2 Y1.8
M03  S97
G1 X7.0 Y1.8
M03  S105
G1 X6.4 Y1.8
M03  S106
G1 X6.2 Y1.8
M03  S107
G1 X6.0 Y1.8
M03  S113
G1 X5.8 Y1.8
M03  S115
G1 X5.6 Y1.8
M03  S111
G1 X5.4 Y1.8
M03  S114
G1 X5.2 Y1.8
M03  S116
G1 X5.0 Y1.8
M03  S109
G1 X4.8 Y1.8
M03  S104
G1 X4.6 Y1.8
M03  S103
G1 X4.4 Y1.8
M03  S104
G1 X4.2 Y1.8
M03  S98
G1 X4.0 Y1.8
M03  S106
G1 X3.8 Y1.8
M03  S150
G1 X3.6 Y1.8
M03  S152
G1 X3.4 Y1.8
M03  S116
G1 X3.2 Y1.8
M03  S108
G1 X3.0 Y1.8
M03  S113
G1 X2.8 Y1.8
M03  S139
G1 X2.6 Y1.8
M03  S167
G1 X2.4 Y1.8
M03  S162
G1 X2.2 Y1.8
M03  S158
G1 X2.0 Y1.8
M03  S143
G1 X1.8 Y1.8
M03  S135
G1 X1.6 Y1.8
M03  S145
G1 X1.4 Y1.8
M03  S138
G1 X1.2 Y1.8
M03  S135
G1 X1.0 Y1.8
M03  S141
G1 X0.8 Y1.8
M03  S131
G1 X0.6 Y1.8
M03  S128
G1 X0.4 Y1.8
M03  S139
G1 X0.2 Y1.8
M03  S133
G1 X0.0 Y1.8
M05
G0 X0.0 Y2.0
M03  S125
G1 X0.2 Y2.0
M03  S137
G1 X0.4 Y2.0
M03  S135
G1 X0.6 Y2.0
M03  S132
G1 X0.8 Y2.0
M03  S139
G1 X1.0 Y2.0
M03  S142
G1 X1.2 Y2.0
M03  S141
G1 X1.4 Y2.0
M03  S145
G1 X1.6 Y2.0
M03  S148
G1 X1.8 Y2.0
M03  S150
G1 X2.0 Y2.0
M03  S155
G1 X2.2 Y2.0
M03  S156
G1 X2.4 Y2.0
M03  S165
G1 X2.6 Y2.0
M03  S145
G1 X2.8 Y2.0
M03  S117
G1 X3.0 Y2.0
M03  S107
G1 X3.2 Y2.0
M03  S100
G1 X3.4 Y2.0
M03  S121
G1 X3.6 Y2.0
M03  S156
G1 X3.8 Y2.0
M03  S113
G1 X4.0 Y2.0
M03  S71
G1 X4.2 Y2.0
M03  S87
G1 X4.4 Y2.0
M03  S95
G1 X4.6 Y2.0
M03  S90
G1 X4.8 Y2.0
M03  S88
G1 X5.0 Y2.0
M03  S96
G1 X5.2 Y2.0
M03  S97
G1 X5.4 Y2.0
M03  S93
G1 X5.6 Y2.0
M03  S95
G1 X5.8 Y2.0
M03  S101
G1 X6.0 Y2.0
M03  S105
G1 X6.2 Y2.0
M03  S108
G1 X6.6 Y2.0
M03  S107
G1 X6.8 Y2.0
M03  S108
G1 X7.0 Y2.0
M03  S97
G1 X7.2 Y2.0
M03  S95
G1 X7.4 Y2.0
M03  S108
G1 X7.6 Y2.0
M03  S104
G1 X7.8 Y2.0
M03  S99
G1 X8.0 Y2.0
M03  S97
G1 X8.2 Y2.0
M03  S95
G1 X8.4 Y2.0
M03  S92
G1 X8.8 Y2.0
M03  S91
G1 X9.0 Y2.0
M03  S84
G1 X9.2 Y2.0
M03  S77
G1 X9.4 Y2.0
M03  S79
G1 X9.6 Y2.0
M03  S87
G1 X10.0 Y2.0
M03  S88
G1 X10.2 Y2.0
M03  S93
G1 X10.4 Y2.0
M03  S89
G1 X10.6 Y2.0
M03  S83
G1 X10.8 Y2.0
M03  S75
G1 X11.0 Y2.0
M03  S67
G1 X11.2 Y2.0
M03  S76
G1 X11.4 Y2.0
M03  S66
G1 X11.6 Y2.0
M03  S47
G1 X11.8 Y2.0
M03  S54
G1 X12.0 Y2.0
M03  S65
G1 X12.2 Y2.0
M03  S77
G1 X12.4 Y2.0
M03  S96
G1 X12.6 Y2.0
M03  S106
G1 X12.8 Y2.0
M03  S98
G1 X13.0 Y2.0
M03  S80
G1 X13.2 Y2.0
M03  S87
G1 X13.4 Y2.0
M03  S100
G1 X13.6 Y2.0
M03  S92
G1 X13.8 Y2.0
M03  S85
G1 X14.0 Y2.0
M03  S109
G1 X14.2 Y2.0
M03  S117
G1 X14.4 Y2.0
M03  S109
G1 X14.6 Y2.0
M03  S99
G1 X14.8 Y2.0
M03  S96
G1 X15.0 Y2.0
M03  S82
G1 X15.2 Y2.0
M03  S62
G1 X15.4 Y2.0
M03  S40
G1 X15.6 Y2.0
M03  S52
G1 X15.8 Y2.0
M03  S71
G1 X16.0 Y2.0
M03  S86
G1 X16.2 Y2.0
M03  S89
G1 X16.4 Y2.0
M03  S92
G1 X16.6 Y2.0
M03  S95
G1 X16.8 Y2.0
M03  S97
G1 X17.0 Y2.0
M03  S95
G1 X17.2 Y2.0
M03  S89
G1 X17.4 Y2.0
M03  S99
G1 X17.6 Y2.0
M03  S94
G1 X17.8 Y2.0
M03  S87
G1 X18.0 Y2.0
M03  S84
G1 X18.2 Y2.0
M03  S75
G1 X18.4 Y2.0
M03  S73
G1 X18.6 Y2.0
M03  S72
G1 X18.8 Y2.0
M03  S77
G1 X19.0 Y2.0
M03  S78
G1 X19.2 Y2.0
M03  S82
G1 X19.4 Y2.0
M03  S93
G1 X19.6 Y2.0
M03  S100
G1 X19.8 Y2.0
M03  S96
G1 X20.0 Y2.0
M03  S97
G1 X20.2 Y2.0
M03  S94
G1 X20.4 Y2.0
M03  S79
G1 X20.6 Y2.0
M03  S88
G1 X20.8 Y2.0
M03  S95
G1 X21.0 Y2.0
M03  S90
G1 X21.2 Y2.0
M03  S96
G1 X21.4 Y2.0
M03  S100
G1 X21.6 Y2.0
M03  S99
G1 X21.8 Y2.0
M03  S92
G1 X22.0 Y2.0
M03  S96
G1 X22.2 Y2.0
M03  S114
G1 X22.6 Y2.0
M03  S116
G1 X22.8 Y2.0
M03  S132
G1 X23.0 Y2.0
M03  S143
G1 X23.2 Y2.0
M03  S116
G1 X23.4 Y2.0
M03  S106
G1 X23.6 Y2.0
M03  S97
G1 X23.8 Y2.0
M03  S95
G1 X24.0 Y2.0
M03  S88
G1 X24.2 Y2.0
M03  S85
G1 X24.8 Y2.0
M03  S83
G1 X25.6 Y2.0
M03  S82
G1 X26.2 Y2.0
M03  S79
G1 X26.4 Y2.0
M03  S80
G1 X26.8 Y2.0
M03  S78
G1 X27.0 Y2.0
M03  S72
G1 X27.2 Y2.0
M03  S69
G1 X27.4 Y2.0
M03  S74
G1 X27.6 Y2.0
M03  S70
G1 X27.8 Y2.0
M03  S68
G1 X28.0 Y2.0
M03  S65
G1 X28.2 Y2.0
M03  S61
G1 X28.4 Y2.0
M03  S65
G1 X28.6 Y2.0
M03  S60
G1 X28.8 Y2.0
M03  S57
G1 X29.0 Y2.0
M03  S58
G1 X29.2 Y2.0
M03  S60
G1 X29.4 Y2.0
M03  S61
G1 X29.6 Y2.0
M03  S64
G1 X29.8 Y2.0
M03  S65
G1 X30.0 Y2.0
M03  S63
G1 X30.4 Y2.0
M03  S65
G1 X30.6 Y2.0
M03  S66
G1 X30.8 Y2.0
M03  S67
G1 X31.0 Y2.0
M03  S71
G1 X31.2 Y2.0
M03  S72
G1 X31.6 Y2.0
M03  S75
G1 X31.8 Y2.0
M03  S77
G1 X32.0 Y2.0
M03  S80
G1 X32.2 Y2.0
M03  S81
G1 X32.4 Y2.0
M03  S80
G1 X32.6 Y2.0
M03  S82
G1 X32.8 Y2.0
M03  S89
G1 X33.0 Y2.0
M03  S95
G1 X33.2 Y2.0
M03  S100
G1 X33.4 Y2.0
M03  S102
G1 X33.6 Y2.0
M03  S105
G1 X33.8 Y2.0
M03  S107
G1 X34.0 Y2.0
M03  S111
G1 X34.2 Y2.0
M03  S115
G1 X34.4 Y2.0
M03  S122
G1 X34.6 Y2.0
M03  S125
G1 X34.8 Y2.0
M03  S128
G1 X35.0 Y2.0
M03  S132
G1 X35.2 Y2.0
M03  S135
G1 X35.4 Y2.0
M03  S138
G1 X35.6 Y2.0
M03  S142
G1 X35.8 Y2.0
M03  S146
G1 X36.0 Y2.0
M03  S148
G1 X36.2 Y2.0
M03  S150
G1 X36.4 Y2.0
M03  S152
G1 X36.6 Y2.0
M03  S153
G1 X37.2 Y2.0
M03  S149
G1 X37.4 Y2.0
M03  S153
G1 X37.6 Y2.0
M03  S159
G1 X37.8 Y2.0
M03  S160
G1 X38.0 Y2.0
M03  S156
G1 X38.2 Y2.0
M03  S145
G1 X38.4 Y2.0
M03  S155
G1 X38.8 Y2.0
M03  S140
G1 X39.0 Y2.0
M03  S139
G1 X39.2 Y2.0
M03  S138
G1 X39.4 Y2.0
M03  S127
G1 X39.6 Y2.0
M03  S114
G1 X39.8 Y2.0
M03  S89
G1 X40.0 Y2.0
M03  S103
G1 X40.2 Y2.0
M03  S69
G1 X40.4 Y2.0
M03  S71
G1 X40.6 Y2.0
M03  S98
G1 X40.8 Y2.0
M03  S100
G1 X41.0 Y2.0
M03  S149
G1 X41.2 Y2.0
M03  S155
G1 X41.4 Y2.0
M03  S135
G1 X41.6 Y2.0
M03  S137
G1 X41.8 Y2.0
M03  S153
G1 X42.0 Y2.0
M03  S163
G1 X42.2 Y2.0
M03  S160
G1 X42.4 Y2.0
M03  S156
G1 X42.6 Y2.0
M03  S149
G1 X42.8 Y2.0
M03  S137
G1 X43.0 Y2.0
M03  S153
G1 X43.2 Y2.0
M03  S144
G1 X43.4 Y2.0
M03  S120
G1 X43.6 Y2.0
M03  S121
G1 X43.8 Y2.0
M03  S126
G1 X44.0 Y2.0
M03  S140
G1 X44.2 Y2.0
M03  S130
G1 X44.4 Y2.0
M03  S129
G1 X44.6 Y2.0
M03  S131
G1 X44.8 Y2.0
M03  S132
G1 X45.0 Y2.0
M03  S133
G1 X45.2 Y2.0
M03  S139
G1 X45.4 Y2.0
M03  S146
G1 X45.6 Y2.0
M03  S136
G1 X45.8 Y2.0
M03  S145
G1 X46.0 Y2.0
M03  S153
G1 X46.2 Y2.0
M03  S138
G1 X46.6 Y2.0
M03  S140
G1 X46.8 Y2.0
M03  S131
G1 X47.0 Y2.0
M03  S136
G1 X47.2 Y2.0
M03  S132
G1 X47.4 Y2.0
M03  S99
G1 X47.6 Y2.0
M03  S118
G1 X47.8 Y2.0
M03  S103
G1 X48.0 Y2.0
M03  S97
G1 X48.2 Y2.0
M03  S111
G1 X48.4 Y2.0
M03  S96
G1 X48.6 Y2.0
M03  S89
G1 X48.8 Y2.0
M03  S92
G1 X49.0 Y2.0
M03  S90
G1 X49.2 Y2.0
M03  S85
G1 X49.6 Y2.0
M03  S83
G1 X49.8 Y2.0
M03  S88
G1 X50.0 Y2.0
M03  S87
G1 X50.2 Y2.0
M03  S82
G1 X50.4 Y2.0
M03  S78
G1 X50.6 Y2.0
M03  S76
G1 X50.8 Y2.0
M03  S81
G1 X51.0 Y2.0
M03  S83
G1 X51.2 Y2.0
M03  S79
G1 X51.4 Y2.0
M03  S78
G1 X51.6 Y2.0
M03  S73
G1 X51.8 Y2.0
M03  S84
G1 X52.0 Y2.0
M03  S76
G1 X52.2 Y2.0
M03  S78
G1 X52.4 Y2.0
M03  S90
G1 X52.6 Y2.0
M03  S85
G1 X52.8 Y2.0
M03  S88
G1 X53.0 Y2.0
M03  S78
G1 X53.2 Y2.0
M03  S64
G1 X53.4 Y2.0
M03  S65
G1 X53.6 Y2.0
M03  S68
G1 X53.8 Y2.0
M03  S72
G1 X54.0 Y2.0
M03  S63
G1 X54.2 Y2.0
M03  S59
G1 X54.4 Y2.0
M03  S57
G1 X54.6 Y2.0
M03  S50
G1 X54.8 Y2.0
M03  S54
G1 X55.0 Y2.0
M03  S53
G1 X55.2 Y2.0
M03  S52
G1 X55.4 Y2.0
M03  S51
G1 X55.6 Y2.0
M03  S55
G1 X55.8 Y2.0
M03  S60
G1 X56.2 Y2.0
M03  S61
G1 X56.4 Y2.0
M03  S56
G1 X56.6 Y2.0
M03  S57
G1 X56.8 Y2.0
M03  S62
G1 X57.0 Y2.0
M03  S54
G1 X57.2 Y2.0
M03  S57
G1 X57.4 Y2.0
M03  S65
G1 X57.8 Y2.0
M03  S59
G1 X58.0 Y2.0
M03  S57
G1 X58.2 Y2.0
M03  S55
G1 X58.4 Y2.0
M03  S53
G1 X58.6 Y2.0
M03  S52
G1 X58.8 Y2.0
M03  S49
G1 X59.0 Y2.0
M03  S53
G1 X59.2 Y2.0
M03  S56
G1 X59.4 Y2.0
M03  S50
G1 X59.6 Y2.0
M03  S46
G1 X59.8 Y2.0
M03  S50
G1 X60.0 Y2.0
M03  S54
G1 X60.2 Y2.0
M03  S53
G1 X60.4 Y2.0
M03  S50
G1 X60.6 Y2.0
M05
G0 X60.6 Y2.2
M03  S48
G1 X60.4 Y2.2
M03  S45
G1 X60.2 Y2.2
M03  S46
G1 X60.0 Y2.2
M03  S51
G1 X59.6 Y2.2
M03  S49
G1 X59.2 Y2.2
M03  S54
G1 X59.0 Y2.2
M03  S58
G1 X58.8 Y2.2
M03  S52
G1 X58.6 Y2.2
M03  S51
G1 X58.2 Y2.2
M03  S55
G1 X58.0 Y2.2
M03  S63
G1 X57.8 Y2.2
M03  S71
G1 X57.6 Y2.2
M03  S72
G1 X57.4 Y2.2
M03  S68
G1 X57.2 Y2.2
M03  S58
G1 X56.8 Y2.2
M03  S64
G1 X56.6 Y2.2
M03  S63
G1 X56.4 Y2.2
M03  S65
G1 X56.2 Y2.2
M03  S57
G1 X56.0 Y2.2
M03  S52
G1 X55.8 Y2.2
M03  S53
G1 X55.6 Y2.2
M03  S56
G1 X55.4 Y2.2
M03  S51
G1 X55.2 Y2.2
M03  S56
G1 X55.0 Y2.2
M03  S49
G1 X54.8 Y2.2
M03  S48
G1 X54.6 Y2.2
M03  S55
G1 X54.4 Y2.2
M03  S59
G1 X54.2 Y2.2
M03  S64
G1 X54.0 Y2.2
M03  S70
G1 X53.8 Y2.2
M03  S67
G1 X53.6 Y2.2
M03  S65
G1 X53.4 Y2.2
M03  S66
G1 X53.2 Y2.2
M03  S82
G1 X53.0 Y2.2
M03  S89
G1 X52.8 Y2.2
M03  S87
G1 X52.6 Y2.2
M03  S83
G1 X52.4 Y2.2
M03  S79
G1 X52.2 Y2.2
M03  S83
G1 X52.0 Y2.2
M03  S84
G1 X51.8 Y2.2
M03  S82
G1 X51.6 Y2.2
M03  S72
G1 X51.4 Y2.2
M03  S73
G1 X51.2 Y2.2
M03  S79
G1 X51.0 Y2.2
M03  S72
G1 X50.8 Y2.2
M03  S74
G1 X50.6 Y2.2
M03  S79
G1 X50.4 Y2.2
M03  S83
G1 X50.2 Y2.2
M03  S87
G1 X50.0 Y2.2
M03  S81
G1 X49.8 Y2.2
M03  S78
G1 X49.6 Y2.2
M03  S85
G1 X49.2 Y2.2
M03  S90
G1 X49.0 Y2.2
M03  S97
G1 X48.8 Y2.2
M03  S88
G1 X48.6 Y2.2
M03  S101
G1 X48.4 Y2.2
M03  S107
G1 X48.2 Y2.2
M03  S100
G1 X48.0 Y2.2
M03  S112
G1 X47.8 Y2.2
M03  S109
G1 X47.4 Y2.2
M03  S148
G1 X47.2 Y2.2
M03  S122
G1 X47.0 Y2.2
M03  S136
G1 X46.8 Y2.2
M03  S140
G1 X46.6 Y2.2
M03  S138
G1 X46.4 Y2.2
M03  S156
G1 X46.2 Y2.2
M03  S153
G1 X46.0 Y2.2
M03  S151
G1 X45.8 Y2.2
M03  S128
G1 X45.6 Y2.2
M03  S136
G1 X45.2 Y2.2
M03  S133
G1 X45.0 Y2.2
M03  S132
G1 X44.8 Y2.2
M03  S130
G1 X44.6 Y2.2
M03  S129
G1 X44.4 Y2.2
M03  S134
G1 X44.2 Y2.2
M03  S135
G1 X44.0 Y2.2
M03  S129
G1 X43.8 Y2.2
M03  S116
G1 X43.6 Y2.2
M03  S125
G1 X43.4 Y2.2
M03  S161
G1 X43.2 Y2.2
M03  S144
G1 X43.0 Y2.2
M03  S116
G1 X42.8 Y2.2
M03  S141
G1 X42.6 Y2.2
M03  S157
G1 X42.4 Y2.2
M03  S162
G1 X42.2 Y2.2
M03  S160
G1 X42.0 Y2.2
M03  S150
G1 X41.8 Y2.2
M03  S131
G1 X41.6 Y2.2
M03  S136
G1 X41.4 Y2.2
M03  S156
G1 X41.2 Y2.2
M03  S151
G1 X41.0 Y2.2
M03  S136
G1 X40.8 Y2.2
M03  S105
G1 X40.6 Y2.2
M03  S117
G1 X40.4 Y2.2
M03  S116
G1 X40.2 Y2.2
M03  S127
G1 X40.0 Y2.2
M03  S142
G1 X39.8 Y2.2
M03  S133
G1 X39.6 Y2.2
M03  S135
G1 X39.4 Y2.2
M03  S139
G1 X39.0 Y2.2
M03  S152
G1 X38.8 Y2.2
M03  S154
G1 X38.6 Y2.2
M03  S149
G1 X38.4 Y2.2
M03  S156
G1 X38.2 Y2.2
M03  S157
G1 X38.0 Y2.2
M03  S156
G1 X37.8 Y2.2
M03  S153
G1 X37.6 Y2.2
M03  S150
G1 X37.4 Y2.2
M03  S148
G1 X37.2 Y2.2
M03  S150
G1 X37.0 Y2.2
M03  S151
G1 X36.8 Y2.2
M03  S150
G1 X36.6 Y2.2
M03  S149
G1 X36.2 Y2.2
M03  S148
G1 X36.0 Y2.2
M03  S145
G1 X35.8 Y2.2
M03  S140
G1 X35.6 Y2.2
M03  S135
G1 X35.4 Y2.2
M03  S131
G1 X35.2 Y2.2
M03  S128
G1 X35.0 Y2.2
M03  S125
G1 X34.8 Y2.2
M03  S122
G1 X34.6 Y2.2
M03  S119
G1 X34.4 Y2.2
M03  S114
G1 X34.2 Y2.2
M03  S110
G1 X34.0 Y2.2
M03  S106
G1 X33.8 Y2.2
M03  S103
G1 X33.6 Y2.2
M03  S98
G1 X33.4 Y2.2
M03  S97
G1 X33.2 Y2.2
M03  S92
G1 X33.0 Y2.2
M03  S81
G1 X32.6 Y2.2
M03  S83
G1 X32.4 Y2.2
M03  S81
G1 X32.2 Y2.2
M03  S77
G1 X32.0 Y2.2
M03  S75
G1 X31.8 Y2.2
M03  S73
G1 X31.6 Y2.2
M03  S72
G1 X31.4 Y2.2
M03  S71
G1 X31.2 Y2.2
M03  S70
G1 X31.0 Y2.2
M03  S67
G1 X30.8 Y2.2
M03  S65
G1 X30.4 Y2.2
M03  S66
G1 X30.2 Y2.2
M03  S68
G1 X30.0 Y2.2
M03  S65
G1 X29.8 Y2.2
M03  S61
G1 X29.6 Y2.2
M03  S60
G1 X29.4 Y2.2
M03  S59
G1 X29.0 Y2.2
M03  S61
G1 X28.6 Y2.2
M03  S63
G1 X28.4 Y2.2
M03  S60
G1 X28.2 Y2.2
M03  S62
G1 X28.0 Y2.2
M03  S68
G1 X27.8 Y2.2
M03  S77
G1 X27.4 Y2.2
M03  S75
G1 X27.2 Y2.2
M03  S76
G1 X27.0 Y2.2
M03  S79
G1 X26.8 Y2.2
M03  S81
G1 X26.4 Y2.2
M03  S80
G1 X26.2 Y2.2
M03  S82
G1 X25.6 Y2.2
M03  S83
G1 X25.4 Y2.2
M03  S84
G1 X25.0 Y2.2
M03  S85
G1 X24.8 Y2.2
M03  S84
G1 X24.6 Y2.2
M03  S85
G1 X24.4 Y2.2
M03  S89
G1 X24.2 Y2.2
M03  S90
G1 X24.0 Y2.2
M03  S95
G1 X23.8 Y2.2
M03  S101
G1 X23.6 Y2.2
M03  S113
G1 X23.4 Y2.2
M03  S140
G1 X23.2 Y2.2
M03  S139
G1 X23.0 Y2.2
M03  S113
G1 X22.8 Y2.2
M03  S116
G1 X22.4 Y2.2
M03  S105
G1 X22.2 Y2.2
M03  S107
G1 X22.0 Y2.2
M03  S103
G1 X21.8 Y2.2
M03  S99
G1 X21.6 Y2.2
M03  S101
G1 X21.4 Y2.2
M03  S96
G1 X21.2 Y2.2
M03  S104
G1 X20.8 Y2.2
M03  S92
G1 X20.6 Y2.2
M03  S86
G1 X20.4 Y2.2
M03  S97
G1 X20.2 Y2.2
M03  S113
G1 X20.0 Y2.2
M03  S127
G1 X19.8 Y2.2
M03  S119
G1 X19.6 Y2.2
M03  S91
G1 X19.4 Y2.2
M03  S78
G1 X19.2 Y2.2
M03  S79
G1 X19.0 Y2.2
M03  S80
G1 X18.8 Y2.2
M03  S71
G1 X18.4 Y2.2
M03  S84
G1 X18.2 Y2.2
M03  S98
G1 X18.0 Y2.2
M03  S100
G1 X17.8 Y2.2
M03  S95
G1 X17.6 Y2.2
M03  S79
G1 X17.4 Y2.2
M03  S84
G1 X17.2 Y2.2
M03  S100
G1 X17.0 Y2.2
M03  S97
G1 X16.8 Y2.2
M03  S92
G1 X16.6 Y2.2
M03  S87
G1 X16.4 Y2.2
M03  S81
G1 X16.2 Y2.2
M03  S67
G1 X16.0 Y2.2
M03  S56
G1 X15.8 Y2.2
M03  S41
G1 X15.6 Y2.2
M03  S36
G1 X15.4 Y2.2
M03  S64
G1 X15.2 Y2.2
M03  S89
G1 X15.0 Y2.2
M03  S100
G1 X14.8 Y2.2
M03  S98
G1 X14.6 Y2.2
M03  S96
G1 X14.4 Y2.2
M03  S97
G1 X14.2 Y2.2
M03  S102
G1 X14.0 Y2.2
M03  S81
G1 X13.8 Y2.2
M03  S76
G1 X13.6 Y2.2
M03  S83
G1 X13.4 Y2.2
M03  S73
G1 X13.2 Y2.2
M03  S72
G1 X13.0 Y2.2
M03  S93
G1 X12.8 Y2.2
M03  S104
G1 X12.6 Y2.2
M03  S101
G1 X12.4 Y2.2
M03  S88
G1 X12.2 Y2.2
M03  S79
G1 X12.0 Y2.2
M03  S61
G1 X11.8 Y2.2
M03  S47
G1 X11.6 Y2.2
M03  S57
G1 X11.4 Y2.2
M03  S81
G1 X11.2 Y2.2
M03  S84
G1 X10.8 Y2.2
M03  S91
G1 X10.6 Y2.2
M03  S89
G1 X10.4 Y2.2
M03  S86
G1 X10.2 Y2.2
M03  S79
G1 X10.0 Y2.2
M03  S78
G1 X9.8 Y2.2
M03  S85
G1 X9.6 Y2.2
M03  S84
G1 X9.4 Y2.2
M03  S82
G1 X9.2 Y2.2
M03  S86
G1 X9.0 Y2.2
M03  S91
G1 X8.8 Y2.2
M03  S88
G1 X8.6 Y2.2
M03  S91
G1 X8.4 Y2.2
M03  S99
G1 X8.2 Y2.2
M03  S105
G1 X8.0 Y2.2
M03  S107
G1 X7.8 Y2.2
M03  S108
G1 X7.6 Y2.2
M03  S110
G1 X7.4 Y2.2
M03  S109
G1 X7.2 Y2.2
M03  S100
G1 X6.8 Y2.2
M03  S102
G1 X6.6 Y2.2
M03  S104
G1 X6.4 Y2.2
M03  S103
G1 X6.2 Y2.2
M03  S100
G1 X6.0 Y2.2
M03  S91
G1 X5.8 Y2.2
M03  S73
G1 X5.6 Y2.2
M03  S69
G1 X5.4 Y2.2
M03  S72
G1 X5.2 Y2.2
M03  S64
G1 X5.0 Y2.2
M03  S61
G1 X4.8 Y2.2
M03  S73
G1 X4.4 Y2.2
M03  S70
G1 X4.2 Y2.2
M03  S87
G1 X4.0 Y2.2
M03  S125
G1 X3.8 Y2.2
M03  S151
G1 X3.6 Y2.2
M03  S119
G1 X3.4 Y2.2
M03  S114
G1 X3.2 Y2.2
M03  S107
G1 X3.0 Y2.2
M03  S119
G1 X2.8 Y2.2
M03  S156
G1 X2.6 Y2.2
M03  S166
G1 X2.4 Y2.2
M03  S155
G1 X2.2 Y2.2
M03  S135
G1 X2.0 Y2.2
M03  S144
G1 X1.8 Y2.2
M03  S133
G1 X1.6 Y2.2
M03  S126
G1 X1.4 Y2.2
M03  S138
G1 X1.0 Y2.2
M03  S132
G1 X0.8 Y2.2
M03  S128
G1 X0.6 Y2.2
M03  S133
G1 X0.4 Y2.2
M03  S135
G1 X0.2 Y2.2
M03  S125
G1 X0.0 Y2.2
M05
G0 X0.0 Y2.4
M03  S125
G1 X0.2 Y2.4
M03  S134
G1 X0.4 Y2.4
M03  S129
G1 X0.6 Y2.4
M03  S122
G1 X0.8 Y2.4
M03  S124
G1 X1.0 Y2.4
M03  S132
G1 X1.2 Y2.4
M03  S138
G1 X1.4 Y2.4
M03  S124
G1 X1.6 Y2.4
M03  S113
G1 X1.8 Y2.4
M03  S129
G1 X2.0 Y2.4
M03  S116
G1 X2.2 Y2.4
M03  S137
G1 X2.4 Y2.4
M03  S163
G1 X2.6 Y2.4
M03  S161
G1 X2.8 Y2.4
M03  S140
G1 X3.0 Y2.4
M03  S123
G1 X3.2 Y2.4
M03  S134
G1 X3.4 Y2.4
M03  S123
G1 X3.6 Y2.4
M03  S137
G1 X3.8 Y2.4
M03  S140
G1 X4.0 Y2.4
M03  S101
G1 X4.2 Y2.4
M03  S93
G1 X4.4 Y2.4
M03  S89
G1 X4.6 Y2.4
M03  S93
G1 X4.8 Y2.4
M03  S90
G1 X5.2 Y2.4
M03  S79
G1 X5.4 Y2.4
M03  S70
G1 X5.6 Y2.4
M03  S63
G1 X5.8 Y2.4
M03  S81
G1 X6.0 Y2.4
M03  S92
G1 X6.2 Y2.4
M03  S94
G1 X6.4 Y2.4
M03  S95
G1 X6.6 Y2.4
M03  S94
G1 X6.8 Y2.4
M03  S99
G1 X7.0 Y2.4
M03  S106
G1 X7.2 Y2.4
M03  S104
G1 X7.4 Y2.4
M03  S103
G1 X7.6 Y2.4
M03  S105
G1 X7.8 Y2.4
M03  S106
G1 X8.0 Y2.4
M03  S105
G1 X8.2 Y2.4
M03  S99
G1 X8.4 Y2.4
M03  S92
G1 X8.6 Y2.4
M03  S89
G1 X8.8 Y2.4
M03  S90
G1 X9.0 Y2.4
M03  S89
G1 X9.6 Y2.4
M03  S83
G1 X9.8 Y2.4
M03  S76
G1 X10.0 Y2.4
M03  S80
G1 X10.2 Y2.4
M03  S82
G1 X10.6 Y2.4
M03  S88
G1 X10.8 Y2.4
M03  S89
G1 X11.0 Y2.4
M03  S86
G1 X11.2 Y2.4
M03  S80
G1 X11.4 Y2.4
M03  S65
G1 X11.6 Y2.4
M03  S64
G1 X11.8 Y2.4
M03  S88
G1 X12.0 Y2.4
M03  S90
G1 X12.2 Y2.4
M03  S91
G1 X12.4 Y2.4
M03  S102
G1 X12.6 Y2.4
M03  S104
G1 X12.8 Y2.4
M03  S85
G1 X13.0 Y2.4
M03  S64
G1 X13.2 Y2.4
M03  S67
G1 X13.4 Y2.4
M03  S79
G1 X13.6 Y2.4
M03  S78
G1 X13.8 Y2.4
M03  S90
G1 X14.0 Y2.4
M03  S106
G1 X14.2 Y2.4
M03  S107
G1 X14.4 Y2.4
M03  S105
G1 X14.6 Y2.4
M03  S95
G1 X14.8 Y2.4
M03  S84
G1 X15.0 Y2.4
M03  S77
G1 X15.2 Y2.4
M03  S71
G1 X15.4 Y2.4
M03  S67
G1 X15.6 Y2.4
M03  S68
G1 X15.8 Y2.4
M03  S67
G1 X16.0 Y2.4
M03  S66
G1 X16.2 Y2.4
M03  S68
G1 X16.4 Y2.4
M03  S77
G1 X16.6 Y2.4
M03  S86
G1 X16.8 Y2.4
M03  S94
G1 X17.0 Y2.4
M03  S97
G1 X17.2 Y2.4
M03  S92
G1 X17.4 Y2.4
M03  S76
G1 X17.6 Y2.4
M03  S83
G1 X17.8 Y2.4
M03  S99
G1 X18.0 Y2.4
M03  S93
G1 X18.2 Y2.4
M03  S82
G1 X18.4 Y2.4
M03  S73
G1 X18.6 Y2.4
M03  S72
G1 X18.8 Y2.4
M03  S75
G1 X19.0 Y2.4
M03  S73
G1 X19.2 Y2.4
M03  S74
G1 X19.4 Y2.4
M03  S86
G1 X19.6 Y2.4
M03  S102
G1 X19.8 Y2.4
M03  S115
G1 X20.0 Y2.4
M03  S130
G1 X20.2 Y2.4
M03  S124
G1 X20.4 Y2.4
M03  S123
G1 X20.6 Y2.4
M03  S114
G1 X20.8 Y2.4
M03  S101
G1 X21.0 Y2.4
M03  S104
G1 X21.2 Y2.4
M03  S106
G1 X21.4 Y2.4
M03  S104
G1 X21.8 Y2.4
M03  S105
G1 X22.0 Y2.4
M03  S100
G1 X22.2 Y2.4
M03  S109
G1 X22.4 Y2.4
M03  S118
G1 X22.6 Y2.4
M03  S112
G1 X22.8 Y2.4
M03  S105
G1 X23.0 Y2.4
M03  S126
G1 X23.2 Y2.4
M03  S148
G1 X23.4 Y2.4
M03  S125
G1 X23.6 Y2.4
M03  S109
G1 X23.8 Y2.4
M03  S98
G1 X24.0 Y2.4
M03  S95
G1 X24.2 Y2.4
M03  S92
G1 X24.4 Y2.4
M03  S82
G1 X24.6 Y2.4
M03  S81
G1 X24.8 Y2.4
M03  S86
G1 X25.2 Y2.4
M03  S84
G1 X25.4 Y2.4
M03  S83
G1 X25.6 Y2.4
M03  S82
G1 X26.2 Y2.4
M03  S81
G1 X26.4 Y2.4
M03  S82
G1 X26.8 Y2.4
M03  S80
G1 X27.0 Y2.4
M03  S79
G1 X27.2 Y2.4
M03  S80
G1 X27.4 Y2.4
M03  S78
G1 X27.8 Y2.4
M03  S66
G1 X28.0 Y2.4
M03  S64
G1 X28.2 Y2.4
M03  S67
G1 X28.4 Y2.4
M03  S64
G1 X28.6 Y2.4
M03  S58
G1 X28.8 Y2.4
M03  S61
G1 X29.0 Y2.4
M03  S60
G1 X29.2 Y2.4
M03  S59
G1 X29.4 Y2.4
M03  S58
G1 X29.6 Y2.4
M03  S61
G1 X29.8 Y2.4
M03  S64
G1 X30.8 Y2.4
M03  S66
G1 X31.0 Y2.4
M03  S69
G1 X31.2 Y2.4
M03  S70
G1 X31.4 Y2.4
M03  S71
G1 X31.6 Y2.4
M03  S70
G1 X31.8 Y2.4
M03  S72
G1 X32.0 Y2.4
M03  S75
G1 X32.2 Y2.4
M03  S77
G1 X32.4 Y2.4
M03  S82
G1 X32.6 Y2.4
M03  S83
G1 X32.8 Y2.4
M03  S79
G1 X33.0 Y2.4
M03  S88
G1 X33.2 Y2.4
M03  S93
G1 X33.4 Y2.4
M03  S94
G1 X33.6 Y2.4
M03  S101
G1 X33.8 Y2.4
M03  S105
G1 X34.0 Y2.4
M03  S109
G1 X34.2 Y2.4
M03  S112
G1 X34.4 Y2.4
M03  S116
G1 X34.6 Y2.4
M03  S119
G1 X34.8 Y2.4
M03  S122
G1 X35.0 Y2.4
M03  S124
G1 X35.2 Y2.4
M03  S127
G1 X35.4 Y2.4
M03  S131
G1 X35.6 Y2.4
M03  S137
G1 X35.8 Y2.4
M03  S141
G1 X36.0 Y2.4
M03  S144
G1 X36.2 Y2.4
M03  S146
G1 X36.6 Y2.4
M03  S147
G1 X36.8 Y2.4
M03  S148
G1 X37.0 Y2.4
M03  S147
G1 X37.2 Y2.4
M03  S149
G1 X37.4 Y2.4
M03  S148
G1 X37.8 Y2.4
M03  S151
G1 X38.0 Y2.4
M03  S155
G1 X38.2 Y2.4
M03  S158
G1 X38.4 Y2.4
M03  S155
G1 X38.6 Y2.4
M03  S149
G1 X38.8 Y2.4
M03  S153
G1 X39.0 Y2.4
M03  S148
G1 X39.2 Y2.4
M03  S137
G1 X39.4 Y2.4
M03  S135
G1 X39.6 Y2.4
M03  S137
G1 X39.8 Y2.4
M03  S123
G1 X40.0 Y2.4
M03  S120
G1 X40.2 Y2.4
M03  S122
G1 X40.4 Y2.4
M03  S107
G1 X40.6 Y2.4
M03  S113
G1 X40.8 Y2.4
M03  S135
G1 X41.0 Y2.4
M03  S117
G1 X41.2 Y2.4
M03  S128
G1 X41.4 Y2.4
M03  S138
G1 X41.6 Y2.4
M03  S132
G1 X41.8 Y2.4
M03  S142
G1 X42.0 Y2.4
M03  S154
G1 X42.2 Y2.4
M03  S162
G1 X42.4 Y2.4
M03  S160
G1 X42.6 Y2.4
M03  S153
G1 X42.8 Y2.4
M03  S136
G1 X43.0 Y2.4
M03  S133
G1 X43.2 Y2.4
M03  S154
G1 X43.4 Y2.4
M03  S152
G1 X43.6 Y2.4
M03  S110
G1 X43.8 Y2.4
M03  S134
G1 X44.0 Y2.4
M03  S139
G1 X44.2 Y2.4
M03  S136
G1 X44.4 Y2.4
M03  S129
G1 X44.6 Y2.4
M03  S130
G1 X44.8 Y2.4
M03  S132
G1 X45.0 Y2.4
M03  S133
G1 X45.2 Y2.4
M03  S141
G1 X45.4 Y2.4
M03  S136
G1 X45.6 Y2.4
M03  S120
G1 X45.8 Y2.4
M03  S139
G1 X46.0 Y2.4
M03  S150
G1 X46.2 Y2.4
M03  S126
G1 X46.4 Y2.4
M03  S116
G1 X46.6 Y2.4
M03  S136
G1 X46.8 Y2.4
M03  S139
G1 X47.0 Y2.4
M03  S115
G1 X47.2 Y2.4
M03  S125
G1 X47.6 Y2.4
M03  S104
G1 X47.8 Y2.4
M03  S100
G1 X48.0 Y2.4
M03  S111
G1 X48.2 Y2.4
M03  S112
G1 X48.4 Y2.4
M03  S110
G1 X48.6 Y2.4
M03  S96
G1 X48.8 Y2.4
M03  S93
G1 X49.0 Y2.4
M03  S85
G1 X49.2 Y2.4
M03  S81
G1 X49.4 Y2.4
M03  S88
G1 X49.6 Y2.4
M03  S82
G1 X49.8 Y2.4
M03  S87
G1 X50.0 Y2.4
M03  S82
G1 X50.2 Y2.4
M03  S76
G1 X50.4 Y2.4
M03  S74
G1 X50.6 Y2.4
M03  S69
G1 X50.8 Y2.4
M03  S71
G1 X51.0 Y2.4
M03  S77
G1 X51.2 Y2.4
M03  S79
G1 X51.6 Y2.4
M03  S84
G1 X51.8 Y2.4
M03  S79
G1 X52.0 Y2.4
M03  S81
G1 X52.2 Y2.4
M03  S78
G1 X52.4 Y2.4
M03  S84
G1 X52.6 Y2.4
M03  S82
G1 X52.8 Y2.4
M03  S84
G1 X53.0 Y2.4
M03  S70
G1 X53.2 Y2.4
M03  S67
G1 X53.4 Y2.4
M03  S65
G1 X53.6 Y2.4
M03  S63
G1 X53.8 Y2.4
M03  S65
G1 X54.0 Y2.4
M03  S66
G1 X54.2 Y2.4
M03  S68
G1 X54.4 Y2.4
M03  S63
G1 X54.6 Y2.4
M03  S57
G1 X54.8 Y2.4
M03  S56
G1 X55.2 Y2.4
M03  S52
G1 X55.4 Y2.4
M03  S51
G1 X55.6 Y2.4
M03  S46
G1 X56.0 Y2.4
M03  S55
G1 X56.2 Y2.4
M03  S65
G1 X56.4 Y2.4
M03  S59
G1 X56.6 Y2.4
M03  S57
G1 X57.0 Y2.4
M03  S62
G1 X57.2 Y2.4
M03  S73
G1 X57.4 Y2.4
M03  S69
G1 X57.6 Y2.4
M03  S66
G1 X57.8 Y2.4
M03  S63
G1 X58.0 Y2.4
M03  S53
G1 X58.2 Y2.4
M03  S48
G1 X58.4 Y2.4
M03  S53
G1 X58.8 Y2.4
M03  S58
G1 X59.0 Y2.4
M03  S53
G1 X59.2 Y2.4
M03  S43
G1 X59.4 Y2.4
M03  S45
G1 X59.6 Y2.4
M03  S47
G1 X60.0 Y2.4
M03  S54
G1 X60.2 Y2.4
M03  S60
G1 X60.4 Y2.4
M03  S59
G1 X60.6 Y2.4
M05
G0 X60.6 Y2.6
M03  S64
G1 X60.4 Y2.6
M03  S68
G1 X60.2 Y2.6
M03  S51
G1 X60.0 Y2.6
M03  S40
G1 X59.8 Y2.6
M03  S44
G1 X59.6 Y2.6
M03  S45
G1 X59.2 Y2.6
M03  S47
G1 X59.0 Y2.6
M03  S49
G1 X58.8 Y2.6
M03  S50
G1 X58.6 Y2.6
M03  S49
G1 X58.4 Y2.6
M03  S43
G1 X58.2 Y2.6
M03  S51
G1 X58.0 Y2.6
M03  S58
G1 X57.8 Y2.6
M03  S55
G1 X57.6 Y2.6
M03  S57
G1 X57.4 Y2.6
M03  S66
G1 X57.2 Y2.6
M03  S60
G1 X57.0 Y2.6
M03  S59
G1 X56.8 Y2.6
M03  S57
G1 X56.6 Y2.6
M03  S58
G1 X56.4 Y2.6
M03  S64
G1 X56.2 Y2.6
M03  S59
G1 X56.0 Y2.6
M03  S53
G1 X55.8 Y2.6
M03  S45
G1 X55.6 Y2.6
M03  S46
G1 X55.4 Y2.6
M03  S57
G1 X55.2 Y2.6
M03  S58
G1 X55.0 Y2.6
M03  S66
G1 X54.6 Y2.6
M03  S65
G1 X54.4 Y2.6
M03  S69
G1 X54.2 Y2.6
M03  S60
G1 X54.0 Y2.6
M03  S57
G1 X53.8 Y2.6
M03  S64
G1 X53.6 Y2.6
M03  S63
G1 X53.4 Y2.6
M03  S65
G1 X53.2 Y2.6
M03  S72
G1 X53.0 Y2.6
M03  S87
G1 X52.8 Y2.6
M03  S78
G1 X52.6 Y2.6
M03  S77
G1 X52.4 Y2.6
M03  S65
G1 X52.2 Y2.6
M03  S64
G1 X52.0 Y2.6
M03  S72
G1 X51.8 Y2.6
M03  S77
G1 X51.6 Y2.6
M03  S79
G1 X51.4 Y2.6
M03  S78
G1 X51.2 Y2.6
M03  S76
G1 X51.0 Y2.6
M03  S70
G1 X50.8 Y2.6
M03  S69
G1 X50.6 Y2.6
M03  S80
G1 X50.4 Y2.6
M03  S82
G1 X50.2 Y2.6
M03  S73
G1 X50.0 Y2.6
M03  S78
G1 X49.8 Y2.6
M03  S81
G1 X49.4 Y2.6
M03  S77
G1 X49.2 Y2.6
M03  S90
G1 X49.0 Y2.6
M03  S99
G1 X48.8 Y2.6
M03  S101
G1 X48.6 Y2.6
M03  S98
G1 X48.4 Y2.6
M03  S108
G1 X48.2 Y2.6
M03  S103
G1 X48.0 Y2.6
M03  S97
G1 X47.8 Y2.6
M03  S126
G1 X47.6 Y2.6
M03  S141
G1 X47.4 Y2.6
M03  S119
G1 X47.2 Y2.6
M03  S113
G1 X47.0 Y2.6
M03  S133
G1 X46.8 Y2.6
M03  S140
G1 X46.6 Y2.6
M03  S130
G1 X46.4 Y2.6
M03  S140
G1 X46.2 Y2.6
M03  S138
G1 X46.0 Y2.6
M03  S141
G1 X45.8 Y2.6
M03  S154
G1 X45.6 Y2.6
M03  S156
G1 X45.4 Y2.6
M03  S142
G1 X45.2 Y2.6
M03  S129
G1 X45.0 Y2.6
M03  S132
G1 X44.8 Y2.6
M03  S131
G1 X44.4 Y2.6
M03  S144
G1 X44.2 Y2.6
M03  S136
G1 X44.0 Y2.6
M03  S120
G1 X43.8 Y2.6
M03  S121
G1 X43.6 Y2.6
M03  S166
G1 X43.4 Y2.6
M03  S141
G1 X43.2 Y2.6
M03  S128
G1 X43.0 Y2.6
M03  S142
G1 X42.8 Y2.6
M03  S150
G1 X42.6 Y2.6
M03  S163
G1 X42.4 Y2.6
M03  S158
G1 X42.2 Y2.6
M03  S148
G1 X42.0 Y2.6
M03  S138
G1 X41.8 Y2.6
M03  S131
G1 X41.6 Y2.6
M03  S133
G1 X41.4 Y2.6
M03  S120
G1 X41.2 Y2.6
M03  S114
G1 X41.0 Y2.6
M03  S110
G1 X40.8 Y2.6
M03  S115
G1 X40.6 Y2.6
M03  S106
G1 X40.4 Y2.6
M03  S115
G1 X40.2 Y2.6
M03  S134
G1 X40.0 Y2.6
M03  S145
G1 X39.8 Y2.6
M03  S142
G1 X39.6 Y2.6
M03  S145
G1 X39.4 Y2.6
M03  S151
G1 X39.2 Y2.6
M03  S156
G1 X39.0 Y2.6
M03  S149
G1 X38.8 Y2.6
M03  S156
G1 X38.6 Y2.6
M03  S158
G1 X38.4 Y2.6
M03  S154
G1 X38.2 Y2.6
M03  S150
G1 X38.0 Y2.6
M03  S148
G1 X37.8 Y2.6
M03  S144
G1 X37.6 Y2.6
M03  S142
G1 X37.4 Y2.6
M03  S143
G1 X37.2 Y2.6
M03  S142
G1 X37.0 Y2.6
M03  S145
G1 X36.6 Y2.6
M03  S144
G1 X36.4 Y2.6
M03  S142
G1 X36.2 Y2.6
M03  S140
G1 X36.0 Y2.6
M03  S138
G1 X35.8 Y2.6
M03  S133
G1 X35.6 Y2.6
M03  S129
G1 X35.4 Y2.6
M03  S125
G1 X35.2 Y2.6
M03  S121
G1 X35.0 Y2.6
M03  S119
G1 X34.8 Y2.6
M03  S116
G1 X34.6 Y2.6
M03  S113
G1 X34.4 Y2.6
M03  S109
G1 X34.2 Y2.6
M03  S105
G1 X34.0 Y2.6
M03  S101
G1 X33.8 Y2.6
M03  S98
G1 X33.6 Y2.6
M03  S91
G1 X33.4 Y2.6
M03  S86
G1 X33.2 Y2.6
M03  S85
G1 X33.0 Y2.6
M03  S80
G1 X32.8 Y2.6
M03  S81
G1 X32.6 Y2.6
M03  S78
G1 X32.4 Y2.6
M03  S74
G1 X32.2 Y2.6
M03  S73
G1 X32.0 Y2.6
M03  S72
G1 X31.8 Y2.6
M03  S70
G1 X31.6 Y2.6
M03  S69
G1 X31.4 Y2.6
M03  S68
G1 X31.2 Y2.6
M03  S67
G1 X31.0 Y2.6
M03  S64
G1 X30.8 Y2.6
M03  S62
G1 X30.6 Y2.6
M03  S63
G1 X30.2 Y2.6
M03  S61
G1 X29.8 Y2.6
M03  S60
G1 X29.6 Y2.6
M03  S58
G1 X29.4 Y2.6
M03  S59
G1 X28.8 Y2.6
M03  S57
G1 X28.6 Y2.6
M03  S66
G1 X28.4 Y2.6
M03  S70
G1 X28.2 Y2.6
M03  S66
G1 X28.0 Y2.6
M03  S68
G1 X27.8 Y2.6
M03  S74
G1 X27.6 Y2.6
M03  S78
G1 X27.4 Y2.6
M03  S80
G1 X27.2 Y2.6
M03  S79
G1 X27.0 Y2.6
M03  S80
G1 X26.8 Y2.6
M03  S81
G1 X26.6 Y2.6
M03  S82
G1 X26.4 Y2.6
M03  S81
G1 X26.2 Y2.6
M03  S80
G1 X25.8 Y2.6
M03  S81
G1 X25.6 Y2.6
M03  S83
G1 X25.4 Y2.6
M03  S85
G1 X25.2 Y2.6
M03  S87
G1 X25.0 Y2.6
M03  S86
G1 X24.6 Y2.6
M03  S87
G1 X24.4 Y2.6
M03  S95
G1 X24.2 Y2.6
M03  S98
G1 X24.0 Y2.6
M03  S102
G1 X23.8 Y2.6
M03  S114
G1 X23.6 Y2.6
M03  S150
G1 X23.4 Y2.6
M03  S143
G1 X23.2 Y2.6
M03  S109
G1 X23.0 Y2.6
M03  S108
G1 X22.8 Y2.6
M03  S116
G1 X22.6 Y2.6
M03  S117
G1 X22.4 Y2.6
M03  S109
G1 X22.2 Y2.6
M03  S122
G1 X22.0 Y2.6
M03  S117
G1 X21.8 Y2.6
M03  S113
G1 X21.4 Y2.6
M03  S106
G1 X21.2 Y2.6
M03  S120
G1 X21.0 Y2.6
M03  S132
G1 X20.8 Y2.6
M03  S135
G1 X20.6 Y2.6
M03  S134
G1 X20.4 Y2.6
M03  S132
G1 X20.2 Y2.6
M03  S110
G1 X20.0 Y2.6
M03  S96
G1 X19.8 Y2.6
M03  S103
G1 X19.6 Y2.6
M03  S91
G1 X19.4 Y2.6
M03  S73
G1 X19.2 Y2.6
M03  S69
G1 X19.0 Y2.6
M03  S72
G1 X18.8 Y2.6
M03  S79
G1 X18.6 Y2.6
M03  S93
G1 X18.4 Y2.6
M03  S100
G1 X18.2 Y2.6
M03  S101
G1 X18.0 Y2.6
M03  S95
G1 X17.8 Y2.6
M03  S87
G1 X17.6 Y2.6
M03  S97
G1 X17.4 Y2.6
M03  S100
G1 X17.2 Y2.6
M03  S94
G1 X17.0 Y2.6
M03  S90
G1 X16.8 Y2.6
M03  S77
G1 X16.6 Y2.6
M03  S75
G1 X16.2 Y2.6
M03  S73
G1 X16.0 Y2.6
M03  S76
G1 X15.8 Y2.6
M03  S75
G1 X15.6 Y2.6
M03  S73
G1 X15.4 Y2.6
M03  S69
G1 X15.2 Y2.6
M03  S71
G1 X15.0 Y2.6
M03  S85
G1 X14.8 Y2.6
M03  S94
G1 X14.6 Y2.6
M03  S108
G1 X14.4 Y2.6
M03  S106
G1 X14.2 Y2.6
M03  S108
G1 X14.0 Y2.6
M03  S101
G1 X13.8 Y2.6
M03  S88
G1 X13.6 Y2.6
M03  S87
G1 X13.4 Y2.6
M03  S74
G1 X13.2 Y2.6
M03  S77
G1 X13.0 Y2.6
M03  S88
G1 X12.8 Y2.6
M03  S100
G1 X12.6 Y2.6
M03  S98
G1 X12.4 Y2.6
M03  S87
G1 X12.2 Y2.6
M03  S85
G1 X12.0 Y2.6
M03  S84
G1 X11.8 Y2.6
M03  S83
G1 X11.6 Y2.6
M03  S76
G1 X11.4 Y2.6
M03  S75
G1 X11.2 Y2.6
M03  S77
G1 X11.0 Y2.6
M03  S86
G1 X10.8 Y2.6
M03  S89
G1 X10.6 Y2.6
M03  S81
G1 X10.4 Y2.6
M03  S87
G1 X10.2 Y2.6
M03  S86
G1 X10.0 Y2.6
M03  S78
G1 X9.8 Y2.6
M03  S81
G1 X9.6 Y2.6
M03  S89
G1 X9.2 Y2.6
M03  S88
G1 X9.0 Y2.6
M03  S90
G1 X8.8 Y2.6
M03  S93
G1 X8.4 Y2.6
M03  S98
G1 X8.2 Y2.6
M03  S102
G1 X8.0 Y2.6
M03  S100
G1 X7.8 Y2.6
M03  S99
G1 X7.6 Y2.6
M03  S101
G1 X7.4 Y2.6
M03  S106
G1 X7.2 Y2.6
M03  S110
G1 X7.0 Y2.6
M03  S98
G1 X6.8 Y2.6
M03  S87
G1 X6.6 Y2.6
M03  S86
G1 X6.2 Y2.6
M03  S87
G1 X6.0 Y2.6
M03  S78
G1 X5.8 Y2.6
M03  S73
G1 X5.6 Y2.6
M03  S86
G1 X5.4 Y2.6
M03  S91
G1 X5.2 Y2.6
M03  S100
G1 X5.0 Y2.6
M03  S98
G1 X4.8 Y2.6
M03  S97
G1 X4.6 Y2.6
M03  S100
G1 X4.4 Y2.6
M03  S114
G1 X4.2 Y2.6
M03  S140
G1 X4.0 Y2.6
M03  S161
G1 X3.8 Y2.6
M03  S137
G1 X3.6 Y2.6
M03  S114
G1 X3.4 Y2.6
M03  S119
G1 X3.2 Y2.6
M03  S132
G1 X3.0 Y2.6
M03  S159
G1 X2.8 Y2.6
M03  S150
G1 X2.6 Y2.6
M03  S159
G1 X2.4 Y2.6
M03  S134
G1 X2.2 Y2.6
M03  S132
G1 X2.0 Y2.6
M03  S120
G1 X1.8 Y2.6
M03  S100
G1 X1.6 Y2.6
M03  S133
G1 X1.4 Y2.6
M03  S142
G1 X1.2 Y2.6
M03  S132
G1 X1.0 Y2.6
M03  S126
G1 X0.8 Y2.6
M03  S122
G1 X0.6 Y2.6
M03  S126
G1 X0.4 Y2.6
M03  S132
G1 X0.2 Y2.6
M03  S125
G1 X0.0 Y2.6
M05
G0 X0.0 Y2.8
M03  S122
G1 X0.2 Y2.8
M03  S126
G1 X0.4 Y2.8
M03  S122
G1 X0.6 Y2.8
M03  S119
G1 X0.8 Y2.8
M03  S126
G1 X1.0 Y2.8
M03  S135
G1 X1.2 Y2.8
M03  S143
G1 X1.4 Y2.8
M03  S136
G1 X1.6 Y2.8
M03  S111
G1 X2.0 Y2.8
M03  S133
G1 X2.2 Y2.8
M03  S127
G1 X2.4 Y2.8
M03  S147
G1 X2.6 Y2.8
M03  S132
G1 X2.8 Y2.8
M03  S149
G1 X3.0 Y2.8
M03  S156
G1 X3.2 Y2.8
M03  S114
G1 X3.4 Y2.8
M03  S107
G1 X3.6 Y2.8
M03  S139
G1 X3.8 Y2.8
M03  S163
G1 X4.0 Y2.8
M03  S154
G1 X4.2 Y2.8
M03  S135
G1 X4.4 Y2.8
M03  S105
G1 X4.6 Y2.8
M03  S97
G1 X4.8 Y2.8
M03  S94
G1 X5.0 Y2.8
M03  S96
G1 X5.2 Y2.8
M03  S94
G1 X5.4 Y2.8
M03  S87
G1 X5.6 Y2.8
M03  S83
G1 X6.0 Y2.8
M03  S86
G1 X6.2 Y2.8
M03  S83
G1 X6.4 Y2.8
M03  S86
G1 X6.6 Y2.8
M03  S92
G1 X6.8 Y2.8
M03  S104
G1 X7.2 Y2.8
M03  S97
G1 X7.4 Y2.8
M03  S101
G1 X7.6 Y2.8
M03  S96
G1 X7.8 Y2.8
M03  S87
G1 X8.0 Y2.8
M03  S95
G1 X8.2 Y2.8
M03  S106
G1 X8.4 Y2.8
M03  S110
G1 X8.6 Y2.8
M03  S111
G1 X8.8 Y2.8
M03  S103
G1 X9.0 Y2.8
M03  S89
G1 X9.4 Y2.8
M03  S96
G1 X9.6 Y2.8
M03  S94
G1 X9.8 Y2.8
M03  S84
G1 X10.0 Y2.8
M03  S74
G1 X10.2 Y2.8
M03  S89
G1 X10.4 Y2.8
M03  S94
G1 X10.6 Y2.8
M03  S83
G1 X10.8 Y2.8
M03  S79
G1 X11.0 Y2.8
M03  S75
G1 X11.2 Y2.8
M03  S78
G1 X11.4 Y2.8
M03  S82
G1 X11.6 Y2.8
M03  S89
G1 X11.8 Y2.8
M03  S85
G1 X12.0 Y2.8
M03  S87
G1 X12.2 Y2.8
M03  S86
G1 X12.4 Y2.8
M03  S91
G1 X12.6 Y2.8
M03  S89
G1 X12.8 Y2.8
M03  S80
G1 X13.0 Y2.8
M03  S83
G1 X13.2 Y2.8
M03  S75
G1 X13.4 Y2.8
M03  S85
G1 X13.6 Y2.8
M03  S92
G1 X13.8 Y2.8
M03  S103
G1 X14.0 Y2.8
M03  S105
G1 X14.4 Y2.8
M03  S107
G1 X14.6 Y2.8
M03  S97
G1 X14.8 Y2.8
M03  S74
G1 X15.0 Y2.8
M03  S70
G1 X15.2 Y2.8
M03  S75
G1 X15.4 Y2.8
M03  S73
G1 X15.6 Y2.8
M03  S75
G1 X15.8 Y2.8
M03  S76
G1 X16.0 Y2.8
M03  S74
G1 X16.6 Y2.8
M03  S78
G1 X16.8 Y2.8
M03  S88
G1 X17.0 Y2.8
M03  S102
G1 X17.2 Y2.8
M03  S105
G1 X17.6 Y2.8
M03  S98
G1 X17.8 Y2.8
M03  S96
G1 X18.0 Y2.8
M03  S98
G1 X18.2 Y2.8
M03  S105
G1 X18.4 Y2.8
M03  S95
G1 X18.6 Y2.8
M03  S80
G1 X18.8 Y2.8
M03  S75
G1 X19.0 Y2.8
M03  S72
G1 X19.2 Y2.8
M03  S73
G1 X19.4 Y2.8
M03  S89
G1 X19.6 Y2.8
M03  S111
G1 X19.8 Y2.8
M03  S117
G1 X20.0 Y2.8
M03  S113
G1 X20.2 Y2.8
M03  S112
G1 X20.4 Y2.8
M03  S135
G1 X20.6 Y2.8
M03  S140
G1 X20.8 Y2.8
M03  S134
G1 X21.0 Y2.8
M03  S144
G1 X21.2 Y2.8
M03  S130
G1 X21.4 Y2.8
M03  S113
G1 X21.6 Y2.8
M03  S114
G1 X21.8 Y2.8
M03  S110
G1 X22.0 Y2.8
M03  S114
G1 X22.2 Y2.8
M03  S119
G1 X22.4 Y2.8
M03  S115
G1 X22.6 Y2.8
M03  S109
G1 X22.8 Y2.8
M03  S111
G1 X23.0 Y2.8
M03  S107
G1 X23.2 Y2.8
M03  S126
G1 X23.4 Y2.8
M03  S156
G1 X23.6 Y2.8
M03  S142
G1 X23.8 Y2.8
M03  S110
G1 X24.0 Y2.8
M03  S103
G1 X24.2 Y2.8
M03  S95
G1 X24.6 Y2.8
M03  S91
G1 X24.8 Y2.8
M03  S81
G1 X25.2 Y2.8
M03  S85
G1 X25.4 Y2.8
M03  S86
G1 X25.6 Y2.8
M03  S81
G1 X25.8 Y2.8
M03  S79
G1 X26.2 Y2.8
M03  S82
G1 X26.6 Y2.8
M03  S79
G1 X26.8 Y2.8
M03  S80
G1 X27.2 Y2.8
M03  S79
G1 X27.6 Y2.8
M03  S75
G1 X27.8 Y2.8
M03  S72
G1 X28.0 Y2.8
M03  S69
G1 X28.2 Y2.8
M03  S65
G1 X28.6 Y2.8
M03  S63
G1 X28.8 Y2.8
M03  S60
G1 X29.0 Y2.8
M03  S59
G1 X29.6 Y2.8
M03  S60
G1 X29.8 Y2.8
M03  S61
G1 X30.0 Y2.8
M03  S63
G1 X30.2 Y2.8
M03  S64
G1 X30.4 Y2.8
M03  S63
G1 X30.6 Y2.8
M03  S62
G1 X30.8 Y2.8
M03  S63
G1 X31.0 Y2.8
M03  S66
G1 X31.4 Y2.8
M03  S68
G1 X31.6 Y2.8
M03  S70
G1 X31.8 Y2.8
M03  S72
G1 X32.0 Y2.8
M03  S73
G1 X32.2 Y2.8
M03  S74
G1 X32.4 Y2.8
M03  S76
G1 X32.6 Y2.8
M03  S77
G1 X32.8 Y2.8
M03  S78
G1 X33.0 Y2.8
M03  S82
G1 X33.2 Y2.8
M03  S81
G1 X33.4 Y2.8
M03  S87
G1 X33.6 Y2.8
M03  S94
G1 X33.8 Y2.8
M03  S97
G1 X34.0 Y2.8
M03  S101
G1 X34.2 Y2.8
M03  S105
G1 X34.4 Y2.8
M03  S110
G1 X34.6 Y2.8
M03  S113
G1 X34.8 Y2.8
M03  S116
G1 X35.0 Y2.8
M03  S119
G1 X35.2 Y2.8
M03  S123
G1 X35.4 Y2.8
M03  S127
G1 X35.6 Y2.8
M03  S131
G1 X35.8 Y2.8
M03  S136
G1 X36.0 Y2.8
M03  S137
G1 X36.2 Y2.8
M03  S140
G1 X36.4 Y2.8
M03  S141
G1 X36.6 Y2.8
M03  S142
G1 X36.8 Y2.8
M03  S143
G1 X37.0 Y2.8
M03  S140
G1 X37.6 Y2.8
M03  S142
G1 X37.8 Y2.8
M03  S145
G1 X38.0 Y2.8
M03  S147
G1 X38.2 Y2.8
M03  S148
G1 X38.4 Y2.8
M03  S153
G1 X38.6 Y2.8
M03  S156
G1 X38.8 Y2.8
M03  S155
G1 X39.0 Y2.8
M03  S149
G1 X39.2 Y2.8
M03  S152
G1 X39.4 Y2.8
M03  S156
G1 X39.6 Y2.8
M03  S146
G1 X39.8 Y2.8
M03  S137
G1 X40.0 Y2.8
M03  S133
G1 X40.2 Y2.8
M03  S114
G1 X40.4 Y2.8
M03  S109
G1 X40.6 Y2.8
M03  S99
G1 X40.8 Y2.8
M03  S109
G1 X41.0 Y2.8
M03  S112
G1 X41.2 Y2.8
M03  S123
G1 X41.4 Y2.8
M03  S134
G1 X41.6 Y2.8
M03  S131
G1 X41.8 Y2.8
M03  S135
G1 X42.0 Y2.8
M03  S147
G1 X42.2 Y2.8
M03  S160
G1 X42.4 Y2.8
M03  S161
G1 X42.6 Y2.8
M03  S156
G1 X42.8 Y2.8
M03  S147
G1 X43.0 Y2.8
M03  S129
G1 X43.2 Y2.8
M03  S138
G1 X43.4 Y2.8
M03  S161
G1 X43.6 Y2.8
M03  S139
G1 X43.8 Y2.8
M03  S120
G1 X44.0 Y2.8
M03  S131
G1 X44.2 Y2.8
M03  S150
G1 X44.4 Y2.8
M03  S133
G1 X44.6 Y2.8
M03  S131
G1 X45.0 Y2.8
M03  S130
G1 X45.2 Y2.8
M03  S136
G1 X45.4 Y2.8
M03  S151
G1 X45.6 Y2.8
M03  S137
G1 X45.8 Y2.8
M03  S135
G1 X46.0 Y2.8
M03  S134
G1 X46.2 Y2.8
M03  S144
G1 X46.4 Y2.8
M03  S153
G1 X46.6 Y2.8
M03  S147
G1 X46.8 Y2.8
M03  S143
G1 X47.0 Y2.8
M03  S145
G1 X47.2 Y2.8
M03  S136
G1 X47.4 Y2.8
M03  S123
G1 X47.6 Y2.8
M03  S122
G1 X47.8 Y2.8
M03  S103
G1 X48.0 Y2.8
M03  S95
G1 X48.2 Y2.8
M03  S115
G1 X48.4 Y2.8
M03  S108
G1 X48.6 Y2.8
M03  S83
G1 X48.8 Y2.8
M03  S78
G1 X49.0 Y2.8
M03  S81
G1 X49.2 Y2.8
M03  S85
G1 X49.4 Y2.8
M03  S81
G1 X49.6 Y2.8
M03  S83
G1 X49.8 Y2.8
M03  S76
G1 X50.0 Y2.8
M03  S65
G1 X50.2 Y2.8
M03  S73
G1 X50.4 Y2.8
M03  S69
G1 X50.6 Y2.8
M03  S75
G1 X50.8 Y2.8
M03  S76
G1 X51.0 Y2.8
M03  S69
G1 X51.2 Y2.8
M03  S68
G1 X51.4 Y2.8
M03  S58
G1 X51.6 Y2.8
M03  S61
G1 X51.8 Y2.8
M03  S62
G1 X52.0 Y2.8
M03  S63
G1 X52.2 Y2.8
M03  S71
G1 X52.4 Y2.8
M03  S78
G1 X52.6 Y2.8
M03  S82
G1 X52.8 Y2.8
M03  S90
G1 X53.0 Y2.8
M03  S79
G1 X53.2 Y2.8
M03  S60
G1 X53.4 Y2.8
M03  S52
G1 X53.6 Y2.8
M03  S53
G1 X53.8 Y2.8
M03  S54
G1 X54.0 Y2.8
M03  S59
G1 X54.2 Y2.8
M03  S68
G1 X54.4 Y2.8
M03  S66
G1 X54.6 Y2.8
M03  S64
G1 X54.8 Y2.8
M03  S63
G1 X55.0 Y2.8
M03  S67
G1 X55.2 Y2.8
M03  S65
G1 X55.4 Y2.8
M03  S54
G1 X55.6 Y2.8
M03  S52
G1 X55.8 Y2.8
M03  S69
G1 X56.0 Y2.8
M03  S74
G1 X56.2 Y2.8
M03  S77
G1 X56.4 Y2.8
M03  S74
G1 X56.6 Y2.8
M03  S70
G1 X56.8 Y2.8
M03  S67
G1 X57.0 Y2.8
M03  S65
G1 X57.2 Y2.8
M03  S64
G1 X57.4 Y2.8
M03  S47
G1 X57.6 Y2.8
M03  S46
G1 X57.8 Y2.8
M03  S50
G1 X58.0 Y2.8
M03  S47
G1 X58.2 Y2.8
M03  S49
G1 X58.4 Y2.8
M03  S57
G1 X58.6 Y2.8
M03  S58
G1 X58.8 Y2.8
M03  S45
G1 X59.0 Y2.8
M03  S44
G1 X59.2 Y2.8
M03  S51
G1 X59.4 Y2.8
M03  S43
G1 X59.6 Y2.8
M03  S36
G1 X59.8 Y2.8
M03  S34
G1 X60.0 Y2.8
M03  S35
G1 X60.2 Y2.8
M03  S63
G1 X60.4 Y2.8
M03  S70
G1 X60.6 Y2.8
M05
G0 X60.6 Y3.0
M03  S71
G1 X60.4 Y3.0
M03  S54
G1 X60.2 Y3.0
M03  S26
G1 X60.0 Y3.0
M03  S34
G1 X59.8 Y3.0
M03  S36
G1 X59.6 Y3.0
M03  S48
G1 X59.4 Y3.0
M03  S51
G1 X59.2 Y3.0
M03  S37
G1 X59.0 Y3.0
M03  S49
G1 X58.8 Y3.0
M03  S72
G1 X58.4 Y3.0
M03  S62
G1 X58.2 Y3.0
M03  S44
G1 X58.0 Y3.0
M03  S43
G1 X57.8 Y3.0
M03  S42
G1 X57.6 Y3.0
M03  S48
G1 X57.4 Y3.0
M03  S76
G1 X57.2 Y3.0
M03  S83
G1 X56.6 Y3.0
M03  S82
G1 X56.2 Y3.0
M03  S73
G1 X56.0 Y3.0
M03  S60
G1 X55.8 Y3.0
M03  S49
G1 X55.6 Y3.0
M03  S63
G1 X55.4 Y3.0
M03  S71
G1 X55.2 Y3.0
M03  S62
G1 X55.0 Y3.0
M03  S51
G1 X54.8 Y3.0
M03  S55
G1 X54.6 Y3.0
M03  S63
G1 X54.4 Y3.0
M03  S62
G1 X54.2 Y3.0
M03  S55
G1 X54.0 Y3.0
M03  S53
G1 X53.8 Y3.0
M03  S51
G1 X53.6 Y3.0
M03  S46
G1 X53.2 Y3.0
M03  S74
G1 X53.0 Y3.0
M03  S86
G1 X52.8 Y3.0
M03  S89
G1 X52.6 Y3.0
M03  S85
G1 X52.4 Y3.0
M03  S84
G1 X52.2 Y3.0
M03  S80
G1 X52.0 Y3.0
M03  S75
G1 X51.8 Y3.0
M03  S76
G1 X51.6 Y3.0
M03  S74
G1 X51.4 Y3.0
M03  S85
G1 X51.2 Y3.0
M03  S86
G1 X51.0 Y3.0
M03  S70
G1 X50.8 Y3.0
M03  S72
G1 X50.6 Y3.0
M03  S68
G1 X50.4 Y3.0
M03  S71
G1 X50.2 Y3.0
M03  S68
G1 X50.0 Y3.0
M03  S83
G1 X49.8 Y3.0
M03  S95
G1 X49.6 Y3.0
M03  S104
G1 X49.4 Y3.0
M03  S106
G1 X49.2 Y3.0
M03  S94
G1 X49.0 Y3.0
M03  S98
G1 X48.8 Y3.0
M03  S93
G1 X48.6 Y3.0
M03  S100
G1 X48.4 Y3.0
M03  S107
G1 X48.2 Y3.0
M03  S120
G1 X48.0 Y3.0
M03  S124
G1 X47.6 Y3.0
M03  S108
G1 X47.4 Y3.0
M03  S127
G1 X47.2 Y3.0
M03  S146
G1 X47.0 Y3.0
M03  S152
G1 X46.8 Y3.0
M03  S145
G1 X46.6 Y3.0
M03  S132
G1 X46.4 Y3.0
M03  S127
G1 X46.2 Y3.0
M03  S156
G1 X45.8 Y3.0
M03  S154
G1 X45.6 Y3.0
M03  S146
G1 X45.4 Y3.0
M03  S123
G1 X45.2 Y3.0
M03  S132
G1 X45.0 Y3.0
M03  S134
G1 X44.6 Y3.0
M03  S138
G1 X44.4 Y3.0
M03  S147
G1 X44.2 Y3.0
M03  S138
G1 X44.0 Y3.0
M03  S132
G1 X43.8 Y3.0
M03  S145
G1 X43.6 Y3.0
M03  S161
G1 X43.4 Y3.0
M03  S135
G1 X43.2 Y3.0
M03  S132
G1 X43.0 Y3.0
M03  S153
G1 X42.8 Y3.0
M03  S160
G1 X42.6 Y3.0
M03  S162
G1 X42.4 Y3.0
M03  S159
G1 X42.2 Y3.0
M03  S144
G1 X42.0 Y3.0
M03  S131
G1 X41.8 Y3.0
M03  S127
G1 X41.6 Y3.0
M03  S129
G1 X41.4 Y3.0
M03  S124
G1 X41.2 Y3.0
M03  S120
G1 X41.0 Y3.0
M03  S118
G1 X40.8 Y3.0
M03  S100
G1 X40.6 Y3.0
M03  S109
G1 X40.4 Y3.0
M03  S122
G1 X40.2 Y3.0
M03  S134
G1 X40.0 Y3.0
M03  S139
G1 X39.8 Y3.0
M03  S157
G1 X39.6 Y3.0
M03  S155
G1 X39.4 Y3.0
M03  S143
G1 X39.2 Y3.0
M03  S154
G1 X39.0 Y3.0
M03  S157
G1 X38.8 Y3.0
M03  S151
G1 X38.6 Y3.0
M03  S146
G1 X38.4 Y3.0
M03  S143
G1 X38.2 Y3.0
M03  S142
G1 X37.8 Y3.0
M03  S141
